; generated by Slic3r 0.7.1 on 2012-05-12 at 20:53:21

; layer_height = .35
; perimeters = 2
; solid_layers = 2
; fill_density = .42
; nozzle_diameter = .35
; filament_diameter = 1.75
; extrusion_multiplier = 1
; perimeter_speed = 30
; infill_speed = 60
; travel_speed = 150
; extrusion_width_ratio = 0
; scale = 1
; single wall width = 0.37mm

M190 S80 ; set bed temperature
M104 S185 ; set temperature

M109 S185 ; wait for temperature to be reached
G90 ; use absolute coordinates
G21 ; set units to millimeters
G92 E0 ; reset extrusion distance
M82 ; use absolute distances for extrusion
G1 Z0.350 F9000.000
G1 X70.131 Y73.258
G1 F1800.000 E1.00000
G1 X70.231 Y72.738 F1800.000 E1.02803
G1 X70.381 Y72.228 E1.05617
G1 X70.571 Y71.728 E1.08448
G1 X70.791 Y71.248 E1.11242
G1 X71.061 Y70.788 E1.14066
G1 X71.211 Y70.568 E1.15475
G1 X71.531 Y70.148 E1.18270
G1 X72.081 Y69.568 E1.22500
G1 X72.281 Y69.388 E1.23925
G1 X72.911 Y68.908 E1.28117
G1 X73.601 Y68.518 E1.32312
G1 X74.091 Y68.298 E1.35155
G1 X74.591 Y68.128 E1.37950
G1 X75.101 Y67.998 E1.40736
G1 X75.631 Y67.908 E1.43581
G1 X76.151 Y67.858 E1.46346
G1 X98.551 Y67.868 E2.64909
G1 X126.451 Y69.838 E4.12950
G1 X127.231 Y70.008 E4.17175
G1 X127.731 Y70.178 E4.19970
G1 X128.221 Y70.388 E4.22792
G1 X128.691 Y70.638 E4.25610
G1 X129.131 Y70.918 E4.28370
G1 X129.351 Y71.078 E4.29810
G1 X129.951 Y71.598 E4.34013
G1 X130.481 Y72.188 E4.38211
G1 X130.791 Y72.618 E4.41016
G1 X131.301 Y73.548 E4.46630
G1 X131.491 Y74.048 E4.49461
G1 X131.701 Y74.808 E4.53635
G1 X131.791 Y75.338 E4.56480
G1 X131.841 Y75.858 E4.59245
G1 X131.831 Y98.248 E5.77755
G1 X129.861 Y126.738 E7.28911
G1 X129.761 Y127.258 E7.31714
G1 X129.611 Y127.768 E7.34528
G1 X129.421 Y128.268 E7.37359
G1 X129.201 Y128.748 E7.40153
G1 X128.931 Y129.208 E7.42977
G1 X128.781 Y129.428 E7.44386
G1 X128.461 Y129.848 E7.47181
G1 X127.911 Y130.428 E7.51412
G1 X127.711 Y130.608 E7.52836
G1 X127.081 Y131.088 E7.57028
G1 X126.391 Y131.478 E7.61223
G1 X125.901 Y131.698 E7.64066
G1 X125.401 Y131.868 E7.66861
G1 X124.891 Y131.998 E7.69647
G1 X124.361 Y132.088 E7.72492
G1 X123.841 Y132.138 E7.75257
G1 X101.441 Y132.128 E8.93820
G1 X73.541 Y130.158 E10.41861
G1 X72.761 Y129.988 E10.46086
G1 X72.261 Y129.818 E10.48882
G1 X71.771 Y129.608 E10.51703
G1 X71.301 Y129.358 E10.54521
G1 X70.861 Y129.078 E10.57281
G1 X70.641 Y128.918 E10.58721
G1 X70.041 Y128.398 E10.62924
G1 X69.511 Y127.808 E10.67122
G1 X69.201 Y127.378 E10.69927
G1 X68.691 Y126.448 E10.75541
G1 X68.501 Y125.948 E10.78373
G1 X68.291 Y125.188 E10.82546
G1 X68.201 Y124.658 E10.85391
G1 X68.151 Y124.138 E10.88156
G1 X68.161 Y101.738 E12.06719
G1 X70.125 Y73.312 E13.57531
G1 X70.491 Y73.298 F9000.000
G1 X70.591 Y72.788 F1800.000 E13.60282
G1 X70.821 Y72.058 E13.64333
G1 X71.031 Y71.588 E13.67057
G1 X71.411 Y70.908 E13.71181
G1 X71.711 Y70.498 E13.73870
G1 X72.231 Y69.918 E13.77993
G1 X72.821 Y69.418 E13.82086
G1 X73.241 Y69.128 E13.84788
G1 X73.461 Y68.998 E13.86140
G1 X73.921 Y68.758 E13.88886
G1 X74.401 Y68.568 E13.91619
G1 X74.891 Y68.418 E13.94331
G1 X75.391 Y68.308 E13.97041
G1 X75.911 Y68.238 E13.99818
G1 X76.421 Y68.218 E14.02519
G1 X98.531 Y68.228 E15.19547
G1 X126.411 Y70.198 E16.67482
G1 X126.911 Y70.298 E16.70181
G1 X127.411 Y70.448 E16.72944
G1 X127.891 Y70.628 E16.75658
G1 X128.351 Y70.858 E16.78380
G1 X129.001 Y71.268 E16.82447
G1 X129.601 Y71.758 E16.86548
G1 X129.781 Y71.938 E16.87895
G1 X130.281 Y72.528 E16.91989
G1 X130.431 Y72.738 E16.93354
G1 X130.821 Y73.398 E16.97412
G1 X130.941 Y73.628 E16.98785
G1 X131.131 Y74.108 E17.01518
G1 X131.281 Y74.598 E17.04230
G1 X131.391 Y75.108 E17.06991
G1 X131.461 Y75.618 E17.09716
G1 X131.471 Y98.228 E18.29390
G1 X129.501 Y126.698 E19.80441
G1 X129.401 Y127.208 E19.83192
G1 X129.171 Y127.938 E19.87243
G1 X128.961 Y128.408 E19.89967
G1 X128.581 Y129.088 E19.94091
G1 X128.281 Y129.498 E19.96780
G1 X127.761 Y130.078 E20.00903
G1 X127.171 Y130.578 E20.04996
G1 X126.751 Y130.868 E20.07698
G1 X126.531 Y130.998 E20.09050
G1 X126.071 Y131.238 E20.11796
G1 X125.591 Y131.428 E20.14529
G1 X125.101 Y131.578 E20.17241
G1 X124.601 Y131.688 E20.19951
G1 X124.081 Y131.758 E20.22728
G1 X123.571 Y131.778 E20.25429
G1 X101.461 Y131.768 E21.42457
G1 X73.581 Y129.798 E22.90392
G1 X73.081 Y129.698 E22.93091
G1 X72.581 Y129.548 E22.95854
G1 X72.101 Y129.368 E22.98568
G1 X71.641 Y129.138 E23.01290
G1 X70.991 Y128.728 E23.05358
G1 X70.391 Y128.238 E23.09458
G1 X70.211 Y128.058 E23.10805
G1 X69.711 Y127.468 E23.14899
G1 X69.561 Y127.258 E23.16264
G1 X69.171 Y126.598 E23.20322
G1 X69.051 Y126.368 E23.21695
G1 X68.861 Y125.888 E23.24428
G1 X68.711 Y125.398 E23.27140
G1 X68.601 Y124.888 E23.29902
G1 X68.531 Y124.378 E23.32626
G1 X68.521 Y101.758 E24.52353
G1 X70.485 Y73.352 E26.03060
G1 F1800.000 E25.03060
G92 E0
G1 X74.874 Y102.538 F9000.000
G1 F1800.000 E1.00000
G1 X89.276 Y102.538 F1800.000 E1.76226
G1 X89.276 Y105.206 E1.90349
G1 X93.657 Y105.214 E2.13541
G1 X93.657 Y105.845 E2.16884
G1 X89.276 Y105.845 E2.40076
G1 X89.276 Y120.201 E3.16058
G1 X93.657 Y120.211 E3.39250
G1 X93.657 Y120.841 E3.42582
G1 X89.276 Y120.841 E3.65774
G1 X89.276 Y123.510 E3.79902
G1 X74.874 Y123.510 E4.56128
G1 X74.874 Y122.388 E4.62064
G1 X84.232 Y122.388 E5.11592
G1 X84.232 Y103.659 E6.10725
G1 X74.874 Y103.659 E6.60252
G1 X74.874 Y102.593 E6.65896
G1 X74.514 Y102.177 F9000.000
G1 X89.636 Y102.177 F1800.000 E7.45940
G1 X89.636 Y104.846 E7.60066
G1 X94.018 Y104.854 E7.83258
G1 X94.018 Y106.198 E7.90373
G1 X93.823 Y106.206 E7.91406
G1 X89.636 Y106.206 E8.13566
G1 X89.636 Y119.841 E8.85735
G1 X94.018 Y119.851 E9.08927
G1 X94.018 Y121.196 E9.16042
G1 X93.824 Y121.201 E9.17069
G1 X89.636 Y121.201 E9.39235
G1 X89.636 Y123.870 E9.53363
G1 X74.514 Y123.870 E10.33406
G1 X74.514 Y122.028 E10.43159
G1 X83.871 Y122.028 E10.92687
G1 X83.871 Y104.020 E11.88002
G1 X74.514 Y104.020 E12.37530
G1 X74.514 Y102.232 E12.46992
G1 F1800.000 E11.46992
G92 E0
G1 X102.244 Y111.018 F9000.000
G1 F1800.000 E1.00000
G1 X104.912 Y111.018 F1800.000 E1.14123
G1 X104.920 Y106.636 E1.37315
G1 X105.543 Y106.636 E1.40610
G1 X105.553 Y111.018 E1.63803
G1 X119.907 Y111.018 E2.39778
G1 X119.917 Y106.636 E2.62970
G1 X120.540 Y106.636 E2.66266
G1 X120.548 Y111.018 E2.89458
G1 X123.216 Y111.018 E3.03581
G1 X123.216 Y125.419 E3.79807
G1 X122.095 Y125.419 E3.85742
G1 X122.095 Y116.062 E4.35270
G1 X103.365 Y116.062 E5.34403
G1 X103.365 Y125.419 E5.83931
G1 X102.244 Y125.419 E5.89866
G1 X102.244 Y111.073 E6.65800
G1 X101.883 Y110.657 F9000.000
G1 X104.552 Y110.657 F1800.000 E6.79927
G1 X104.560 Y106.276 E7.03119
G1 X105.902 Y106.276 E7.10224
G1 X105.913 Y110.657 E7.33416
G1 X119.547 Y110.657 E8.05583
G1 X119.558 Y106.276 E8.28775
G1 X120.900 Y106.276 E8.35881
G1 X120.908 Y110.657 E8.59073
G1 X123.577 Y110.657 E8.73199
G1 X123.577 Y125.780 E9.53242
G1 X121.734 Y125.780 E9.62996
G1 X121.734 Y116.423 E10.12523
G1 X103.726 Y116.423 E11.07838
G1 X103.726 Y125.780 E11.57366
G1 X101.883 Y125.780 E11.67120
G1 X101.883 Y110.712 E12.46871
G1 F1800.000 E11.46871
G92 E0
G1 X110.724 Y97.462 F9000.000
G1 F1800.000 E1.00000
G1 X110.724 Y94.794 F1800.000 E1.14123
G1 X106.343 Y94.786 E1.37315
G1 X106.343 Y94.155 E1.40658
G1 X110.724 Y94.155 E1.63850
G1 X110.724 Y79.799 E2.39833
G1 X106.343 Y79.789 E2.63025
G1 X106.343 Y79.159 E2.66356
G1 X110.724 Y79.159 E2.89548
G1 X110.724 Y76.490 E3.03676
G1 X125.126 Y76.490 E3.79902
G1 X125.126 Y77.612 E3.85838
G1 X115.768 Y77.612 E4.35366
G1 X115.768 Y96.341 E5.34499
G1 X125.126 Y96.341 E5.84026
G1 X125.126 Y97.462 E5.89962
G1 X110.779 Y97.462 E6.65896
G1 X110.364 Y97.823 F9000.000
G1 X110.364 Y95.154 F1800.000 E6.80022
G1 X105.982 Y95.146 E7.03214
G1 X105.982 Y93.802 E7.10329
G1 X106.177 Y93.794 E7.11363
G1 X110.364 Y93.794 E7.33522
G1 X110.364 Y80.159 E8.05691
G1 X105.982 Y80.149 E8.28883
G1 X105.982 Y78.804 E8.35999
G1 X106.176 Y78.799 E8.37026
G1 X110.364 Y78.799 E8.59191
G1 X110.364 Y76.130 E8.73319
G1 X125.486 Y76.130 E9.53362
G1 X125.486 Y77.972 E9.63116
G1 X116.129 Y77.972 E10.12644
G1 X116.129 Y95.980 E11.07959
G1 X125.486 Y95.980 E11.57487
G1 X125.486 Y97.823 E11.67240
G1 X110.419 Y97.823 E12.46992
G1 F1800.000 E11.46992
G92 E0
G1 X97.756 Y88.982 F9000.000
G1 F1800.000 E1.00000
G1 X95.088 Y88.982 F1800.000 E1.14123
G1 X95.080 Y93.364 E1.37315
G1 X94.457 Y93.364 E1.40611
G1 X94.447 Y88.982 E1.63803
G1 X80.093 Y88.982 E2.39778
G1 X80.083 Y93.364 E2.62971
G1 X79.460 Y93.364 E2.66266
G1 X79.452 Y88.982 E2.89458
G1 X76.784 Y88.982 E3.03581
G1 X76.784 Y74.581 E3.79807
G1 X77.905 Y74.581 E3.85742
G1 X77.905 Y83.938 E4.35270
G1 X96.635 Y83.938 E5.34403
G1 X96.635 Y74.581 E5.83931
G1 X97.756 Y74.581 E5.89867
G1 X97.756 Y88.927 E6.65801
G1 X98.117 Y89.343 F9000.000
G1 X95.448 Y89.343 F1800.000 E6.79927
G1 X95.440 Y93.724 E7.03119
G1 X94.098 Y93.724 E7.10224
G1 X94.087 Y89.343 E7.33416
G1 X80.453 Y89.343 E8.05584
G1 X80.442 Y93.724 E8.28776
G1 X79.100 Y93.724 E8.35881
G1 X79.092 Y89.343 E8.59073
G1 X76.423 Y89.343 E8.73199
G1 X76.423 Y74.220 E9.53242
G1 X78.266 Y74.220 E9.62996
G1 X78.266 Y83.577 E10.12524
G1 X96.274 Y83.577 E11.07839
G1 X96.274 Y74.220 E11.57367
G1 X98.117 Y74.220 E11.67120
G1 X98.117 Y89.288 E12.46872
G1 F1800.000 E11.46872
G92 E0
G1 X122.641 Y111.275 F9000.000
G1 F1800.000 E1.00000
G1 X122.959 Y111.593 F3600.000 E1.02391
G1 X122.959 Y112.104 E1.05100
G1 X122.130 Y111.275 E1.11323
G1 X121.619 Y111.275 E1.14032
G1 X122.959 Y112.615 E1.24086
G1 X122.959 Y113.126 E1.26796
G1 X121.109 Y111.275 E1.40682
G1 X120.598 Y111.275 E1.43392
G1 X122.959 Y113.636 E1.61110
G1 X122.959 Y114.147 E1.63819
G1 X120.087 Y111.275 E1.85369
G1 X119.576 Y111.275 E1.88078
G1 X122.959 Y114.658 E2.13460
G1 X122.959 Y115.169 E2.16170
G1 X119.066 Y111.275 E2.45383
G1 X118.555 Y111.275 E2.48093
G1 X122.959 Y115.679 E2.81138
G1 X122.959 Y116.190 F9000.000
G1 X118.044 Y111.275 F3600.000 E3.18016
G1 X117.533 Y111.275 E3.20725
G1 X122.064 Y115.805 E3.54716
G1 X121.553 Y115.805 E3.57426
G1 X117.023 Y111.275 E3.91417
G1 X116.512 Y111.275 E3.94127
G1 X121.042 Y115.805 E4.28118
G1 X120.532 Y115.805 E4.30828
G1 X116.001 Y111.275 E4.64819
G1 X115.490 Y111.275 E4.67529
G1 X120.021 Y115.805 E5.01520
G1 X119.510 Y115.805 E5.04229
G1 X114.980 Y111.275 E5.38221
G1 X114.469 Y111.275 E5.40930
G1 X118.999 Y115.805 E5.74922
G1 X118.489 Y115.805 E5.77631
G1 X113.958 Y111.275 E6.11623
G1 X113.447 Y111.275 E6.14332
G1 X117.978 Y115.805 E6.48323
G1 X117.467 Y115.805 E6.51033
G1 X112.937 Y111.275 E6.85024
G1 X112.426 Y111.275 E6.87734
G1 X116.956 Y115.805 E7.21725
G1 X116.446 Y115.805 E7.24435
G1 X111.915 Y111.275 E7.58426
G1 X111.404 Y111.275 E7.61136
G1 X115.935 Y115.805 E7.95127
G1 X115.424 Y115.805 E7.97837
G1 X110.894 Y111.275 E8.31828
G1 X110.383 Y111.275 E8.34537
G1 X114.913 Y115.805 E8.68529
G1 X114.403 Y115.805 E8.71238
G1 X109.872 Y111.275 E9.05230
G1 X109.361 Y111.275 E9.07939
G1 X113.892 Y115.805 E9.41930
G1 X113.381 Y115.805 E9.44640
G1 X108.851 Y111.275 E9.78631
G1 X108.340 Y111.275 E9.81341
G1 X112.870 Y115.805 E10.15332
G1 X112.360 Y115.805 E10.18042
G1 X107.829 Y111.275 E10.52033
G1 X107.318 Y111.275 E10.54743
G1 X111.849 Y115.805 E10.88734
G1 X111.338 Y115.805 E10.91444
G1 X106.808 Y111.275 E11.25435
G1 X106.297 Y111.275 E11.28144
G1 X110.827 Y115.805 E11.62136
G1 X110.317 Y115.805 E11.64845
G1 X105.786 Y111.275 E11.98837
G1 X105.275 Y111.275 E12.01546
G1 X109.806 Y115.805 E12.35538
G1 X109.295 Y115.805 E12.38247
G1 X104.765 Y111.275 E12.72238
G1 X104.254 Y111.275 E12.74948
G1 X108.784 Y115.805 E13.08939
G1 X108.274 Y115.805 E13.11649
G1 X103.743 Y111.275 E13.45640
G1 X103.232 Y111.275 E13.48350
G1 X107.763 Y115.805 E13.82341
G1 X107.252 Y115.805 E13.85051
G1 X102.722 Y111.275 E14.19042
G1 X102.501 Y111.564 E14.20975
G1 X106.741 Y115.805 E14.52792
G1 X106.231 Y115.805 E14.55501
G1 X102.501 Y112.075 E14.83486
G1 X102.501 Y112.586 E14.86196
G1 X105.720 Y115.805 E15.10349
G1 X105.209 Y115.805 E15.13058
G1 X102.501 Y113.097 E15.33379
G1 X102.501 Y113.607 E15.36089
G1 X104.698 Y115.805 E15.52578
G1 X104.188 Y115.805 E15.55288
G1 X102.501 Y114.118 E15.67945
G1 X102.501 Y114.629 E15.70655
G1 X103.677 Y115.805 E15.79480
G1 X103.166 Y115.805 E15.82190
G1 X102.501 Y115.140 E15.87183
G1 X102.501 Y115.650 E15.89893
G1 X103.109 Y116.259 E15.94455
G1 X103.109 Y116.769 E15.97165
G1 X102.501 Y116.161 E16.01727
G1 X102.501 Y116.672 E16.04437
G1 X103.109 Y117.280 E16.08999
G1 X103.109 Y117.791 E16.11709
G1 X102.501 Y117.183 E16.16271
G1 X102.501 Y117.693 E16.18981
G1 X103.109 Y118.302 E16.23543
G1 X103.109 Y118.812 E16.26253
G1 X102.501 Y118.204 E16.30815
G1 X102.501 Y118.715 E16.33525
G1 X103.109 Y119.323 E16.38087
G1 X103.109 Y119.834 E16.40797
G1 X102.501 Y119.226 E16.45359
G1 X102.501 Y119.736 E16.48069
G1 X103.109 Y120.345 E16.52631
G1 X103.109 Y120.855 E16.55341
G1 X102.501 Y120.247 E16.59903
G1 X102.501 Y120.758 E16.62613
G1 X103.109 Y121.366 E16.67175
G1 X103.109 Y121.877 E16.69884
G1 X102.501 Y121.269 E16.74447
G1 X102.501 Y121.779 E16.77156
G1 X103.109 Y122.388 E16.81719
G1 X103.109 Y122.898 E16.84428
G1 X102.501 Y122.290 E16.88991
G1 X102.501 Y122.801 E16.91700
G1 X103.109 Y123.409 E16.96263
G1 X103.109 Y123.920 E16.98972
G1 X102.501 Y123.312 E17.03535
G1 X102.501 Y123.822 E17.06244
G1 X103.109 Y124.431 E17.10807
G1 X103.109 Y124.941 E17.13516
G1 X102.501 Y124.333 E17.18079
G1 X102.501 Y124.844 E17.20788
G1 X102.819 Y125.163 E17.23179
G1 F1800.000 E16.23179
G92 E0
G1 X122.351 Y124.775 F9000.000
G1 F1800.000 E1.00000
G1 X122.739 Y125.163 F3600.000 E1.02905
G1 X122.959 Y124.873 F9000.000
G1 X122.351 Y124.265 F3600.000 E1.07468
G1 X122.351 Y123.754 F9000.000
G1 X122.959 Y124.362 F3600.000 E1.12030
G1 X122.959 Y123.851 F9000.000
G1 X122.351 Y123.243 F3600.000 E1.16593
G1 X122.351 Y122.732 F9000.000
G1 X122.959 Y123.341 F3600.000 E1.21155
G1 X122.959 Y122.830 F9000.000
G1 X122.351 Y122.222 F3600.000 E1.25718
G1 X122.351 Y121.711 F9000.000
G1 X122.959 Y122.319 F3600.000 E1.30280
G1 X122.959 Y121.808 F9000.000
G1 X122.351 Y121.200 F3600.000 E1.34843
G1 X122.351 Y120.689 F9000.000
G1 X122.959 Y121.298 F3600.000 E1.39405
G1 X122.959 Y120.787 F9000.000
G1 X122.351 Y120.179 F3600.000 E1.43968
G1 X122.351 Y119.668 F9000.000
G1 X122.959 Y120.276 F3600.000 E1.48530
G1 X122.959 Y119.765 F9000.000
G1 X122.351 Y119.157 F3600.000 E1.53093
G1 X122.351 Y118.646 F9000.000
G1 X122.959 Y119.255 F3600.000 E1.57655
G1 X122.959 Y118.744 F9000.000
G1 X122.351 Y118.136 F3600.000 E1.62218
G1 X122.351 Y117.625 F9000.000
G1 X122.959 Y118.233 F3600.000 E1.66780
G1 X122.959 Y117.722 F9000.000
G1 X122.351 Y117.114 F3600.000 E1.71343
G1 X122.351 Y116.603 F9000.000
G1 X122.959 Y117.212 F3600.000 E1.75905
G1 X122.959 Y116.701 F9000.000
G1 X122.351 Y116.093 F3600.000 E1.80468
G1 F1800.000 E0.80468
G92 E0
G1 X88.700 Y102.794 F9000.000
G1 F1800.000 E1.00000
G1 X89.019 Y103.113 F3600.000 E1.02391
G1 X89.019 Y103.624 E1.05100
G1 X88.190 Y102.794 E1.11323
G1 X87.679 Y102.794 E1.14032
G1 X89.019 Y104.134 E1.24086
G1 X89.019 Y104.645 E1.26796
G1 X87.168 Y102.794 E1.40682
G1 X86.657 Y102.794 E1.43392
G1 X89.019 Y105.156 E1.61110
G1 X89.019 Y105.667 E1.63819
G1 X86.147 Y102.794 E1.85369
G1 X85.636 Y102.794 E1.88079
G1 X89.019 Y106.177 E2.13460
G1 X89.019 Y106.688 E2.16170
G1 X85.125 Y102.794 E2.45384
G1 X84.614 Y102.794 E2.48093
G1 X89.019 Y107.199 E2.81139
G1 X89.019 Y107.710 E2.83848
G1 X84.104 Y102.794 E3.20726
G1 X83.593 Y102.794 F9000.000
G1 X84.201 Y103.402 F3600.000 E3.25288
G1 X84.488 Y103.690 F9000.000
G1 X89.019 Y108.220 F3600.000 E3.59279
G1 X89.019 Y108.731 E3.61989
G1 X84.488 Y104.200 E3.95980
G1 X84.488 Y104.711 E3.98690
