; generated by Slic3r 0.7.1 on 2012-04-26 at 10:14:48

; layer_height = .35
; perimeters = 3
; solid_layers = 3
; fill_density = .42
; nozzle_diameter = .35
; filament_diameter = 1.75
; extrusion_multiplier = 1
; perimeter_speed = 30
; infill_speed = 30
; travel_speed = 150
; extrusion_width_ratio = 0
; scale = 1
; single wall width = 0.37mm

M190 S80 ; set bed temperature
M104 S160 ; set temperature

M109 S160 ; wait for temperature to be reached
G90 ; use absolute coordinates
G21 ; set units to millimeters
G92 E0 ; reset extrusion distance
M82 ; use absolute distances for extrusion
G1 Z0.350 F9000.000
G1 X-18.032 Y-18.875
G1 F1800.000 E2.00000
G1 X-8.572 Y-25.235 F1800.000 E2.60335
G1 X-8.082 Y-25.475 E2.63223
G1 X-8.092 Y-25.475 E2.63276
G1 X-6.902 Y-26.025 E2.70215
G1 X-6.352 Y-26.215 E2.73295
G1 X-4.642 Y-26.675 E2.82668
G1 X-4.192 Y-26.745 E2.85078
G1 X-2.782 Y-26.865 E2.92568
G1 X-1.772 Y-26.865 E2.97914
G1 X-0.162 Y-26.715 E3.06473
G1 X1.608 Y-26.265 E3.16139
G1 X2.558 Y-25.915 E3.21498
G1 X4.208 Y-25.125 E3.31181
G1 X5.868 Y-23.955 E3.41930
G1 X6.028 Y-23.825 E3.43021
G1 X7.458 Y-22.395 E3.53725
G1 X7.718 Y-22.065 E3.55949
G1 X8.638 Y-20.755 E3.64422
G1 X8.858 Y-20.395 E3.66655
G1 X9.548 Y-18.955 E3.75107
G1 X9.828 Y-18.215 E3.79295
G1 X17.518 Y6.305 E5.15311
G1 X17.588 Y6.595 E5.16890
G1 X17.678 Y7.195 E5.20101
G1 X17.688 Y12.715 E5.49318
G1 X17.618 Y13.235 E5.52096
G1 X17.508 Y13.735 E5.54805
G1 X17.358 Y14.225 E5.57518
G1 X17.168 Y14.705 E5.60250
G1 X16.928 Y15.165 E5.62996
G1 X16.798 Y15.385 E5.64349
G1 X16.348 Y16.015 E5.68447
G1 X16.008 Y16.395 E5.71146
G1 X15.428 Y16.915 E5.75269
G1 X14.798 Y17.355 E5.79336
G1 X14.108 Y17.705 E5.83431
G1 X-6.262 Y26.545 E7.00964
G1 X-6.862 Y26.705 E7.04250
G1 X-7.472 Y26.805 E7.07522
G1 X-8.132 Y26.865 E7.11030
G1 X-8.422 Y26.875 E7.12566
G1 X-8.722 Y26.875 E7.14154
G1 X-9.012 Y26.855 E7.15692
G1 X-9.952 Y26.725 E7.20715
G1 X-10.232 Y26.665 E7.22231
G1 X-10.792 Y26.505 E7.25313
G1 X-11.062 Y26.405 E7.26837
G1 X-15.792 Y23.935 E7.55081
G1 X-16.702 Y23.345 E7.60821
G1 X-17.282 Y22.885 E7.64740
G1 X-18.242 Y21.935 E7.71888
G1 X-18.612 Y21.495 E7.74931
G1 X-18.932 Y21.035 E7.77897
G1 X-18.942 Y21.025 E7.77972
G1 X-19.462 Y20.205 E7.83111
G1 X-19.752 Y19.645 E7.86449
G1 X-20.292 Y18.195 E7.94639
G1 X-20.412 Y17.775 E7.96951
G1 X-23.092 Y1.375 E8.84907
G1 X-23.222 Y0.065 E8.91875
G1 X-23.232 Y-0.425 E8.94469
G1 X-23.092 Y-1.985 E9.02759
G1 X-20.452 Y-15.565 E9.75983
G1 X-20.282 Y-16.055 E9.78728
G1 X-20.072 Y-16.535 E9.81501
G1 X-19.822 Y-16.995 E9.84272
G1 X-19.382 Y-17.645 E9.88427
G1 X-19.212 Y-17.845 E9.89816
G1 X-18.852 Y-18.225 E9.92587
G1 X-18.462 Y-18.565 E9.95325
G1 X-18.252 Y-18.725 E9.96723
G1 X-18.077 Y-18.844 E9.97840
G1 F1800.000 E7.97840
G92 E0
G1 X-11.051 Y8.294 F9000.000
G1 F1800.000 E2.00000
G1 X-10.589 Y8.234 F1800.000 E2.02467
G1 X-10.127 Y8.294 E2.04934
G1 X-9.696 Y8.473 E2.07401
G1 X-9.327 Y8.757 E2.09869
G1 X-9.043 Y9.126 E2.12336
G1 X-8.865 Y9.557 E2.14803
G1 X-8.804 Y10.019 E2.17270
G1 X-8.865 Y10.481 E2.19737
G1 X-9.043 Y10.912 E2.22204
G1 X-9.327 Y11.282 E2.24671
G1 X-9.696 Y11.565 E2.27139
G1 X-10.127 Y11.744 E2.29606
G1 X-10.589 Y11.805 E2.32073
G1 X-11.051 Y11.744 E2.34540
G1 X-11.482 Y11.565 E2.37007
G1 X-11.852 Y11.282 E2.39474
G1 X-12.136 Y10.912 E2.41941
G1 X-12.314 Y10.481 E2.44409
G1 X-12.375 Y10.019 E2.46876
G1 X-12.314 Y9.557 E2.49343
G1 X-12.136 Y9.126 E2.51810
G1 X-11.852 Y8.757 E2.54277
G1 X-11.482 Y8.473 E2.56744
G1 X-11.102 Y8.316 E2.58920
G1 X-11.146 Y7.943 F9000.000
G1 X-10.589 Y7.870 F1800.000 E2.61889
G1 X-10.033 Y7.943 E2.64859
G1 X-9.515 Y8.158 E2.67829
G1 X-9.069 Y8.499 E2.70799
G1 X-8.728 Y8.945 E2.73768
G1 X-8.513 Y9.463 E2.76738
G1 X-8.440 Y10.019 E2.79708
G1 X-8.513 Y10.575 E2.82678
G1 X-8.728 Y11.094 E2.85647
G1 X-9.069 Y11.539 E2.88617
G1 X-9.515 Y11.880 E2.91587
G1 X-10.033 Y12.095 E2.94556
G1 X-10.589 Y12.168 E2.97526
G1 X-11.146 Y12.095 E3.00496
G1 X-11.664 Y11.880 E3.03466
G1 X-12.109 Y11.539 E3.06435
G1 X-12.451 Y11.094 E3.09405
G1 X-12.665 Y10.575 E3.12375
G1 X-12.739 Y10.019 E3.15345
G1 X-12.665 Y9.463 E3.18314
G1 X-12.451 Y8.945 E3.21284
G1 X-12.109 Y8.499 E3.24254
G1 X-11.664 Y8.158 E3.27224
G1 X-11.196 Y7.964 E3.29902
G1 X-11.240 Y7.592 F9000.000
G1 X-10.589 Y7.506 F1800.000 E3.33374
G1 X-9.939 Y7.592 E3.36846
G1 X-9.333 Y7.843 E3.40319
G1 X-8.812 Y8.242 E3.43791
G1 X-8.413 Y8.763 E3.47263
G1 X-8.162 Y9.369 E3.50735
G1 X-8.076 Y10.019 E3.54208
G1 X-8.162 Y10.670 E3.57680
G1 X-8.413 Y11.276 E3.61152
G1 X-8.812 Y11.796 E3.64625
G1 X-9.333 Y12.195 E3.68097
G1 X-9.939 Y12.447 E3.71569
G1 X-10.589 Y12.532 E3.75042
G1 X-11.240 Y12.447 E3.78514
G1 X-11.846 Y12.195 E3.81986
G1 X-12.366 Y11.796 E3.85459
G1 X-12.766 Y11.276 E3.88931
G1 X-13.017 Y10.670 E3.92403
G1 X-13.102 Y10.019 E3.95876
G1 X-13.017 Y9.369 E3.99348
G1 X-12.766 Y8.763 E4.02820
G1 X-12.366 Y8.242 E4.06293
G1 X-11.846 Y7.843 E4.09765
G1 X-11.291 Y7.613 E4.12946
G1 F1800.000 E2.12946
G92 E0
G1 X-11.887 Y1.882 F9000.000
G1 F1800.000 E2.00000
G1 X-12.453 Y1.807 F1800.000 E2.03020
G1 X-12.980 Y1.589 E2.06039
G1 X-13.432 Y1.242 E2.09059
G1 X-13.780 Y0.789 E2.12078
G1 X-13.998 Y0.262 E2.15098
G1 X-14.073 Y-0.303 E2.18117
G1 X-13.998 Y-0.869 E2.21137
G1 X-13.780 Y-1.396 E2.24157
G1 X-13.432 Y-1.849 E2.27176
G1 X-12.980 Y-2.196 E2.30196
G1 X-12.453 Y-2.414 E2.33215
G1 X-11.887 Y-2.489 E2.36235
G1 X-11.322 Y-2.414 E2.39254
G1 X-10.795 Y-2.196 E2.42274
G1 X-10.342 Y-1.849 E2.45293
G1 X-9.995 Y-1.396 E2.48313
G1 X-9.776 Y-0.869 E2.51333
G1 X-9.702 Y-0.303 E2.54352
G1 X-9.776 Y0.262 E2.57372
G1 X-9.995 Y0.789 E2.60391
G1 X-10.342 Y1.242 E2.63411
G1 X-10.795 Y1.589 E2.66430
G1 X-11.322 Y1.807 E2.69450
G1 X-11.833 Y1.875 E2.72178
G1 X-11.887 Y2.246 F9000.000
G1 X-12.547 Y2.159 F1800.000 E2.75700
G1 X-13.162 Y1.904 E2.79222
G1 X-13.690 Y1.499 E2.82744
G1 X-14.095 Y0.971 E2.86266
G1 X-14.349 Y0.356 E2.89788
G1 X-14.436 Y-0.303 E2.93311
G1 X-14.349 Y-0.963 E2.96833
G1 X-14.095 Y-1.578 E3.00355
G1 X-13.690 Y-2.106 E3.03877
G1 X-13.162 Y-2.511 E3.07399
G1 X-12.547 Y-2.766 E3.10921
G1 X-11.887 Y-2.852 E3.14444
G1 X-11.227 Y-2.766 E3.17966
G1 X-10.613 Y-2.511 E3.21488
G1 X-10.085 Y-2.106 E3.25010
G1 X-9.680 Y-1.578 E3.28532
G1 X-9.425 Y-0.963 E3.32054
G1 X-9.338 Y-0.303 E3.35577
G1 X-9.425 Y0.356 E3.39099
G1 X-9.680 Y0.971 E3.42621
G1 X-10.085 Y1.499 E3.46143
G1 X-10.613 Y1.904 E3.49665
G1 X-11.227 Y2.159 E3.53187
G1 X-11.833 Y2.238 E3.56418
G1 X-11.887 Y2.609 F9000.000
G1 X-12.641 Y2.510 F1800.000 E3.60442
G1 X-13.344 Y2.219 E3.64467
G1 X-13.947 Y1.756 E3.68492
G1 X-14.410 Y1.153 E3.72517
G1 X-14.701 Y0.450 E3.76541
G1 X-14.800 Y-0.303 E3.80566
G1 X-14.701 Y-1.057 E3.84591
G1 X-14.410 Y-1.760 E3.88616
G1 X-13.947 Y-2.363 E3.92640
G1 X-13.344 Y-2.826 E3.96665
G1 X-12.641 Y-3.117 E4.00690
G1 X-11.887 Y-3.216 E4.04715
G1 X-11.133 Y-3.117 E4.08739
G1 X-10.431 Y-2.826 E4.12764
G1 X-9.828 Y-2.363 E4.16789
G1 X-9.365 Y-1.760 E4.20814
G1 X-9.074 Y-1.057 E4.24838
G1 X-8.974 Y-0.303 E4.28863
G1 X-9.074 Y0.450 E4.32888
G1 X-9.365 Y1.153 E4.36913
G1 X-9.828 Y1.756 E4.40937
G1 X-10.431 Y2.219 E4.44962
G1 X-11.133 Y2.510 E4.48987
G1 X-11.833 Y2.602 E4.52720
G1 F1800.000 E2.52720
G92 E0
G1 X-10.587 Y-8.457 F9000.000
G1 F1800.000 E2.00000
G1 X-11.049 Y-8.518 F1800.000 E2.02467
G1 X-11.479 Y-8.696 E2.04934
G1 X-11.849 Y-8.980 E2.07401
G1 X-12.133 Y-9.350 E2.09869
G1 X-12.311 Y-9.780 E2.12336
G1 X-12.372 Y-10.242 E2.14803
G1 X-12.311 Y-10.705 E2.17270
G1 X-12.133 Y-11.135 E2.19737
G1 X-11.849 Y-11.505 E2.22204
G1 X-11.479 Y-11.789 E2.24671
G1 X-11.049 Y-11.967 E2.27139
G1 X-10.587 Y-12.028 E2.29606
G1 X-10.125 Y-11.967 E2.32073
G1 X-9.694 Y-11.789 E2.34540
G1 X-9.324 Y-11.505 E2.37007
G1 X-9.040 Y-11.135 E2.39474
G1 X-8.862 Y-10.705 E2.41941
G1 X-8.801 Y-10.242 E2.44409
G1 X-8.862 Y-9.780 E2.46876
G1 X-9.040 Y-9.350 E2.49343
G1 X-9.324 Y-8.980 E2.51810
G1 X-9.694 Y-8.696 E2.54277
G1 X-10.125 Y-8.518 E2.56744
G1 X-10.532 Y-8.464 E2.58920
G1 X-10.587 Y-8.093 F9000.000
G1 X-11.143 Y-8.166 F1800.000 E2.61889
G1 X-11.661 Y-8.381 E2.64859
G1 X-12.106 Y-8.723 E2.67829
G1 X-12.448 Y-9.168 E2.70799
G1 X-12.663 Y-9.686 E2.73768
G1 X-12.736 Y-10.242 E2.76738
G1 X-12.663 Y-10.799 E2.79708
G1 X-12.448 Y-11.317 E2.82677
G1 X-12.106 Y-11.762 E2.85647
G1 X-11.661 Y-12.104 E2.88617
G1 X-11.143 Y-12.318 E2.91587
G1 X-10.587 Y-12.392 E2.94556
G1 X-10.030 Y-12.318 E2.97526
G1 X-9.512 Y-12.104 E3.00496
G1 X-9.067 Y-11.762 E3.03466
G1 X-8.725 Y-11.317 E3.06435
G1 X-8.511 Y-10.799 E3.09405
G1 X-8.437 Y-10.242 E3.12375
G1 X-8.511 Y-9.686 E3.15344
G1 X-8.725 Y-9.168 E3.18314
G1 X-9.067 Y-8.723 E3.21284
G1 X-9.512 Y-8.381 E3.24254
G1 X-10.030 Y-8.166 E3.27223
G1 X-10.532 Y-8.100 E3.29901
G1 X-10.587 Y-7.729 F9000.000
G1 X-11.237 Y-7.815 F1800.000 E3.33374
G1 X-11.843 Y-8.066 E3.36846
G1 X-12.364 Y-8.465 E3.40318
G1 X-12.763 Y-8.986 E3.43791
G1 X-13.014 Y-9.592 E3.47263
G1 X-13.100 Y-10.242 E3.50735
G1 X-13.014 Y-10.893 E3.54208
G1 X-12.763 Y-11.499 E3.57680
G1 X-12.364 Y-12.019 E3.61152
G1 X-11.843 Y-12.419 E3.64625
G1 X-11.237 Y-12.670 E3.68097
G1 X-10.587 Y-12.755 E3.71569
G1 X-9.936 Y-12.670 E3.75042
G1 X-9.330 Y-12.419 E3.78514
G1 X-8.810 Y-12.019 E3.81986
G1 X-8.410 Y-11.499 E3.85459
G1 X-8.159 Y-10.893 E3.88931
G1 X-8.074 Y-10.242 E3.92403
G1 X-8.159 Y-9.592 E3.95876
G1 X-8.410 Y-8.986 E3.99348
G1 X-8.810 Y-8.465 E4.02820
G1 X-9.330 Y-8.066 E4.06293
G1 X-9.936 Y-7.815 E4.09765
G1 X-10.532 Y-7.737 E4.12945
G1 F1800.000 E2.12945
G92 E0
G1 X-3.819 Y-12.535 F9000.000
G1 F1800.000 E2.00000
G1 X-4.166 Y-12.988 F1800.000 E2.03020
G1 X-4.384 Y-13.515 E2.06040
G1 X-4.459 Y-14.080 E2.09060
G1 X-4.384 Y-14.646 E2.12080
G1 X-4.166 Y-15.173 E2.15100
G1 X-3.819 Y-15.626 E2.18119
G1 X-3.366 Y-15.973 E2.21139
G1 X-2.839 Y-16.191 E2.24159
G1 X-2.273 Y-16.266 E2.27179
G1 X-1.708 Y-16.191 E2.30199
G1 X-1.181 Y-15.973 E2.33219
G1 X-0.728 Y-15.626 E2.36239
G1 X-0.381 Y-15.173 E2.39259
G1 X-0.162 Y-14.646 E2.42279
G1 X-0.088 Y-14.080 E2.45299
G1 X-0.162 Y-13.515 E2.48319
G1 X-0.381 Y-12.988 E2.51338
G1 X-0.728 Y-12.535 E2.54358
G1 X-1.181 Y-12.188 E2.57378
G1 X-1.708 Y-11.969 E2.60398
G1 X-2.273 Y-11.895 E2.63418
G1 X-2.839 Y-11.969 E2.66438
G1 X-3.366 Y-12.188 E2.69458
G1 X-3.775 Y-12.501 E2.72186
G1 X-4.076 Y-12.278 F9000.000
G1 X-4.481 Y-12.806 F1800.000 E2.75709
G1 X-4.736 Y-13.421 E2.79231
G1 X-4.823 Y-14.080 E2.82754
G1 X-4.736 Y-14.740 E2.86276
G1 X-4.481 Y-15.355 E2.89799
G1 X-4.076 Y-15.883 E2.93321
G1 X-3.548 Y-16.288 E2.96844
G1 X-2.933 Y-16.543 E3.00366
G1 X-2.273 Y-16.630 E3.03889
G1 X-1.613 Y-16.543 E3.07411
G1 X-0.999 Y-16.288 E3.10934
G1 X-0.471 Y-15.883 E3.14456
G1 X-0.066 Y-15.355 E3.17979
G1 X0.189 Y-14.740 E3.21501
G1 X0.276 Y-14.080 E3.25024
G1 X0.189 Y-13.421 E3.28546
G1 X-0.066 Y-12.806 E3.32069
G1 X-0.471 Y-12.278 E3.35591
G1 X-0.999 Y-11.873 E3.39114
G1 X-1.613 Y-11.618 E3.42636
G1 X-2.273 Y-11.531 E3.46159
G1 X-2.933 Y-11.618 E3.49681
G1 X-3.548 Y-11.873 E3.53204
G1 X-4.032 Y-12.244 E3.56434
G1 X-4.333 Y-12.021 F9000.000
G1 X-4.796 Y-12.624 F1800.000 E3.60459
G1 X-5.087 Y-13.326 E3.64485
G1 X-5.186 Y-14.080 E3.68510
G1 X-5.087 Y-14.834 E3.72535
G1 X-4.796 Y-15.537 E3.76560
G1 X-4.333 Y-16.140 E3.80585
G1 X-3.730 Y-16.603 E3.84610
G1 X-3.027 Y-16.894 E3.88635
G1 X-2.273 Y-16.993 E3.92660
G1 X-1.519 Y-16.894 E3.96685
G1 X-0.817 Y-16.603 E4.00710
G1 X-0.213 Y-16.140 E4.04736
G1 X0.249 Y-15.537 E4.08761
G1 X0.541 Y-14.834 E4.12786
G1 X0.640 Y-14.080 E4.16811
G1 X0.541 Y-13.326 E4.20836
G1 X0.249 Y-12.624 E4.24861
G1 X-0.213 Y-12.021 E4.28886
G1 X-0.817 Y-11.558 E4.32911
G1 X-1.519 Y-11.267 E4.36936
G1 X-2.273 Y-11.167 E4.40961
G1 X-3.027 Y-11.267 E4.44986
G1 X-3.730 Y-11.558 E4.49012
G1 X-4.289 Y-11.987 E4.52745
G1 F1800.000 E2.52745
G92 E0
G1 X-8.429 Y-13.175 F9000.000
G1 F1800.000 E2.00000
G1 X-8.258 Y-15.136 F1800.000 E2.10416
G1 X-7.984 Y-16.159 E2.16022
G1 X-7.536 Y-17.119 E2.21628
G1 X-6.929 Y-17.987 E2.27235
G1 X-6.180 Y-18.736 E2.32842
G1 X-5.312 Y-19.343 E2.38449
G1 X-4.352 Y-19.791 E2.44056
G1 X-3.337 Y-20.063 E2.49618
G1 X-2.281 Y-20.157 E2.55231
G1 X-1.224 Y-20.066 E2.60842
G1 X-0.200 Y-19.792 E2.66452
G1 X0.761 Y-19.345 E2.72063
G1 X1.630 Y-18.738 E2.77673
G1 X2.380 Y-17.989 E2.83284
G1 X2.988 Y-17.121 E2.88894
G1 X3.436 Y-16.160 E2.94505
G1 X3.711 Y-15.136 E3.00116
G1 X3.807 Y-14.041 E3.05936
G1 X3.807 Y8.526 E4.25384
G1 X10.992 Y8.526 E4.63413
G1 X10.992 Y11.492 E4.79108
G1 X-7.754 Y11.492 E5.78328
G1 X-7.754 Y19.447 E6.20438
G1 X-7.790 Y19.665 E6.21604
G1 X-7.863 Y19.827 E6.22544
G1 X-7.975 Y19.964 E6.23483
G1 X-8.118 Y20.069 E6.24422
G1 X-8.284 Y20.133 E6.25362
G1 X-8.460 Y20.153 E6.26301
G1 X-8.636 Y20.127 E6.27240
G1 X-8.799 Y20.057 E6.28180
G1 X-8.939 Y19.947 E6.29119
G1 X-9.046 Y19.806 E6.30058
G1 X-9.113 Y19.641 E6.30998
G1 X-9.253 Y18.560 E6.36768
G1 X-10.899 Y18.560 E6.45477
G1 X-11.599 Y18.466 E6.49217
G1 X-12.227 Y18.237 E6.52756
G1 X-12.791 Y17.878 E6.56295
G1 X-13.272 Y17.399 E6.59886
G1 X-13.633 Y16.835 E6.63431
G1 X-13.863 Y16.205 E6.66979
G1 X-13.956 Y15.509 E6.70696
G1 X-13.957 Y3.914 E7.32071
G1 X-15.096 Y3.013 E7.39761
G1 X-15.693 Y2.308 E7.44649
G1 X-16.136 Y1.498 E7.49537
G1 X-16.410 Y0.616 E7.54426
G1 X-16.502 Y-0.303 E7.59314
G1 X-16.410 Y-1.222 E7.64202
G1 X-16.136 Y-2.104 E7.69090
G1 X-15.693 Y-2.914 E7.73979
G1 X-15.096 Y-3.620 E7.78867
G1 X-13.957 Y-4.521 E7.86557
G1 X-13.957 Y-13.175 E8.32366
G1 X-8.484 Y-13.175 E8.61334
G1 X-8.759 Y-13.536 F9000.000
G1 X-8.615 Y-15.199 F1800.000 E8.70167
G1 X-8.324 Y-16.283 E8.76107
G1 X-7.850 Y-17.300 E8.82048
G1 X-7.206 Y-18.219 E8.87989
G1 X-6.412 Y-19.013 E8.93930
G1 X-5.493 Y-19.657 E8.99871
G1 X-4.476 Y-20.131 E9.05812
G1 X-3.400 Y-20.419 E9.11706
G1 X-2.281 Y-20.519 E9.17653
G1 X-1.162 Y-20.422 E9.23597
G1 X-0.077 Y-20.133 E9.29542
G1 X0.941 Y-19.659 E9.35487
G1 X1.862 Y-19.015 E9.41432
G1 X2.657 Y-18.222 E9.47376
G1 X3.301 Y-17.302 E9.53321
G1 X3.776 Y-16.284 E9.59266
G1 X4.067 Y-15.199 E9.65211
G1 X4.167 Y-14.057 E9.71282
G1 X4.167 Y8.166 E10.88904
G1 X11.352 Y8.166 E11.26934
G1 X11.352 Y11.852 E11.46446
G1 X-7.393 Y11.852 E12.45666
G1 X-7.393 Y19.477 E12.86025
G1 X-7.442 Y19.770 E12.87598
G1 X-7.554 Y20.018 E12.89034
G1 X-7.725 Y20.228 E12.90470
G1 X-7.944 Y20.388 E12.91906
G1 X-8.197 Y20.486 E12.93343
G1 X-8.467 Y20.516 E12.94779
G1 X-8.735 Y20.477 E12.96215
G1 X-8.984 Y20.370 E12.97651
G1 X-9.198 Y20.202 E12.99087
G1 X-9.362 Y19.986 E13.00523
G1 X-9.464 Y19.734 E13.01960
G1 X-9.570 Y18.921 E13.06301
G1 X-10.923 Y18.921 E13.13462
G1 X-11.686 Y18.819 E13.17537
G1 X-12.388 Y18.562 E13.21491
G1 X-13.018 Y18.161 E13.25445
G1 X-13.555 Y17.627 E13.29453
G1 X-13.958 Y16.996 E13.33417
G1 X-14.215 Y16.292 E13.37382
G1 X-14.317 Y15.533 E13.41435
G1 X-14.317 Y4.088 E14.02013
G1 X-15.348 Y3.273 E14.08970
G1 X-15.991 Y2.513 E14.14242
G1 X-16.470 Y1.639 E14.19515
G1 X-16.765 Y0.688 E14.24787
G1 X-16.865 Y-0.303 E14.30059
G1 X-16.765 Y-1.294 E14.35331
G1 X-16.470 Y-2.246 E14.40603
G1 X-15.991 Y-3.119 E14.45875
G1 X-15.348 Y-3.880 E14.51147
G1 X-14.317 Y-4.695 E14.58105
G1 X-14.317 Y-13.536 E15.04899
G1 X-8.814 Y-13.536 E15.34025
G1 X-9.090 Y-13.897 F9000.000
G1 X-8.972 Y-15.253 F1800.000 E15.41233
G1 X-8.969 Y-15.270 E15.41324
G1 X-8.666 Y-16.399 E15.47510
G1 X-8.660 Y-16.415 E15.47601
G1 X-8.166 Y-17.474 E15.53787
G1 X-8.158 Y-17.489 E15.53878
G1 X-7.487 Y-18.447 E15.60064
G1 X-7.476 Y-18.460 E15.60155
G1 X-6.650 Y-19.286 E15.66341
G1 X-6.636 Y-19.297 E15.66432
G1 X-5.679 Y-19.967 E15.72618
G1 X-5.663 Y-19.975 E15.72710
G1 X-4.604 Y-20.469 E15.78895
