; generated by Slic3r 0.7.1 on 2012-04-26 at 12:55:19

; layer_height = .35
; perimeters = 3
; solid_layers = 3
; fill_density = .42
; nozzle_diameter = .35
; filament_diameter = 1.75
; extrusion_multiplier = 1
; perimeter_speed = 30
; infill_speed = 30
; travel_speed = 150
; extrusion_width_ratio = 0
; scale = 1
; single wall width = 0.37mm

M190 S80 ; set bed temperature
M104 S160 ; set temperature

M109 S160 ; wait for temperature to be reached
G90 ; use absolute coordinates
G21 ; set units to millimeters
G92 E0 ; reset extrusion distance
M82 ; use absolute distances for extrusion
G1 Z0.350 F9000.000
G1 X-18.042 Y-19.890
G1 F1800.000 E2.00000
G1 X-8.292 Y-26.400 F1800.000 E2.62052
G1 X-8.092 Y-26.510 E2.63261
G1 X-6.092 Y-27.320 E2.74682
G1 X-5.452 Y-27.500 E2.78201
G1 X-3.782 Y-27.810 E2.87191
G1 X-3.122 Y-27.870 E2.90699
G1 X-1.432 Y-27.870 E2.99644
G1 X-0.552 Y-27.770 E3.04332
G1 X1.108 Y-27.440 E3.13290
G1 X1.728 Y-27.240 E3.16738
G1 X3.108 Y-26.710 E3.24562
G1 X3.508 Y-26.520 E3.26906
G1 X4.968 Y-25.640 E3.35929
G1 X5.338 Y-25.390 E3.38293
G1 X5.698 Y-25.110 E3.40707
G1 X7.108 Y-23.810 E3.50858
G1 X8.288 Y-22.310 E3.60959
G1 X8.788 Y-21.520 E3.65908
G1 X22.628 Y4.190 E5.20454
G1 X22.838 Y4.680 E5.23276
G1 X22.928 Y4.940 E5.24732
G1 X23.068 Y5.450 E5.27531
G1 X23.168 Y5.980 E5.30386
G1 X23.198 Y6.250 E5.31824
G1 X23.198 Y11.700 E5.60671
G1 X23.128 Y12.210 E5.63395
G1 X23.018 Y12.720 E5.66157
G1 X22.868 Y13.210 E5.68869
G1 X22.678 Y13.680 E5.71552
G1 X22.568 Y13.910 E5.72902
G1 X22.168 Y14.580 E5.77032
G1 X21.868 Y14.990 E5.79721
G1 X21.338 Y15.550 E5.83802
G1 X20.948 Y15.890 E5.86541
G1 X20.538 Y16.190 E5.89230
G1 X20.098 Y16.460 E5.91962
G1 X-4.882 Y27.460 E7.36432
G1 X-5.402 Y27.630 E7.39328
G1 X-5.942 Y27.760 E7.42267
G1 X-6.492 Y27.830 E7.45202
G1 X-7.042 Y27.860 E7.48118
G1 X-9.012 Y27.840 E7.58545
G1 X-10.522 Y27.700 E7.66572
G1 X-10.942 Y27.620 E7.68835
G1 X-12.602 Y27.160 E7.77952
G1 X-14.172 Y26.450 E7.87072
G1 X-15.062 Y25.930 E7.92528
G1 X-15.942 Y25.310 E7.98226
G1 X-16.722 Y24.650 E8.03634
G1 X-17.482 Y23.890 E8.09323
G1 X-18.142 Y23.110 E8.14731
G1 X-18.892 Y22.040 E8.21647
G1 X-19.222 Y21.470 E8.25134
G1 X-19.762 Y20.290 E8.32002
G1 X-20.102 Y19.350 E8.37293
G1 X-20.412 Y18.210 E8.43546
G1 X-23.202 Y-0.700 E9.44719
G1 X-23.232 Y-1.190 E9.47318
G1 X-23.222 Y-1.690 E9.49965
G1 X-23.012 Y-3.540 E9.59820
G1 X-20.452 Y-16.580 E10.30157
G1 X-20.282 Y-17.070 E10.32903
G1 X-20.072 Y-17.550 E10.35676
G1 X-19.822 Y-18.010 E10.38447
G1 X-19.532 Y-18.450 E10.41236
G1 X-19.212 Y-18.860 E10.43989
G1 X-18.852 Y-19.240 E10.46759
G1 X-18.462 Y-19.580 E10.49498
G1 X-18.087 Y-19.858 E10.51969
G1 F1800.000 E8.51969
G92 E0
G1 X-3.956 Y4.751 F9000.000
G1 F1800.000 E2.00000
G1 X-3.525 Y4.572 F1800.000 E2.02467
G1 X-3.063 Y4.511 E2.04934
G1 X-2.601 Y4.572 E2.07401
G1 X-2.170 Y4.751 E2.09869
G1 X-1.801 Y5.034 E2.12336
G1 X-1.517 Y5.404 E2.14803
G1 X-1.339 Y5.835 E2.17270
G1 X-1.278 Y6.297 E2.19737
G1 X-1.339 Y6.759 E2.22204
G1 X-1.517 Y7.190 E2.24671
G1 X-1.801 Y7.560 E2.27139
G1 X-2.170 Y7.843 E2.29606
G1 X-2.601 Y8.022 E2.32073
G1 X-3.063 Y8.083 E2.34540
G1 X-3.525 Y8.022 E2.37007
G1 X-3.956 Y7.843 E2.39474
G1 X-4.326 Y7.560 E2.41941
G1 X-4.610 Y7.190 E2.44409
G1 X-4.788 Y6.759 E2.46876
G1 X-4.849 Y6.297 E2.49343
G1 X-4.788 Y5.835 E2.51810
G1 X-4.610 Y5.404 E2.54277
G1 X-4.326 Y5.034 E2.56744
G1 X-4.000 Y4.784 E2.58920
G1 X-4.138 Y4.436 F9000.000
G1 X-3.620 Y4.221 F1800.000 E2.61889
G1 X-3.063 Y4.148 E2.64859
G1 X-2.507 Y4.221 E2.67829
G1 X-1.989 Y4.436 E2.70799
G1 X-1.543 Y4.777 E2.73768
G1 X-1.202 Y5.222 E2.76738
G1 X-0.987 Y5.741 E2.79708
G1 X-0.914 Y6.297 E2.82677
G1 X-0.987 Y6.853 E2.85647
G1 X-1.202 Y7.372 E2.88617
G1 X-1.543 Y7.817 E2.91587
G1 X-1.989 Y8.158 E2.94556
G1 X-2.507 Y8.373 E2.97526
G1 X-3.063 Y8.446 E3.00496
G1 X-3.620 Y8.373 E3.03466
G1 X-4.138 Y8.158 E3.06435
G1 X-4.583 Y7.817 E3.09405
G1 X-4.925 Y7.372 E3.12375
G1 X-5.139 Y6.853 E3.15345
G1 X-5.213 Y6.297 E3.18314
G1 X-5.139 Y5.741 E3.21284
G1 X-4.925 Y5.222 E3.24254
G1 X-4.583 Y4.777 E3.27223
G1 X-4.182 Y4.469 E3.29901
G1 X-4.320 Y4.121 F9000.000
G1 X-3.714 Y3.870 F1800.000 E3.33374
G1 X-3.063 Y3.784 E3.36846
G1 X-2.413 Y3.870 E3.40318
G1 X-1.807 Y4.121 E3.43791
G1 X-1.286 Y4.520 E3.47263
G1 X-0.887 Y5.040 E3.50735
G1 X-0.636 Y5.647 E3.54208
G1 X-0.550 Y6.297 E3.57680
G1 X-0.636 Y6.947 E3.61152
G1 X-0.887 Y7.554 E3.64625
G1 X-1.286 Y8.074 E3.68097
G1 X-1.807 Y8.473 E3.71569
G1 X-2.413 Y8.724 E3.75042
G1 X-3.063 Y8.810 E3.78514
G1 X-3.714 Y8.724 E3.81986
G1 X-4.320 Y8.473 E3.85459
G1 X-4.840 Y8.074 E3.88931
G1 X-5.240 Y7.554 E3.92403
G1 X-5.491 Y6.947 E3.95876
G1 X-5.576 Y6.297 E3.99348
G1 X-5.491 Y5.647 E4.02820
G1 X-5.240 Y5.040 E4.06293
G1 X-4.840 Y4.520 E4.09765
G1 X-4.363 Y4.154 E4.12945
G1 F1800.000 E2.12945
G92 E0
G1 X-11.246 Y6.113 F9000.000
G1 F1800.000 E2.00000
G1 X-11.242 Y6.472 F1800.000 E2.01898
G1 X-11.789 Y6.485 E2.04798
G1 X-12.516 Y6.476 E2.08644
G1 X-12.514 Y6.113 E2.10565
G1 X-11.301 Y6.113 E2.16982
G1 X-10.890 Y5.753 F9000.000
G1 X-10.877 Y6.824 F1800.000 E2.22652
G1 X-11.787 Y6.846 E2.27473
G1 X-12.879 Y6.833 E2.33250
G1 X-12.872 Y5.753 E2.38966
G1 X-10.945 Y5.753 E2.49166
G1 X-10.533 Y5.392 F9000.000
G1 X-10.512 Y7.176 F1800.000 E2.58608
G1 X-11.785 Y7.207 E2.65349
G1 X-13.241 Y7.189 E2.73058
G1 X-13.230 Y5.392 E2.82568
G1 X-10.589 Y5.392 E2.96551
G1 F1800.000 E0.96551
G92 E0
G1 X-11.322 Y0.793 F9000.000
G1 F1800.000 E2.00000
G1 X-11.887 Y0.867 F1800.000 E2.03020
G1 X-12.453 Y0.793 E2.06039
G1 X-12.980 Y0.575 E2.09059
G1 X-13.432 Y0.227 E2.12078
G1 X-13.780 Y-0.225 E2.15098
G1 X-13.998 Y-0.752 E2.18117
G1 X-14.073 Y-1.318 E2.21137
G1 X-13.998 Y-1.884 E2.24157
G1 X-13.780 Y-2.411 E2.27176
G1 X-13.432 Y-2.863 E2.30196
G1 X-12.980 Y-3.210 E2.33215
G1 X-12.453 Y-3.429 E2.36235
G1 X-11.887 Y-3.503 E2.39254
G1 X-11.322 Y-3.429 E2.42274
G1 X-10.795 Y-3.210 E2.45293
G1 X-10.342 Y-2.863 E2.48313
G1 X-9.995 Y-2.411 E2.51333
G1 X-9.776 Y-1.884 E2.54352
G1 X-9.702 Y-1.318 E2.57372
G1 X-9.776 Y-0.752 E2.60391
G1 X-9.995 Y-0.225 E2.63411
G1 X-10.342 Y0.227 E2.66430
G1 X-10.795 Y0.575 E2.69450
G1 X-11.271 Y0.772 E2.72178
G1 X-11.227 Y1.144 F9000.000
G1 X-11.887 Y1.231 F1800.000 E2.75700
G1 X-12.547 Y1.144 E2.79222
G1 X-13.162 Y0.890 E2.82744
G1 X-13.690 Y0.485 E2.86266
G1 X-14.095 Y-0.043 E2.89788
G1 X-14.349 Y-0.658 E2.93311
G1 X-14.436 Y-1.318 E2.96833
G1 X-14.349 Y-1.978 E3.00355
G1 X-14.095 Y-2.592 E3.03877
G1 X-13.690 Y-3.120 E3.07399
G1 X-13.162 Y-3.525 E3.10921
G1 X-12.547 Y-3.780 E3.14444
G1 X-11.887 Y-3.867 E3.17966
G1 X-11.227 Y-3.780 E3.21488
G1 X-10.613 Y-3.525 E3.25010
G1 X-10.085 Y-3.120 E3.28532
G1 X-9.680 Y-2.592 E3.32054
G1 X-9.425 Y-1.978 E3.35577
G1 X-9.338 Y-1.318 E3.39099
G1 X-9.425 Y-0.658 E3.42621
G1 X-9.680 Y-0.043 E3.46143
G1 X-10.085 Y0.485 E3.49665
G1 X-10.613 Y0.890 E3.53187
G1 X-11.177 Y1.123 E3.56418
G1 X-11.133 Y1.496 F9000.000
G1 X-11.887 Y1.595 F1800.000 E3.60442
G1 X-12.641 Y1.496 E3.64467
G1 X-13.344 Y1.205 E3.68492
G1 X-13.947 Y0.742 E3.72517
G1 X-14.410 Y0.138 E3.76541
G1 X-14.701 Y-0.564 E3.80566
G1 X-14.800 Y-1.318 E3.84591
G1 X-14.701 Y-2.072 E3.88616
G1 X-14.410 Y-2.774 E3.92640
G1 X-13.947 Y-3.378 E3.96665
G1 X-13.344 Y-3.840 E4.00690
G1 X-12.641 Y-4.131 E4.04715
G1 X-11.887 Y-4.231 E4.08739
G1 X-11.133 Y-4.131 E4.12764
G1 X-10.431 Y-3.840 E4.16789
G1 X-9.828 Y-3.378 E4.20814
G1 X-9.365 Y-2.774 E4.24838
G1 X-9.074 Y-2.072 E4.28863
G1 X-8.974 Y-1.318 E4.32888
G1 X-9.074 Y-0.564 E4.36913
G1 X-9.365 Y0.138 E4.40937
G1 X-9.828 Y0.742 E4.44962
G1 X-10.431 Y1.205 E4.48987
G1 X-11.082 Y1.475 E4.52720
G1 F1800.000 E2.52720
G92 E0
G1 X-10.587 Y-9.471 F9000.000
G1 F1800.000 E2.00000
G1 X-11.049 Y-9.532 F1800.000 E2.02467
G1 X-11.479 Y-9.711 E2.04934
G1 X-11.849 Y-9.994 E2.07401
G1 X-12.133 Y-10.364 E2.09869
G1 X-12.311 Y-10.795 E2.12336
G1 X-12.372 Y-11.257 E2.14803
G1 X-12.311 Y-11.719 E2.17270
G1 X-12.133 Y-12.150 E2.19737
G1 X-11.849 Y-12.520 E2.22204
G1 X-11.479 Y-12.803 E2.24671
G1 X-11.049 Y-12.982 E2.27139
G1 X-10.587 Y-13.042 E2.29606
G1 X-10.125 Y-12.982 E2.32073
G1 X-9.694 Y-12.803 E2.34540
G1 X-9.324 Y-12.520 E2.37007
G1 X-9.040 Y-12.150 E2.39474
G1 X-8.862 Y-11.719 E2.41941
G1 X-8.801 Y-11.257 E2.44409
G1 X-8.862 Y-10.795 E2.46876
G1 X-9.040 Y-10.364 E2.49343
G1 X-9.324 Y-9.994 E2.51810
G1 X-9.694 Y-9.711 E2.54277
G1 X-10.125 Y-9.532 E2.56744
G1 X-10.532 Y-9.479 E2.58920
G1 X-10.587 Y-9.108 F9000.000
G1 X-11.143 Y-9.181 F1800.000 E2.61889
G1 X-11.661 Y-9.396 E2.64859
G1 X-12.106 Y-9.737 E2.67829
G1 X-12.448 Y-10.182 E2.70799
G1 X-12.663 Y-10.701 E2.73768
G1 X-12.736 Y-11.257 E2.76738
G1 X-12.663 Y-11.813 E2.79708
G1 X-12.448 Y-12.332 E2.82677
G1 X-12.106 Y-12.777 E2.85647
G1 X-11.661 Y-13.118 E2.88617
G1 X-11.143 Y-13.333 E2.91587
G1 X-10.587 Y-13.406 E2.94556
G1 X-10.030 Y-13.333 E2.97526
G1 X-9.512 Y-13.118 E3.00496
G1 X-9.067 Y-12.777 E3.03466
G1 X-8.725 Y-12.332 E3.06435
G1 X-8.511 Y-11.813 E3.09405
G1 X-8.437 Y-11.257 E3.12375
G1 X-8.511 Y-10.701 E3.15345
G1 X-8.725 Y-10.182 E3.18314
G1 X-9.067 Y-9.737 E3.21284
G1 X-9.512 Y-9.396 E3.24254
G1 X-10.030 Y-9.181 E3.27223
G1 X-10.532 Y-9.115 E3.29901
G1 X-10.587 Y-8.744 F9000.000
G1 X-11.237 Y-8.830 F1800.000 E3.33374
G1 X-11.843 Y-9.081 E3.36846
G1 X-12.364 Y-9.480 E3.40318
G1 X-12.763 Y-10.000 E3.43791
G1 X-13.014 Y-10.607 E3.47263
G1 X-13.100 Y-11.257 E3.50735
G1 X-13.014 Y-11.907 E3.54208
G1 X-12.763 Y-12.513 E3.57680
G1 X-12.364 Y-13.034 E3.61152
G1 X-11.843 Y-13.433 E3.64625
G1 X-11.237 Y-13.684 E3.68097
G1 X-10.587 Y-13.770 E3.71569
G1 X-9.936 Y-13.684 E3.75042
G1 X-9.330 Y-13.433 E3.78514
G1 X-8.810 Y-13.034 E3.81986
G1 X-8.410 Y-12.513 E3.85459
G1 X-8.159 Y-11.907 E3.88931
G1 X-8.074 Y-11.257 E3.92403
G1 X-8.159 Y-10.607 E3.95876
G1 X-8.410 Y-10.000 E3.99348
G1 X-8.810 Y-9.480 E4.02820
G1 X-9.330 Y-9.081 E4.06293
G1 X-9.936 Y-8.830 E4.09765
G1 X-10.532 Y-8.751 E4.12946
G1 F1800.000 E2.12946
G92 E0
G1 X-3.819 Y-13.549 F9000.000
G1 F1800.000 E2.00000
G1 X-4.166 Y-14.002 F1800.000 E2.03020
G1 X-4.384 Y-14.529 E2.06040
G1 X-4.459 Y-15.095 E2.09060
G1 X-4.384 Y-15.661 E2.12080
G1 X-4.166 Y-16.188 E2.15100
G1 X-3.819 Y-16.640 E2.18119
G1 X-3.366 Y-16.988 E2.21139
G1 X-2.839 Y-17.206 E2.24159
G1 X-2.273 Y-17.280 E2.27179
G1 X-1.708 Y-17.206 E2.30199
G1 X-1.181 Y-16.988 E2.33219
G1 X-0.728 Y-16.640 E2.36239
G1 X-0.381 Y-16.188 E2.39259
G1 X-0.162 Y-15.661 E2.42279
G1 X-0.088 Y-15.095 E2.45299
G1 X-0.162 Y-14.529 E2.48319
G1 X-0.381 Y-14.002 E2.51338
G1 X-0.728 Y-13.549 E2.54358
G1 X-1.181 Y-13.202 E2.57378
G1 X-1.708 Y-12.984 E2.60398
G1 X-2.273 Y-12.909 E2.63418
G1 X-2.839 Y-12.984 E2.66438
G1 X-3.366 Y-13.202 E2.69458
G1 X-3.775 Y-13.516 E2.72186
G1 X-4.076 Y-13.292 F9000.000
G1 X-4.481 Y-13.820 F1800.000 E2.75709
G1 X-4.736 Y-14.435 E2.79231
G1 X-4.823 Y-15.095 E2.82754
G1 X-4.736 Y-15.755 E2.86276
G1 X-4.481 Y-16.370 E2.89799
G1 X-4.076 Y-16.898 E2.93321
G1 X-3.548 Y-17.303 E2.96844
G1 X-2.933 Y-17.557 E3.00366
G1 X-2.273 Y-17.644 E3.03889
G1 X-1.613 Y-17.557 E3.07411
G1 X-0.999 Y-17.303 E3.10934
G1 X-0.471 Y-16.898 E3.14456
G1 X-0.066 Y-16.370 E3.17979
G1 X0.189 Y-15.755 E3.21501
G1 X0.276 Y-15.095 E3.25024
G1 X0.189 Y-14.435 E3.28546
G1 X-0.066 Y-13.820 E3.32069
G1 X-0.471 Y-13.292 E3.35591
G1 X-0.999 Y-12.887 E3.39114
G1 X-1.613 Y-12.632 E3.42636
G1 X-2.273 Y-12.546 E3.46159
G1 X-2.933 Y-12.632 E3.49681
G1 X-3.548 Y-12.887 E3.53204
G1 X-4.032 Y-13.259 E3.56434
G1 X-4.333 Y-13.035 F9000.000
G1 X-4.796 Y-13.638 F1800.000 E3.60459
G1 X-5.087 Y-14.341 E3.64485
G1 X-5.186 Y-15.095 E3.68510
G1 X-5.087 Y-15.849 E3.72535
G1 X-4.796 Y-16.551 E3.76560
G1 X-4.333 Y-17.155 E3.80585
G1 X-3.730 Y-17.618 E3.84610
G1 X-3.027 Y-17.909 E3.88635
G1 X-2.273 Y-18.008 E3.92660
G1 X-1.519 Y-17.909 E3.96685
G1 X-0.817 Y-17.618 E4.00710
G1 X-0.213 Y-17.155 E4.04735
G1 X0.249 Y-16.551 E4.08761
G1 X0.541 Y-15.849 E4.12786
G1 X0.640 Y-15.095 E4.16811
G1 X0.541 Y-14.341 E4.20836
G1 X0.249 Y-13.638 E4.24861
G1 X-0.213 Y-13.035 E4.28886
G1 X-0.817 Y-12.572 E4.32911
G1 X-1.519 Y-12.281 E4.36936
G1 X-2.273 Y-12.182 E4.40961
G1 X-3.027 Y-12.281 E4.44986
G1 X-3.730 Y-12.572 E4.49012
G1 X-4.289 Y-13.001 E4.52745
G1 F1800.000 E2.52745
G92 E0
G1 X-8.433 Y-14.190 F9000.000
G1 F1800.000 E2.00000
G1 X-8.246 Y-16.211 F1800.000 E2.10745
G1 X-7.939 Y-17.290 E2.16680
G1 X-7.439 Y-18.294 E2.22615
G1 X-6.764 Y-19.188 E2.28550
G1 X-5.935 Y-19.944 E2.34485
G1 X-4.982 Y-20.534 E2.40420
G1 X-3.936 Y-20.939 E2.46354
G1 X-2.834 Y-21.145 E2.52289
G1 X-1.713 Y-21.145 E2.58224
G1 X-0.610 Y-20.939 E2.64159
G1 X0.435 Y-20.534 E2.70094
G1 X1.388 Y-19.944 E2.76028
G1 X2.217 Y-19.188 E2.81963
G1 X2.893 Y-18.294 E2.87898
G1 X3.393 Y-17.290 E2.93833
G1 X3.699 Y-16.211 E2.99768
G1 X3.807 Y-15.053 E3.05925
G1 X3.807 Y7.512 E4.25360
G1 X16.507 Y7.512 E4.92581
G1 X16.507 Y10.477 E5.08275
G1 X-7.758 Y10.477 E6.36707
G1 X-7.758 Y21.145 E6.93172
G1 X-8.472 Y21.145 E6.96952
G1 X-9.458 Y21.059 E7.02193
G1 X-10.376 Y20.812 E7.07223
G1 X-11.237 Y20.410 E7.12254
G1 X-12.015 Y19.864 E7.17284
G1 X-12.686 Y19.190 E7.22314
G1 X-13.230 Y18.411 E7.27345
G1 X-13.630 Y17.547 E7.32381
G1 X-13.872 Y16.645 E7.37328
G1 X-13.956 Y15.679 E7.42457
G1 X-13.957 Y2.899 E8.10102
G1 X-15.096 Y1.998 E8.17791
G1 X-15.693 Y1.293 E8.22680
G1 X-16.136 Y0.483 E8.27568
G1 X-16.410 Y-0.399 E8.32456
G1 X-16.502 Y-1.318 E8.37344
G1 X-16.410 Y-2.237 E8.42233
G1 X-16.136 Y-3.119 E8.47121
G1 X-15.693 Y-3.929 E8.52009
G1 X-15.096 Y-4.634 E8.56897
G1 X-13.957 Y-5.535 E8.64587
G1 X-13.957 Y-14.190 E9.10396
G1 X-8.488 Y-14.190 E9.39339
G1 X-8.762 Y-14.551 F9000.000
G1 X-8.602 Y-16.278 F1800.000 E9.48521
G1 X-8.277 Y-17.421 E9.54810
G1 X-7.747 Y-18.484 E9.61099
G1 X-7.031 Y-19.432 E9.67387
G1 X-6.153 Y-20.233 E9.73676
G1 X-5.143 Y-20.858 E9.79964
G1 X-4.035 Y-21.287 E9.86253
G1 X-2.867 Y-21.506 E9.92541
G1 X-1.679 Y-21.506 E9.98830
G1 X-0.511 Y-21.287 E10.05119
G1 X0.596 Y-20.858 E10.11407
G1 X1.607 Y-20.233 E10.17696
G1 X2.485 Y-19.432 E10.23984
G1 X3.201 Y-18.484 E10.30273
G1 X3.730 Y-17.421 E10.36561
G1 X4.055 Y-16.278 E10.42850
G1 X4.167 Y-15.070 E10.49272
G1 X4.167 Y7.151 E11.66887
G1 X16.867 Y7.151 E12.34107
G1 X16.867 Y10.838 E12.53620
G1 X-7.397 Y10.838 E13.82051
G1 X-7.397 Y21.506 E14.38517
G1 X-8.488 Y21.506 E14.44288
G1 X-9.521 Y21.415 E14.49780
G1 X-10.500 Y21.152 E14.55145
G1 X-11.419 Y20.723 E14.60510
G1 X-12.248 Y20.141 E14.65875
G1 X-12.964 Y19.423 E14.71241
G1 X-13.543 Y18.591 E14.76606
G1 X-13.970 Y17.671 E14.81974
G1 X-14.228 Y16.704 E14.87269
G1 X-14.317 Y15.695 E14.92632
G1 X-14.317 Y3.074 E15.59435
G1 X-15.348 Y2.259 E15.66393
G1 X-15.991 Y1.498 E15.71665
G1 X-16.470 Y0.625 E15.76937
G1 X-16.765 Y-0.327 E15.82209
G1 X-16.865 Y-1.318 E15.87481
G1 X-16.765 Y-2.309 E15.92753
G1 X-16.470 Y-3.260 E15.98025
G1 X-15.991 Y-4.134 E16.03298
G1 X-15.348 Y-4.895 E16.08570
G1 X-14.317 Y-5.710 E16.15527
G1 X-14.317 Y-14.551 E16.62321
G1 X-8.817 Y-14.551 E16.91432
G1 X-9.091 Y-14.911 F9000.000
G1 X-8.958 Y-16.344 F1800.000 E16.99051
G1 X-8.615 Y-17.551 E17.05693
G1 X-8.055 Y-18.675 E17.12336
G1 X-7.299 Y-19.676 E17.18978
G1 X-6.371 Y-20.522 E17.25620
G1 X-5.305 Y-21.182 E17.32263
G1 X-4.134 Y-21.636 E17.38905
G1 X-2.901 Y-21.866 E17.45547
G1 X-1.646 Y-21.866 E17.52190
G1 X-0.412 Y-21.636 E17.58832
G1 X0.758 Y-21.182 E17.65474
G1 X1.825 Y-20.522 E17.72117
G1 X2.752 Y-19.676 E17.78759
G1 X3.509 Y-18.675 E17.85401
G1 X4.068 Y-17.551 E17.92044
G1 X4.411 Y-16.344 E17.98686
G1 X4.528 Y-15.086 E18.05373
G1 X4.528 Y6.791 E19.21168
G1 X17.228 Y6.791 E19.88388
G1 X17.228 Y11.198 E20.11718
