; generated by Slic3r 0.7.1 on 2012-04-26 at 09:31:00

; layer_height = .35
; perimeters = 3
; solid_layers = 3
; fill_density = .42
; nozzle_diameter = .35
; filament_diameter = 1.75
; extrusion_multiplier = 1
; perimeter_speed = 30
; infill_speed = 30
; travel_speed = 150
; extrusion_width_ratio = 0
; scale = 1
; single wall width = 0.37mm

M190 S80 ; set bed temperature
M104 S160 ; set temperature

M109 S160 ; wait for temperature to be reached
G90 ; use absolute coordinates
G21 ; set units to millimeters
G92 E0 ; reset extrusion distance
M82 ; use absolute distances for extrusion
G1 Z0.350 F9000.000
G1 X-17.166 Y-26.808
G1 F1800.000 E2.00000
G1 X-16.986 Y-26.988 F1800.000 E2.01347
G1 X-16.606 Y-27.328 E2.04046
G1 X-15.986 Y-27.768 E2.08070
G1 X-15.766 Y-27.898 E2.09423
G1 X-15.306 Y-28.128 E2.12145
G1 X-14.836 Y-28.318 E2.14828
G1 X-14.346 Y-28.468 E2.17541
G1 X-14.096 Y-28.528 E2.18901
G1 X-13.346 Y-28.638 E2.22914
G1 X-12.836 Y-28.658 E2.25615
G1 X13.334 Y-28.638 E3.64132
G1 X14.084 Y-28.528 E3.68144
G1 X14.584 Y-28.398 E3.70879
G1 X15.064 Y-28.228 E3.73574
G1 X15.524 Y-28.018 E3.76250
G1 X15.754 Y-27.898 E3.77623
G1 X15.974 Y-27.768 E3.78976
G1 X16.594 Y-27.328 E3.83000
G1 X16.974 Y-26.988 E3.85699
G1 X17.154 Y-26.808 E3.87046
G1 X17.494 Y-26.428 E3.89745
G1 X17.934 Y-25.808 E3.93769
G1 X18.064 Y-25.588 E3.95122
G1 X18.294 Y-25.128 E3.97844
G1 X18.484 Y-24.658 E4.00527
G1 X18.634 Y-24.168 E4.03239
G1 X18.694 Y-23.918 E4.04600
G1 X18.804 Y-23.168 E4.08612
G1 X18.814 Y2.702 E5.45541
G1 X18.744 Y3.352 E5.49002
G1 X18.684 Y3.672 E5.50725
G1 X13.564 Y21.872 E6.50796
G1 X13.334 Y22.482 E6.54247
G1 X12.644 Y23.822 E6.62224
G1 X12.234 Y24.432 E6.66114
G1 X11.404 Y25.442 E6.73034
G1 X11.234 Y25.622 E6.74344
G1 X10.804 Y26.022 E6.77453
G1 X9.744 Y26.872 E6.84644
G1 X9.134 Y27.242 E6.88421
G1 X8.224 Y27.732 E6.93891
G1 X7.574 Y27.992 E6.97597
G1 X6.114 Y28.432 E7.05668
G1 X5.404 Y28.542 E7.09470
G1 X4.004 Y28.652 E7.16903
G1 X-3.806 Y28.632 E7.58242
G1 X-4.316 Y28.562 E7.60966
G1 X-4.816 Y28.452 E7.63676
G1 X-5.306 Y28.302 E7.66388
G1 X-5.786 Y28.112 E7.69121
G1 X-6.246 Y27.882 E7.71843
G1 X-6.466 Y27.752 E7.73196
G1 X-6.886 Y27.462 E7.75897
G1 X-7.476 Y26.962 E7.79990
G1 X-7.656 Y26.782 E7.81338
G1 X-7.826 Y26.592 E7.82687
G1 X-8.146 Y26.182 E7.85440
G1 X-8.426 Y25.762 E7.88112
G1 X-8.556 Y25.542 E7.89464
G1 X-8.786 Y25.082 E7.92187
G1 X-8.886 Y24.842 E7.93563
G1 X-18.596 Y-3.458 E9.51925
G1 X-18.726 Y-4.008 E9.54916
G1 X-18.776 Y-4.288 E9.56422
G1 X-18.836 Y-5.138 E9.60932
G1 X-18.816 Y-23.168 E10.56364
G1 X-18.706 Y-23.918 E10.60376
G1 X-18.576 Y-24.418 E10.63111
G1 X-18.406 Y-24.898 E10.65806
G1 X-18.196 Y-25.358 E10.68483
G1 X-18.076 Y-25.588 E10.69856
G1 X-17.946 Y-25.808 E10.71208
G1 X-17.506 Y-26.428 E10.75232
G1 X-17.203 Y-26.767 E10.77639
G1 F1800.000 E8.77639
G92 E0
G1 X-3.202 Y-2.922 F9000.000
G1 F1800.000 E2.00000
G1 X-2.772 Y-3.094 F1800.000 E2.02450
G1 X-2.312 Y-3.148 E2.04899
G1 X-1.854 Y-3.082 E2.07349
G1 X-1.429 Y-2.899 E2.09798
G1 X-1.066 Y-2.612 E2.12248
G1 X-0.789 Y-2.242 E2.14697
G1 X-0.617 Y-1.812 E2.17147
G1 X-0.563 Y-1.352 E2.19597
G1 X-0.629 Y-0.894 E2.22046
G1 X-0.812 Y-0.469 E2.24496
G1 X-1.099 Y-0.105 E2.26945
G1 X-1.469 Y0.171 E2.29395
G1 X-1.899 Y0.343 E2.31844
G1 X-2.359 Y0.397 E2.34294
G1 X-2.817 Y0.331 E2.36744
G1 X-3.242 Y0.148 E2.39193
G1 X-3.605 Y-0.138 E2.41643
G1 X-3.882 Y-0.509 E2.44092
G1 X-4.054 Y-0.939 E2.46542
G1 X-4.108 Y-1.399 E2.48992
G1 X-4.042 Y-1.857 E2.51441
G1 X-3.859 Y-2.282 E2.53891
G1 X-3.573 Y-2.645 E2.56340
G1 X-3.246 Y-2.889 E2.58498
G1 X-3.379 Y-3.240 F9000.000
G1 X-2.861 Y-3.446 F1800.000 E2.61450
G1 X-2.307 Y-3.512 E2.64402
G1 X-1.755 Y-3.432 E2.67355
G1 X-1.243 Y-3.212 E2.70307
G1 X-0.805 Y-2.866 E2.73259
G1 X-0.471 Y-2.419 E2.76211
G1 X-0.265 Y-1.901 E2.79163
G1 X-0.199 Y-1.347 E2.82115
G1 X-0.279 Y-0.795 E2.85068
G1 X-0.499 Y-0.283 E2.88020
G1 X-0.845 Y0.155 E2.90972
G1 X-1.292 Y0.489 E2.93924
G1 X-1.810 Y0.695 E2.96876
G1 X-2.364 Y0.761 E2.99828
G1 X-2.916 Y0.681 E3.02781
G1 X-3.428 Y0.461 E3.05733
G1 X-3.866 Y0.115 E3.08685
G1 X-4.200 Y-0.332 E3.11637
G1 X-4.406 Y-0.850 E3.14589
G1 X-4.472 Y-1.403 E3.17541
G1 X-4.392 Y-1.955 E3.20494
G1 X-4.172 Y-2.468 E3.23446
G1 X-3.826 Y-2.906 E3.26398
G1 X-3.424 Y-3.207 E3.29058
G1 X-3.557 Y-3.557 F9000.000
G1 X-2.951 Y-3.799 F1800.000 E3.32513
G1 X-2.303 Y-3.875 E3.35968
G1 X-1.657 Y-3.782 E3.39423
G1 X-1.057 Y-3.524 E3.42877
G1 X-0.544 Y-3.120 E3.46332
G1 X-0.154 Y-2.597 E3.49787
G1 X0.088 Y-1.991 E3.53242
G1 X0.165 Y-1.343 E3.56696
G1 X0.071 Y-0.697 E3.60151
G1 X-0.187 Y-0.097 E3.63606
G1 X-0.591 Y0.416 E3.67061
G1 X-1.114 Y0.806 E3.70516
G1 X-1.720 Y1.048 E3.73970
G1 X-2.368 Y1.125 E3.77425
G1 X-3.014 Y1.031 E3.80880
G1 X-3.614 Y0.773 E3.84335
G1 X-4.127 Y0.369 E3.87789
G1 X-4.517 Y-0.154 E3.91244
G1 X-4.759 Y-0.760 E3.94699
G1 X-4.836 Y-1.408 E3.98154
G1 X-4.742 Y-2.054 E4.01608
G1 X-4.484 Y-2.654 E4.05063
G1 X-4.080 Y-3.166 E4.08518
G1 X-3.601 Y-3.524 E4.11681
G1 X-5.360 Y-4.417 F9000.000
G1 X-10.838 Y-4.417 F1800.000 E4.40676
G1 X-10.838 Y-20.660 E5.26647
G1 X-5.360 Y-20.660 E5.55642
G1 X-5.360 Y-4.473 E6.41321
G1 X-4.999 Y-4.057 F9000.000
G1 X-11.198 Y-4.057 F1800.000 E6.74134
G1 X-11.198 Y-21.021 E7.63922
G1 X-4.999 Y-21.021 E7.96735
G1 X-4.999 Y-4.112 E8.86232
G1 F1800.000 E6.86232
G92 E0
G1 X-2.817 Y-17.195 F9000.000
G1 F1800.000 E2.00000
G1 X-3.242 Y-17.378 F1800.000 E2.02450
G1 X-3.605 Y-17.664 E2.04899
G1 X-3.882 Y-18.035 E2.07349
G1 X-4.054 Y-18.465 E2.09798
G1 X-4.108 Y-18.925 E2.12248
G1 X-4.042 Y-19.383 E2.14697
G1 X-3.859 Y-19.808 E2.17147
G1 X-3.573 Y-20.171 E2.19597
G1 X-3.202 Y-20.448 E2.22046
G1 X-2.772 Y-20.620 E2.24496
G1 X-2.312 Y-20.674 E2.26945
G1 X-1.854 Y-20.608 E2.29395
G1 X-1.429 Y-20.425 E2.31845
G1 X-1.066 Y-20.138 E2.34294
G1 X-0.789 Y-19.768 E2.36744
G1 X-0.617 Y-19.338 E2.39193
G1 X-0.563 Y-18.878 E2.41643
G1 X-0.629 Y-18.420 E2.44092
G1 X-0.812 Y-17.995 E2.46542
G1 X-1.099 Y-17.631 E2.48992
G1 X-1.469 Y-17.355 E2.51441
G1 X-1.899 Y-17.183 E2.53891
G1 X-2.359 Y-17.129 E2.56340
G1 X-2.762 Y-17.187 E2.58498
G1 X-2.916 Y-16.845 F9000.000
G1 X-3.428 Y-17.065 F1800.000 E2.61450
G1 X-3.866 Y-17.411 E2.64402
G1 X-4.200 Y-17.858 E2.67355
G1 X-4.406 Y-18.376 E2.70307
G1 X-4.472 Y-18.929 E2.73259
G1 X-4.392 Y-19.481 E2.76211
G1 X-4.172 Y-19.994 E2.79163
G1 X-3.826 Y-20.432 E2.82115
G1 X-3.379 Y-20.766 E2.85068
G1 X-2.861 Y-20.972 E2.88020
G1 X-2.307 Y-21.038 E2.90972
G1 X-1.755 Y-20.958 E2.93924
G1 X-1.243 Y-20.738 E2.96876
G1 X-0.805 Y-20.392 E2.99828
G1 X-0.471 Y-19.945 E3.02781
G1 X-0.265 Y-19.427 E3.05733
G1 X-0.199 Y-18.873 E3.08685
G1 X-0.279 Y-18.321 E3.11637
G1 X-0.499 Y-17.809 E3.14589
G1 X-0.845 Y-17.371 E3.17542
G1 X-1.292 Y-17.037 E3.20494
G1 X-1.810 Y-16.831 E3.23446
G1 X-2.364 Y-16.765 E3.26398
G1 X-2.861 Y-16.837 E3.29058
G1 F1800.000 E1.29058
G92 E0
G1 X2.918 Y-12.312 F9000.000
G1 F1800.000 E2.00000
G1 X3.565 Y-12.880 F1800.000 E2.04555
G1 X4.337 Y-13.260 E2.09111
G1 X5.181 Y-13.428 E2.13666
G1 X6.040 Y-13.372 E2.18221
G1 X6.854 Y-13.095 E2.22777
G1 X7.570 Y-12.617 E2.27332
G1 X8.137 Y-11.970 E2.31888
G1 X8.518 Y-11.198 E2.36443
G1 X8.686 Y-10.354 E2.40998
G1 X8.630 Y-9.495 E2.45554
G1 X8.353 Y-8.680 E2.50109
G1 X7.875 Y-7.965 E2.54664
G1 X7.228 Y-7.397 E2.59220
G1 X6.456 Y-7.017 E2.63775
G1 X5.612 Y-6.849 E2.68330
G1 X4.753 Y-6.905 E2.72886
G1 X3.938 Y-7.182 E2.77441
G1 X3.222 Y-7.660 E2.81997
G1 X2.655 Y-8.307 E2.86552
G1 X2.274 Y-9.079 E2.91107
G1 X2.106 Y-9.923 E2.95663
G1 X2.163 Y-10.782 E3.00218
G1 X2.439 Y-11.597 E3.04773
G1 X2.887 Y-12.266 E3.09037
G1 X2.644 Y-12.552 F9000.000
G1 X3.363 Y-13.182 F1800.000 E3.14095
G1 X4.220 Y-13.605 E3.19153
G1 X5.157 Y-13.791 E3.24211
G1 X6.110 Y-13.729 E3.29269
G1 X7.015 Y-13.421 E3.34327
G1 X7.810 Y-12.891 E3.39385
G1 X8.440 Y-12.172 E3.44443
G1 X8.863 Y-11.315 E3.49501
G1 X9.049 Y-10.378 E3.54559
G1 X8.986 Y-9.424 E3.59617
G1 X8.679 Y-8.519 E3.64675
G1 X8.148 Y-7.725 E3.69733
G1 X7.430 Y-7.095 E3.74790
G1 X6.573 Y-6.672 E3.79848
G1 X5.636 Y-6.486 E3.84906
G1 X4.682 Y-6.548 E3.89964
G1 X3.777 Y-6.855 E3.95022
G1 X2.983 Y-7.386 E4.00080
G1 X2.353 Y-8.105 E4.05138
G1 X1.930 Y-8.962 E4.10196
G1 X1.743 Y-9.899 E4.15254
G1 X1.806 Y-10.853 E4.20312
G1 X2.113 Y-11.758 E4.25370
G1 X2.614 Y-12.506 E4.30136
G1 X2.371 Y-12.792 F9000.000
G1 X1.787 Y-11.918 F1800.000 E4.35697
G1 X1.449 Y-10.924 E4.41257
G1 X1.381 Y-9.875 E4.46818
G1 X1.585 Y-8.845 E4.52379
G1 X2.050 Y-7.903 E4.57939
G1 X2.743 Y-7.113 E4.63500
G1 X3.616 Y-6.529 E4.69060
G1 X4.611 Y-6.191 E4.74621
G1 X5.659 Y-6.123 E4.80181
G1 X6.690 Y-6.328 E4.85742
G1 X7.438 Y-6.696 E4.90156
G1 X7.438 Y-1.443 E5.17961
G1 X7.491 Y-1.036 E5.20134
G1 X7.671 Y-0.602 E5.22624
G1 X7.958 Y-0.228 E5.25113
G1 X8.331 Y0.058 E5.27603
G1 X8.765 Y0.238 E5.30093
G1 X9.172 Y0.292 E5.32266
G1 X12.111 Y0.292 E5.47822
G1 X12.111 Y1.657 E5.55046
G1 X9.187 Y1.657 E5.70524
G1 X8.765 Y1.710 E5.72775
G1 X8.331 Y1.890 E5.75264
G1 X7.958 Y2.177 E5.77754
G1 X7.671 Y2.550 E5.80243
G1 X7.491 Y2.984 E5.82733
G1 X7.438 Y3.391 E5.84906
G1 X7.438 Y18.465 E6.64692
G1 X7.368 Y19.175 E6.68466
G1 X7.174 Y19.814 E6.72002
G1 X6.859 Y20.404 E6.75539
G1 X6.429 Y20.927 E6.79125
G1 X5.909 Y21.354 E6.82683
G1 X5.318 Y21.670 E6.86229
G1 X4.677 Y21.864 E6.89775
G1 X3.970 Y21.933 E6.93539
G1 X-2.568 Y21.933 E7.28145
G1 X-2.568 Y18.577 E7.45912
G1 X-2.303 Y18.535 E7.47334
G1 X-1.240 Y18.155 E7.53311
G1 X-0.266 Y17.582 E7.59289
G1 X0.582 Y16.837 E7.65266
G1 X1.275 Y15.945 E7.71244
G1 X1.777 Y14.962 E7.77088
G1 X1.811 Y14.867 E7.77622
G1 X2.084 Y13.928 E7.82798
G1 X2.098 Y13.868 E7.83121
G1 X2.111 Y13.794 E7.83521
G1 X2.206 Y12.792 E7.88849
G1 X2.207 Y4.534 E8.32555
G1 X2.114 Y3.831 E8.36308
G1 X1.820 Y3.121 E8.40376
G1 X1.352 Y2.511 E8.44445
G1 X0.742 Y2.043 E8.48514
G1 X0.032 Y1.749 E8.52583
G1 X-0.671 Y1.657 E8.56336
G1 X-5.021 Y1.657 E8.79362
G1 X-10.374 Y-3.696 E9.19430
G1 X-4.638 Y-3.696 E9.49789
G1 X-4.638 Y-17.984 E10.25414
G1 X-4.517 Y-17.680 E10.27148
G1 X-4.127 Y-17.157 E10.30602
G1 X-3.614 Y-16.753 E10.34057
G1 X-3.014 Y-16.495 E10.37512
G1 X-2.368 Y-16.401 E10.40967
G1 X-1.720 Y-16.478 E10.44421
G1 X-1.114 Y-16.720 E10.47876
G1 X-0.591 Y-17.110 E10.51331
G1 X-0.187 Y-17.623 E10.54786
G1 X0.071 Y-18.223 E10.58240
G1 X0.165 Y-18.869 E10.61695
G1 X0.088 Y-19.517 E10.65150
G1 X-0.154 Y-20.123 E10.68605
G1 X-0.544 Y-20.646 E10.72059
G1 X-1.057 Y-21.050 E10.75514
G1 X-1.657 Y-21.308 E10.78969
G1 X-2.303 Y-21.401 E10.82424
G1 X-2.951 Y-21.325 E10.85879
G1 X-3.557 Y-21.083 E10.89333
G1 X-4.080 Y-20.692 E10.92788
G1 X-4.484 Y-20.180 E10.96243
G1 X-4.638 Y-19.821 E10.98310
G1 X-4.638 Y-21.381 E11.06569
G1 X-11.559 Y-21.381 E11.43199
G1 X-11.559 Y-4.881 E12.30533
G1 X-12.111 Y-5.433 E12.34667
G1 X-12.111 Y-21.933 E13.22001
G1 X12.111 Y-21.933 E14.50210
G1 X12.111 Y-18.968 E14.65904
G1 X9.187 Y-18.968 E14.81383
G1 X8.765 Y-18.915 E14.83633
G1 X8.331 Y-18.735 E14.86122
G1 X7.958 Y-18.448 E14.88612
G1 X7.671 Y-18.075 E14.91101
G1 X7.491 Y-17.641 E14.93591
G1 X7.438 Y-17.234 E14.95764
G1 X7.438 Y-13.573 E15.15139
G1 X7.176 Y-13.748 E15.16803
G1 X6.181 Y-14.085 E15.22363
G1 X5.133 Y-14.154 E15.27924
G1 X4.103 Y-13.949 E15.33484
G1 X3.161 Y-13.485 E15.39045
G1 X2.412 Y-12.828 E15.44314
G1 F1800.000 E13.44314
G92 E0
G1 X7.798 Y-13.255 F9000.000
G1 F1800.000 E2.00000
G1 X8.535 Y-12.449 F1800.000 E2.05780
G1 X8.950 Y-11.739 E2.10136
G1 X9.207 Y-10.957 E2.14492
G1 X9.294 Y-10.138 E2.18848
G1 X9.207 Y-9.320 E2.23204
G1 X8.950 Y-8.538 E2.27560
G1 X8.535 Y-7.828 E2.31916
G1 X7.798 Y-7.022 E2.37696
G1 X7.798 Y-1.467 E2.67097
G1 X7.843 Y-1.130 E2.68893
G1 X7.986 Y-0.783 E2.70880
G1 X8.215 Y-0.486 E2.72867
G1 X8.513 Y-0.257 E2.74854
G1 X8.859 Y-0.113 E2.76841
G1 X9.196 Y-0.069 E2.78638
G1 X12.472 Y-0.069 E2.95977
G1 X12.472 Y2.017 E3.07020
G1 X9.205 Y2.017 E3.24312
G1 X8.859 Y2.062 E3.26156
G1 X8.513 Y2.205 E3.28142
G1 X8.215 Y2.434 E3.30129
G1 X7.986 Y2.732 E3.32116
G1 X7.843 Y3.078 E3.34103
G1 X7.798 Y3.415 E3.35900
G1 X7.798 Y18.483 E4.15655
G1 X7.723 Y19.246 E4.19710
G1 X7.509 Y19.953 E4.23623
G1 X7.160 Y20.605 E4.27535
G1 X6.685 Y21.183 E4.31497
G1 X6.111 Y21.655 E4.35431
G1 X5.457 Y22.004 E4.39354
G1 X4.748 Y22.219 E4.43276
G1 X3.987 Y22.294 E4.47321
G1 X-2.929 Y22.294 E4.83930
G1 X-2.929 Y18.268 E5.05240
G1 X-2.392 Y18.184 E5.08116
G1 X-1.393 Y17.827 E5.13732
G1 X-0.479 Y17.289 E5.19348
G1 X0.318 Y16.588 E5.24964
G1 X0.969 Y15.751 E5.30580
G1 X1.445 Y14.819 E5.36115
G1 X1.467 Y14.756 E5.36469
G1 X1.735 Y13.836 E5.41541
G1 X1.744 Y13.796 E5.41758
G1 X1.753 Y13.746 E5.42029
G1 X1.845 Y12.775 E5.47193
G1 X1.846 Y4.558 E5.90683
G1 X1.763 Y3.926 E5.94059
G1 X1.505 Y3.303 E5.97626
G1 X1.095 Y2.768 E6.01192
G1 X0.560 Y2.358 E6.04758
G1 X-0.062 Y2.100 E6.08325
G1 X-0.695 Y2.017 E6.11701
G1 X-5.171 Y2.017 E6.35393
G1 X-12.472 Y-5.284 E6.90044
G1 X-12.472 Y-22.294 E7.80078
G1 X12.472 Y-22.294 E9.12104
G1 X12.472 Y-18.608 E9.31616
G1 X9.205 Y-18.608 E9.48909
G1 X8.859 Y-18.563 E9.50752
G1 X8.513 Y-18.420 E9.52739
G1 X8.215 Y-18.191 E9.54726
G1 X7.986 Y-17.893 E9.56713
G1 X7.843 Y-17.546 E9.58700
G1 X7.798 Y-17.210 E9.60497
G1 X7.798 Y-13.310 E9.81136
G1 X8.159 Y-13.395 F9000.000
G1 X8.827 Y-12.664 F1800.000 E9.86378
G1 X9.281 Y-11.888 E9.91139
G1 X9.561 Y-11.033 E9.95900
G1 X9.656 Y-10.138 E10.00662
G1 X9.561 Y-9.244 E10.05423
G1 X9.281 Y-8.389 E10.10184
G1 X8.827 Y-7.613 E10.14945
G1 X8.159 Y-6.882 E10.20187
G1 X8.159 Y-1.490 E10.48723
G1 X8.194 Y-1.224 E10.50143
G1 X8.301 Y-0.965 E10.51627
G1 X8.472 Y-0.743 E10.53111
G1 X8.694 Y-0.572 E10.54596
G1 X8.954 Y-0.465 E10.56080
G1 X9.220 Y-0.430 E10.57501
G1 X12.832 Y-0.430 E10.76624
G1 X12.832 Y2.378 E10.91484
G1 X9.223 Y2.378 E11.10591
G1 X8.954 Y2.413 E11.12027
G1 X8.694 Y2.520 E11.13511
G1 X8.472 Y2.691 E11.14996
G1 X8.301 Y2.913 E11.16480
G1 X8.194 Y3.173 E11.17964
G1 X8.159 Y3.439 E11.19384
G1 X8.159 Y18.501 E11.99108
G1 X8.079 Y19.316 E12.03445
G1 X7.843 Y20.092 E12.07734
G1 X7.461 Y20.806 E12.12022
G1 X6.942 Y21.439 E12.16354
G1 X6.940 Y21.441 E12.16369
G1 X6.312 Y21.956 E12.20670
G1 X5.596 Y22.339 E12.24969
G1 X4.819 Y22.575 E12.29267
G1 X4.005 Y22.655 E12.33594
G1 X-3.290 Y22.655 E12.72205
G1 X-3.290 Y17.959 E12.97059
G1 X-2.481 Y17.833 E13.01388
G1 X-1.547 Y17.499 E13.06643
G1 X-0.691 Y16.995 E13.11897
G1 X0.054 Y16.340 E13.17152
G1 X0.664 Y15.556 E13.22406
G1 X1.113 Y14.677 E13.27633
G1 X1.124 Y14.646 E13.27807
G1 X1.386 Y13.745 E13.32775
G1 X1.391 Y13.724 E13.32886
G1 X1.396 Y13.698 E13.33028
G1 X1.485 Y12.758 E13.38027
G1 X1.486 Y4.582 E13.81302
G1 X1.412 Y4.020 E13.84302
G1 X1.190 Y3.485 E13.87365
G1 X0.838 Y3.026 E13.90429
G1 X0.378 Y2.673 E13.93493
G1 X-0.156 Y2.452 E13.96557
G1 X-0.718 Y2.378 E13.99556
G1 X-5.320 Y2.378 E14.23914
G1 X-12.832 Y-5.135 E14.80147
G1 X-12.832 Y-22.655 E15.72880
G1 X12.832 Y-22.655 E17.08724
G1 X12.832 Y-18.247 E17.32053
G1 X9.223 Y-18.247 E17.51161
G1 X8.954 Y-18.212 E17.52596
G1 X8.694 Y-18.105 E17.54081
G1 X8.472 Y-17.934 E17.55565
G1 X8.301 Y-17.711 E17.57050
G1 X8.194 Y-17.452 E17.58534
G1 X8.159 Y-17.186 E17.59954
G1 X8.159 Y-13.450 E17.79728
G1 F1800.000 E15.79728
G92 E0
G1 X-4.368 Y-3.148 F9000.000
G1 F1800.000 E2.00000
G1 X-4.660 Y-3.440 F1800.000 E2.02272
G1 X-5.183 Y-3.440 E2.05150
G1 X-4.599 Y-2.855 E2.09698
G1 X-4.786 Y-2.519 E2.11814
G1 X-5.706 Y-3.440 E2.18976
G1 X-6.229 Y-3.440 E2.21854
G1 X-4.943 Y-2.153 E2.31864
G1 X-5.035 Y-1.723 E2.34288
G1 X-6.752 Y-3.440 E2.47650
G1 X-7.275 Y-3.440 E2.50529
G1 X-5.089 Y-1.253 E2.67546
G1 X-5.019 Y-0.660 E2.70834
G1 X-7.798 Y-3.440 E2.92468
