; generated by Slic3r 0.7.1 on 2012-05-11 at 19:09:05

; layer_height = .35
; perimeters = 2
; solid_layers = 2
; fill_density = .42
; nozzle_diameter = .35
; filament_diameter = 1.75
; extrusion_multiplier = 1
; perimeter_speed = 30
; infill_speed = 60
; travel_speed = 150
; extrusion_width_ratio = 0
; scale = 1
; single wall width = 0.37mm

M190 S80 ; set bed temperature
M104 S185 ; set temperature

M109 S185 ; wait for temperature to be reached
G90 ; use absolute coordinates
G21 ; set units to millimeters
G92 E0 ; reset extrusion distance
M82 ; use absolute distances for extrusion
G1 Z0.350 F9000.000
G1 X87.322 Y88.412
G1 F1800.000 E1.00000
G1 X88.412 Y87.322 F1800.000 E1.08159
G1 X89.092 Y86.732 E1.12924
G1 X90.332 Y85.802 E1.21128
G1 X91.092 Y85.312 E1.25915
G1 X92.442 Y84.572 E1.34063
G1 X93.322 Y84.182 E1.39158
G1 X94.772 Y83.652 E1.47329
G1 X95.582 Y83.412 E1.51801
G1 X97.082 Y83.082 E1.59930
G1 X98.002 Y82.952 E1.64848
G1 X99.542 Y82.842 E1.73020
G1 X100.442 Y82.842 E1.77784
G1 X101.982 Y82.952 E1.85955
G1 X102.892 Y83.082 E1.90821
G1 X104.402 Y83.412 E1.99002
G1 X105.222 Y83.652 E2.03524
G1 X106.672 Y84.182 E2.11696
G1 X107.552 Y84.572 E2.16790
G1 X108.902 Y85.312 E2.24939
G1 X109.662 Y85.802 E2.29725
G1 X110.902 Y86.732 E2.37929
G1 X111.582 Y87.322 E2.42694
G1 X112.672 Y88.412 E2.50854
G1 X113.282 Y89.122 E2.55808
G1 X114.202 Y90.362 E2.63980
G1 X114.672 Y91.092 E2.68576
G1 X115.412 Y92.442 E2.76724
G1 X115.792 Y93.282 E2.81604
G1 X116.332 Y94.732 E2.89794
G1 X116.582 Y95.582 E2.94484
G1 X116.912 Y97.082 E3.02613
G1 X117.042 Y98.002 E3.07531
G1 X117.152 Y99.542 E3.15703
G1 X117.152 Y100.442 E3.20466
G1 X117.042 Y101.982 E3.28638
G1 X116.912 Y102.892 E3.33504
G1 X116.582 Y104.402 E3.41685
G1 X116.332 Y105.262 E3.46425
G1 X115.792 Y106.712 E3.54615
G1 X115.412 Y107.552 E3.59495
G1 X114.672 Y108.902 E3.67643
G1 X114.202 Y109.632 E3.72239
G1 X113.282 Y110.872 E3.80411
G1 X112.672 Y111.582 E3.85366
G1 X111.582 Y112.672 E3.93525
G1 X110.872 Y113.282 E3.98479
G1 X109.632 Y114.202 E4.06652
G1 X108.902 Y114.672 E4.11247
G1 X107.552 Y115.412 E4.19396
G1 X106.712 Y115.792 E4.24276
G1 X105.262 Y116.332 E4.32465
G1 X104.402 Y116.582 E4.37206
G1 X102.892 Y116.912 E4.45387
G1 X101.982 Y117.042 E4.50252
G1 X100.442 Y117.152 E4.58424
G1 X99.542 Y117.152 E4.63188
G1 X98.002 Y117.042 E4.71360
G1 X97.082 Y116.912 E4.76278
G1 X95.582 Y116.582 E4.84407
G1 X94.732 Y116.332 E4.89097
G1 X93.282 Y115.792 E4.97286
G1 X92.442 Y115.412 E5.02166
G1 X91.092 Y114.672 E5.10315
G1 X90.362 Y114.202 E5.14910
G1 X89.122 Y113.282 E5.23083
G1 X88.412 Y112.672 E5.28037
G1 X87.322 Y111.582 E5.36196
G1 X86.732 Y110.902 E5.40961
G1 X85.802 Y109.662 E5.49165
G1 X85.312 Y108.902 E5.53952
G1 X84.572 Y107.552 E5.62100
G1 X84.182 Y106.672 E5.67195
G1 X83.652 Y105.222 E5.75366
G1 X83.412 Y104.402 E5.79889
G1 X83.082 Y102.892 E5.88070
G1 X82.952 Y101.982 E5.92935
G1 X82.842 Y100.442 E6.01107
G1 X82.842 Y99.542 E6.05871
G1 X82.952 Y98.002 E6.14043
G1 X83.082 Y97.082 E6.18961
G1 X83.412 Y95.582 E6.27090
G1 X83.652 Y94.772 E6.31561
G1 X84.182 Y93.322 E6.39733
G1 X84.572 Y92.442 E6.44827
G1 X85.312 Y91.092 E6.52976
G1 X85.802 Y90.332 E6.57762
G1 X86.732 Y89.092 E6.65966
G1 X87.286 Y88.454 E6.70440
G1 X87.582 Y88.672 F9000.000
G1 X88.672 Y87.582 F1800.000 E6.78599
G1 X89.312 Y87.022 E6.83100
G1 X90.552 Y86.092 E6.91304
G1 X91.272 Y85.632 E6.95826
G1 X92.622 Y84.892 E7.03975
G1 X93.442 Y84.512 E7.08759
G1 X94.892 Y83.982 E7.16930
G1 X95.662 Y83.762 E7.21169
G1 X97.162 Y83.432 E7.29298
G1 X98.022 Y83.312 E7.33894
G1 X99.562 Y83.202 E7.42066
G1 X100.422 Y83.202 E7.46618
G1 X101.962 Y83.312 E7.54790
G1 X102.812 Y83.432 E7.59333
G1 X104.322 Y83.762 E7.67514
G1 X105.102 Y83.982 E7.71804
G1 X106.552 Y84.512 E7.79975
G1 X107.372 Y84.892 E7.84759
G1 X108.722 Y85.632 E7.92908
G1 X109.442 Y86.092 E7.97430
G1 X110.682 Y87.022 E8.05634
G1 X111.322 Y87.582 E8.10135
G1 X112.412 Y88.672 E8.18294
G1 X112.992 Y89.332 E8.22945
G1 X113.912 Y90.572 E8.31117
G1 X114.352 Y91.272 E8.35493
G1 X115.092 Y92.622 E8.43642
G1 X115.452 Y93.412 E8.48237
G1 X115.992 Y94.862 E8.56427
G1 X116.232 Y95.662 E8.60848
G1 X116.562 Y97.162 E8.68977
G1 X116.682 Y98.022 E8.73573
G1 X116.792 Y99.562 E8.81745
G1 X116.792 Y100.422 E8.86297
G1 X116.682 Y101.962 E8.94469
G1 X116.562 Y102.812 E8.99013
G1 X116.232 Y104.322 E9.07194
G1 X115.992 Y105.132 E9.11665
G1 X115.452 Y106.582 E9.19855
G1 X115.092 Y107.372 E9.24450
G1 X114.352 Y108.722 E9.32598
G1 X113.912 Y109.422 E9.36975
G1 X112.992 Y110.662 E9.45147
G1 X112.412 Y111.322 E9.49798
G1 X111.322 Y112.412 E9.57957
G1 X110.662 Y112.992 E9.62607
G1 X109.422 Y113.912 E9.70780
G1 X108.722 Y114.352 E9.75156
G1 X107.372 Y115.092 E9.83305
G1 X106.582 Y115.452 E9.87900
G1 X105.132 Y115.992 E9.96089
G1 X104.322 Y116.232 E10.00561
G1 X102.812 Y116.562 E10.08742
G1 X101.962 Y116.682 E10.13286
G1 X100.422 Y116.792 E10.21458
G1 X99.562 Y116.792 E10.26009
G1 X98.022 Y116.682 E10.34181
G1 X97.162 Y116.562 E10.38777
G1 X95.662 Y116.232 E10.46907
G1 X94.862 Y115.992 E10.51328
G1 X93.412 Y115.452 E10.59517
G1 X92.622 Y115.092 E10.64112
G1 X91.272 Y114.352 E10.72261
G1 X90.572 Y113.912 E10.76637
G1 X89.332 Y112.992 E10.84810
G1 X88.672 Y112.412 E10.89460
G1 X87.582 Y111.322 E10.97619
G1 X87.022 Y110.682 E11.02120
G1 X86.092 Y109.442 E11.10325
G1 X85.632 Y108.722 E11.14847
G1 X84.892 Y107.372 E11.22995
G1 X84.512 Y106.552 E11.27779
G1 X83.982 Y105.102 E11.35950
G1 X83.762 Y104.322 E11.40240
G1 X83.432 Y102.812 E11.48421
G1 X83.312 Y101.962 E11.52965
G1 X83.202 Y100.422 E11.61137
G1 X83.202 Y99.562 E11.65689
G1 X83.312 Y98.022 E11.73860
G1 X83.432 Y97.162 E11.78457
G1 X83.762 Y95.662 E11.86586
G1 X83.982 Y94.892 E11.90824
G1 X84.512 Y93.442 E11.98996
G1 X84.892 Y92.622 E12.03780
G1 X85.632 Y91.272 E12.11928
G1 X86.092 Y90.552 E12.16450
G1 X87.022 Y89.312 E12.24654
G1 X87.546 Y88.713 E12.28864
G1 F1800.000 E11.28864
G92 E0
G1 X96.844 Y97.290 F9000.000
G1 F1800.000 E1.00000
G1 X97.454 Y96.711 F1800.000 E1.04455
G1 X98.168 Y96.265 E1.08910
G1 X98.957 Y95.973 E1.13365
G1 X99.789 Y95.846 E1.17819
G1 X100.630 Y95.888 E1.22274
G1 X101.445 Y96.099 E1.26729
G1 X102.200 Y96.470 E1.31184
G1 X102.866 Y96.985 E1.35639
G1 X103.414 Y97.624 E1.40094
G1 X103.823 Y98.360 E1.44549
G1 X104.075 Y99.163 E1.49003
G1 X104.160 Y100.000 E1.53458
G1 X104.075 Y100.837 E1.57913
G1 X103.823 Y101.640 E1.62368
G1 X103.414 Y102.376 E1.66823
G1 X102.866 Y103.015 E1.71278
G1 X102.200 Y103.530 E1.75733
G1 X101.445 Y103.901 E1.80188
G1 X100.630 Y104.112 E1.84642
G1 X99.789 Y104.154 E1.89097
G1 X98.957 Y104.027 E1.93552
G1 X98.168 Y103.735 E1.98007
G1 X97.454 Y103.289 E2.02462
G1 X96.844 Y102.710 E2.06917
G1 X96.363 Y102.019 E2.11372
G1 X96.031 Y101.245 E2.15826
G1 X95.862 Y100.421 E2.20281
G1 X95.862 Y99.579 E2.24736
G1 X96.031 Y98.755 E2.29191
G1 X96.363 Y97.981 E2.33646
G1 X96.812 Y97.336 E2.37809
G1 X96.569 Y97.054 F9000.000
G1 X97.232 Y96.424 F1800.000 E2.42652
G1 X98.008 Y95.940 E2.47495
G1 X98.867 Y95.622 E2.52338
G1 X99.771 Y95.484 E2.57181
G1 X100.685 Y95.530 E2.62024
G1 X101.571 Y95.759 E2.66868
G1 X102.392 Y96.162 E2.71711
G1 X103.116 Y96.722 E2.76554
G1 X103.712 Y97.417 E2.81397
G1 X104.156 Y98.217 E2.86240
G1 X104.430 Y99.090 E2.91083
G1 X104.522 Y100.000 E2.95926
G1 X104.430 Y100.910 E3.00769
G1 X104.156 Y101.783 E3.05612
G1 X103.712 Y102.583 E3.10455
G1 X103.116 Y103.278 E3.15298
G1 X102.392 Y103.838 E3.20141
G1 X101.571 Y104.241 E3.24984
G1 X100.685 Y104.470 E3.29827
G1 X99.771 Y104.516 E3.34671
G1 X98.867 Y104.378 E3.39514
G1 X98.008 Y104.060 E3.44357
G1 X97.232 Y103.576 E3.49200
G1 X96.569 Y102.946 E3.54043
G1 X96.046 Y102.195 E3.58886
G1 X95.685 Y101.354 E3.63729
G1 X95.501 Y100.458 E3.68572
G1 X95.501 Y99.542 E3.73415
G1 X95.685 Y98.646 E3.78258
G1 X96.046 Y97.805 E3.83101
G1 X96.537 Y97.100 E3.87653
G1 F1800.000 E2.87653
G92 E0
G1 X105.791 Y96.966 F9000.000
G1 F1800.000 E1.00000
G1 X108.859 Y96.966 F1800.000 E1.16236
G1 X108.859 Y103.034 E1.48351
G1 X105.791 Y103.034 E1.64587
G1 X105.791 Y97.021 E1.96411
G1 X105.431 Y96.606 F9000.000
G1 X109.219 Y96.606 F1800.000 E2.16464
G1 X109.219 Y103.394 E2.52397
G1 X105.431 Y103.394 E2.72451
G1 X105.431 Y96.661 E3.08091
G1 F1800.000 E2.08091
G92 E0
G1 X108.795 Y94.348 F9000.000
G1 F1800.000 E1.00000
G1 X109.510 Y95.657 F1800.000 E1.07895
G1 X110.031 Y97.055 E1.15790
G1 X110.348 Y98.512 E1.23685
G1 X110.454 Y100.000 E1.31580
G1 X110.348 Y101.488 E1.39475
G1 X110.031 Y102.945 E1.47370
G1 X109.510 Y104.343 E1.55264
G1 X108.795 Y105.652 E1.63159
G1 X107.901 Y106.846 E1.71054
G1 X106.846 Y107.901 E1.78949
G1 X105.652 Y108.795 E1.86844
G1 X104.343 Y109.510 E1.94739
G1 X102.945 Y110.031 E2.02634
G1 X101.488 Y110.348 E2.10529
G1 X100.000 Y110.454 E2.18424
G1 X98.512 Y110.348 E2.26319
G1 X97.055 Y110.031 E2.34214
G1 X95.657 Y109.510 E2.42109
G1 X94.348 Y108.795 E2.50004
G1 X93.154 Y107.901 E2.57899
G1 X92.099 Y106.846 E2.65794
G1 X91.205 Y105.652 E2.73689
G1 X90.490 Y104.343 E2.81584
G1 X89.969 Y102.945 E2.89478
G1 X89.652 Y101.488 E2.97373
G1 X89.546 Y100.000 E3.05268
G1 X89.652 Y98.512 E3.13163
G1 X89.969 Y97.055 E3.21058
G1 X90.490 Y95.657 E3.28953
G1 X91.205 Y94.348 E3.36848
G1 X92.099 Y93.154 E3.44743
G1 X93.154 Y92.099 E3.52638
G1 X94.348 Y91.205 E3.60533
G1 X95.657 Y90.490 E3.68428
G1 X97.055 Y89.969 E3.76323
G1 X98.512 Y89.652 E3.84218
G1 X100.000 Y89.546 E3.92113
G1 X101.488 Y89.652 E4.00007
G1 X102.945 Y89.969 E4.07903
G1 X104.343 Y90.490 E4.15797
G1 X105.652 Y91.205 E4.23692
G1 X106.846 Y92.099 E4.31587
G1 X107.901 Y93.154 E4.39482
G1 X108.762 Y94.304 E4.47085
G1 X109.099 Y94.153 F9000.000
G1 X109.838 Y95.507 F1800.000 E4.55254
G1 X110.378 Y96.953 E4.63421
G1 X110.706 Y98.461 E4.71589
G1 X110.816 Y100.000 E4.79757
G1 X110.706 Y101.539 E4.87925
G1 X110.378 Y103.047 E4.96093
G1 X109.838 Y104.493 E5.04261
G1 X109.099 Y105.847 E5.12429
G1 X108.174 Y107.083 E5.20597
G1 X107.083 Y108.174 E5.28765
G1 X105.847 Y109.099 E5.36933
G1 X104.493 Y109.838 E5.45101
G1 X103.047 Y110.378 E5.53269
G1 X101.539 Y110.706 E5.61437
G1 X100.000 Y110.816 E5.69605
G1 X98.461 Y110.706 E5.77773
G1 X96.953 Y110.378 E5.85941
G1 X95.507 Y109.838 E5.94109
G1 X94.153 Y109.099 E6.02277
G1 X92.917 Y108.174 E6.10445
G1 X91.826 Y107.083 E6.18613
G1 X90.901 Y105.847 E6.26781
G1 X90.162 Y104.493 E6.34949
G1 X89.622 Y103.047 E6.43117
G1 X89.294 Y101.539 E6.51285
G1 X89.184 Y100.000 E6.59453
G1 X89.294 Y98.461 E6.67621
G1 X89.622 Y96.953 E6.75789
G1 X90.162 Y95.507 E6.83957
G1 X90.901 Y94.153 E6.92125
G1 X91.826 Y92.917 E7.00293
G1 X92.917 Y91.826 E7.08461
G1 X94.153 Y90.901 E7.16629
G1 X95.507 Y90.162 E7.24797
G1 X96.953 Y89.622 E7.32964
G1 X98.461 Y89.294 E7.41132
G1 X100.000 Y89.184 E7.49300
G1 X101.539 Y89.294 E7.57468
G1 X103.047 Y89.622 E7.65636
G1 X104.493 Y90.162 E7.73804
G1 X105.847 Y90.901 E7.81972
G1 X107.083 Y91.826 E7.90140
G1 X108.174 Y92.917 E7.98308
G1 X109.066 Y94.108 E8.06185
G1 X108.433 Y94.432 F9000.000
G1 X105.568 Y91.567 F3600.000 E8.28195
G1 X104.329 Y90.847 E8.35975
G1 X109.153 Y95.671 E8.73026
G1 X109.313 Y96.349 E8.76811
G1 X103.436 Y90.472 E9.21952
G1 X102.635 Y90.189 E9.26566
G1 X108.794 Y96.349 E9.73877
G1 X108.276 Y96.349 E9.76693
G1 X101.972 Y90.045 E10.25111
G1 X101.313 Y89.905 E10.28772
G1 X107.757 Y96.349 E10.78269
G1 X107.239 Y96.349 E10.81086
G1 X100.755 Y89.865 E11.30891
G1 X100.196 Y89.825 E11.33932
G1 X106.720 Y96.349 E11.84043
G1 X106.202 Y96.349 E11.86860
G1 X99.672 Y89.819 E12.37013
G1 X99.188 Y89.854 E12.39648
G1 X105.683 Y96.349 E12.89536
G1 X105.174 Y96.358 E12.92301
G1 X98.704 Y89.889 E13.41996
G1 X98.249 Y89.952 E13.44492
G1 X105.174 Y96.877 E13.97683
G1 X105.174 Y97.396 F9000.000
G1 X97.823 Y90.045 F3600.000 E14.54145
G1 X97.397 Y90.137 F9000.000
G1 X105.174 Y97.914 F3600.000 E15.13878
G1 X103.978 Y97.237 F9000.000
G1 X105.174 Y98.433 F3600.000 E15.23065
G1 X104.473 Y98.250 E15.27000
G1 X105.174 Y98.951 E15.32386
G1 X104.688 Y98.984 E15.35032
G1 X105.174 Y99.470 E15.38765
G1 X104.747 Y99.561 E15.41138
G1 X105.174 Y99.988 E15.44420
G1 X104.761 Y100.094 E15.46736
G1 X105.174 Y100.507 E15.49911
G1 X105.174 Y101.025 E15.52727
G1 X104.713 Y100.564 E15.56270
G1 X104.640 Y101.010 E15.58722
G1 X105.174 Y101.544 E15.62825
G1 X105.174 Y102.063 E15.65641
G1 X104.516 Y101.405 E15.70696
G1 X104.392 Y101.799 E15.72943
G1 X105.174 Y102.581 E15.78948
G1 X105.174 Y103.100 E15.81765
G1 X104.211 Y102.136 E15.89164
G1 X104.025 Y102.470 E15.91236
G1 X105.174 Y103.618 E16.00057
G1 X105.207 Y103.651 F9000.000
G1 X107.962 Y106.406 F3600.000 E16.21217
G1 X107.740 Y106.702 E16.23229
G1 X103.821 Y102.784 E16.53325
G1 X103.582 Y103.063 E16.55323
G1 X107.482 Y106.963 E16.85277
G1 X107.222 Y107.222 E16.87269
G1 X103.342 Y103.342 E17.17072
G1 X103.068 Y103.586 E17.19067
G1 X106.963 Y107.482 E17.48987
G1 X106.702 Y107.740 E17.50978
G1 X102.775 Y103.813 E17.81142
G1 X102.483 Y104.039 E17.83149
G1 X106.406 Y107.962 E18.13280
G1 X106.109 Y108.184 E18.15292
G1 X102.136 Y104.210 E18.45812
G1 X101.788 Y104.381 E18.47916
G1 X105.813 Y108.406 E18.78831
G1 X105.510 Y108.622 E18.80850
G1 X101.412 Y104.523 E19.12329
G1 X101.000 Y104.630 E19.14640
G1 X105.175 Y108.805 E19.46708
G1 X104.840 Y108.988 E19.48783
G1 X100.579 Y104.727 E19.81511
G1 X100.085 Y104.752 E19.84195
G1 X104.504 Y109.171 E20.18137
G1 X104.153 Y109.338 E20.20250
G1 X99.578 Y104.764 E20.55388
G1 X98.966 Y104.670 E20.58753
G1 X103.775 Y109.479 E20.95694
G1 X103.397 Y109.620 E20.97883
G1 X98.243 Y104.466 E21.37470
G1 X97.202 Y103.943 E21.43802
G1 X103.020 Y109.761 E21.88490
G1 X102.603 Y109.863 E21.90820
G1 X90.137 Y97.397 E22.86568
G1 X90.045 Y97.823 E22.88935
G1 X102.177 Y109.955 E23.82123
G1 X101.751 Y110.048 E23.84490
G1 X89.952 Y98.249 E24.75119
G1 X89.889 Y98.704 E24.77615
G1 X101.296 Y110.111 E25.65233
G1 X100.812 Y110.146 E25.67868
G1 X89.854 Y99.188 E26.52035
G1 X89.819 Y99.672 E26.54670
G1 X100.328 Y110.181 E27.35386
G1 X99.804 Y110.175 E27.38232
G1 X89.825 Y100.196 E28.14882
G1 X89.865 Y100.755 E28.17923
G1 X99.245 Y110.135 E28.89975
G1 X98.687 Y110.095 E28.93017
G1 X89.905 Y101.313 E29.60472
G1 X90.045 Y101.972 E29.64132
G1 X98.028 Y109.955 E30.25446
G1 X97.365 Y109.811 E30.29129
G1 X90.189 Y102.635 E30.84245
G1 X90.472 Y103.436 E30.88858
G1 X96.564 Y109.528 E31.35651
G1 X95.671 Y109.153 E31.40913
G1 X90.847 Y104.329 E31.77965
G1 X91.567 Y105.568 E31.85745
G1 X94.432 Y108.433 E32.07755
G1 F1800.000 E31.07755
G92 E0
G1 X96.062 Y102.803 F9000.000
G1 F1800.000 E1.00000
G1 X90.239 Y96.980 F3600.000 E1.44724
G1 X90.380 Y96.603 F9000.000
G1 X95.518 Y101.741 F3600.000 E1.84191
G1 X95.335 Y101.039 F9000.000
G1 X90.521 Y96.225 F3600.000 E2.21169
G1 X90.662 Y95.847 F9000.000
G1 X95.244 Y100.430 F3600.000 E2.56368
G1 X95.244 Y99.911 F9000.000
G1 X90.829 Y95.496 F3600.000 E2.90284
G1 X91.012 Y95.160 F9000.000
G1 X95.281 Y99.430 F3600.000 E3.23077
G1 X95.370 Y99.000 F9000.000
G1 X91.195 Y94.825 F3600.000 E3.55143
G1 X91.378 Y94.490 F9000.000
G1 X95.469 Y98.581 F3600.000 E3.86567
G1 X95.625 Y98.218 F9000.000
G1 X91.594 Y94.187 F3600.000 E4.17527
G1 X91.816 Y93.891 F9000.000
G1 X95.781 Y97.855 F3600.000 E4.47978
G1 X95.975 Y97.530 F9000.000
G1 X92.038 Y93.594 F3600.000 E4.78211
G1 X92.260 Y93.298 F9000.000
G1 X96.187 Y97.224 F3600.000 E5.08373
G1 X96.401 Y96.919 F9000.000
G1 X92.518 Y93.037 F3600.000 E5.38194
G1 X92.778 Y92.778 F9000.000
G1 X96.667 Y96.667 F3600.000 E5.68065
G1 X96.932 Y96.414 F9000.000
G1 X93.037 Y92.518 F3600.000 E5.97986
G1 X93.298 Y92.260 F9000.000
G1 X97.215 Y96.178 F3600.000 E6.28079
G1 X97.535 Y95.979 F9000.000
G1 X93.594 Y92.038 F3600.000 E6.58346
