; generated by Slic3r 0.7.1 on 2012-05-12 at 20:06:22

; layer_height = .35
; perimeters = 2
; solid_layers = 2
; fill_density = .42
; nozzle_diameter = .35
; filament_diameter = 1.75
; extrusion_multiplier = 1
; perimeter_speed = 30
; infill_speed = 60
; travel_speed = 150
; extrusion_width_ratio = 0
; scale = 1
; single wall width = 0.37mm

M190 S80 ; set bed temperature
M104 S185 ; set temperature

M109 S185 ; wait for temperature to be reached
G90 ; use absolute coordinates
G21 ; set units to millimeters
G92 E0 ; reset extrusion distance
M82 ; use absolute distances for extrusion
G1 Z0.350 F9000.000
G1 X87.322 Y88.412
G1 F1800.000 E1.00000
G1 X88.412 Y87.322 F1800.000 E1.08159
G1 X89.092 Y86.732 E1.12924
G1 X90.332 Y85.802 E1.21128
G1 X91.092 Y85.312 E1.25915
G1 X92.442 Y84.572 E1.34063
G1 X93.322 Y84.182 E1.39158
G1 X94.772 Y83.652 E1.47329
G1 X95.582 Y83.412 E1.51801
G1 X97.082 Y83.082 E1.59930
G1 X98.002 Y82.952 E1.64848
G1 X99.542 Y82.842 E1.73020
G1 X100.442 Y82.842 E1.77784
G1 X101.982 Y82.952 E1.85955
G1 X102.892 Y83.082 E1.90821
G1 X104.402 Y83.412 E1.99002
G1 X105.222 Y83.652 E2.03524
G1 X106.672 Y84.182 E2.11696
G1 X107.552 Y84.572 E2.16790
G1 X108.902 Y85.312 E2.24939
G1 X109.662 Y85.802 E2.29725
G1 X110.902 Y86.732 E2.37929
G1 X111.582 Y87.322 E2.42694
G1 X112.672 Y88.412 E2.50854
G1 X113.282 Y89.122 E2.55808
G1 X114.202 Y90.362 E2.63980
G1 X114.672 Y91.092 E2.68576
G1 X115.412 Y92.442 E2.76724
G1 X115.792 Y93.282 E2.81604
G1 X116.332 Y94.732 E2.89794
G1 X116.582 Y95.582 E2.94484
G1 X116.912 Y97.082 E3.02613
G1 X117.042 Y98.002 E3.07531
G1 X117.152 Y99.542 E3.15703
G1 X117.152 Y100.442 E3.20466
G1 X117.042 Y101.982 E3.28638
G1 X116.912 Y102.892 E3.33504
G1 X116.582 Y104.402 E3.41685
G1 X116.332 Y105.262 E3.46425
G1 X115.792 Y106.712 E3.54615
G1 X115.412 Y107.552 E3.59495
G1 X114.672 Y108.902 E3.67643
G1 X114.202 Y109.632 E3.72239
G1 X113.282 Y110.872 E3.80411
G1 X112.672 Y111.582 E3.85366
G1 X111.582 Y112.672 E3.93525
G1 X110.872 Y113.282 E3.98479
G1 X109.632 Y114.202 E4.06652
G1 X108.902 Y114.672 E4.11247
G1 X107.552 Y115.412 E4.19396
G1 X106.712 Y115.792 E4.24276
G1 X105.262 Y116.332 E4.32465
G1 X104.402 Y116.582 E4.37206
G1 X102.892 Y116.912 E4.45387
G1 X101.982 Y117.042 E4.50252
G1 X100.442 Y117.152 E4.58424
G1 X99.542 Y117.152 E4.63188
G1 X98.002 Y117.042 E4.71360
G1 X97.082 Y116.912 E4.76278
G1 X95.582 Y116.582 E4.84407
G1 X94.732 Y116.332 E4.89097
G1 X93.282 Y115.792 E4.97286
G1 X92.442 Y115.412 E5.02166
G1 X91.092 Y114.672 E5.10315
G1 X90.362 Y114.202 E5.14910
G1 X89.122 Y113.282 E5.23083
G1 X88.412 Y112.672 E5.28037
G1 X87.322 Y111.582 E5.36196
G1 X86.732 Y110.902 E5.40961
G1 X85.802 Y109.662 E5.49165
G1 X85.312 Y108.902 E5.53952
G1 X84.572 Y107.552 E5.62100
G1 X84.182 Y106.672 E5.67195
G1 X83.652 Y105.222 E5.75366
G1 X83.412 Y104.402 E5.79889
G1 X83.082 Y102.892 E5.88070
G1 X82.952 Y101.982 E5.92935
G1 X82.842 Y100.442 E6.01107
G1 X82.842 Y99.542 E6.05871
G1 X82.952 Y98.002 E6.14043
G1 X83.082 Y97.082 E6.18961
G1 X83.412 Y95.582 E6.27090
G1 X83.652 Y94.772 E6.31561
G1 X84.182 Y93.322 E6.39733
G1 X84.572 Y92.442 E6.44827
G1 X85.312 Y91.092 E6.52976
G1 X85.802 Y90.332 E6.57762
G1 X86.732 Y89.092 E6.65966
G1 X87.286 Y88.454 E6.70440
G1 X87.582 Y88.672 F9000.000
G1 X88.672 Y87.582 F1800.000 E6.78599
G1 X89.312 Y87.022 E6.83100
G1 X90.552 Y86.092 E6.91304
G1 X91.272 Y85.632 E6.95826
G1 X92.622 Y84.892 E7.03975
G1 X93.442 Y84.512 E7.08759
G1 X94.892 Y83.982 E7.16930
G1 X95.662 Y83.762 E7.21169
G1 X97.162 Y83.432 E7.29298
G1 X98.022 Y83.312 E7.33894
G1 X99.562 Y83.202 E7.42066
G1 X100.422 Y83.202 E7.46618
G1 X101.962 Y83.312 E7.54790
G1 X102.812 Y83.432 E7.59333
G1 X104.322 Y83.762 E7.67514
G1 X105.102 Y83.982 E7.71804
G1 X106.552 Y84.512 E7.79975
G1 X107.372 Y84.892 E7.84759
G1 X108.722 Y85.632 E7.92908
G1 X109.442 Y86.092 E7.97430
G1 X110.682 Y87.022 E8.05634
G1 X111.322 Y87.582 E8.10135
G1 X112.412 Y88.672 E8.18294
G1 X112.992 Y89.332 E8.22945
G1 X113.912 Y90.572 E8.31117
G1 X114.352 Y91.272 E8.35493
G1 X115.092 Y92.622 E8.43642
G1 X115.452 Y93.412 E8.48237
G1 X115.992 Y94.862 E8.56427
G1 X116.232 Y95.662 E8.60848
G1 X116.562 Y97.162 E8.68977
G1 X116.682 Y98.022 E8.73573
G1 X116.792 Y99.562 E8.81745
G1 X116.792 Y100.422 E8.86297
G1 X116.682 Y101.962 E8.94469
G1 X116.562 Y102.812 E8.99013
G1 X116.232 Y104.322 E9.07194
G1 X115.992 Y105.132 E9.11665
G1 X115.452 Y106.582 E9.19855
G1 X115.092 Y107.372 E9.24450
G1 X114.352 Y108.722 E9.32598
G1 X113.912 Y109.422 E9.36975
G1 X112.992 Y110.662 E9.45147
G1 X112.412 Y111.322 E9.49798
G1 X111.322 Y112.412 E9.57957
G1 X110.662 Y112.992 E9.62607
G1 X109.422 Y113.912 E9.70780
G1 X108.722 Y114.352 E9.75156
G1 X107.372 Y115.092 E9.83305
G1 X106.582 Y115.452 E9.87900
G1 X105.132 Y115.992 E9.96089
G1 X104.322 Y116.232 E10.00561
G1 X102.812 Y116.562 E10.08742
G1 X101.962 Y116.682 E10.13286
G1 X100.422 Y116.792 E10.21458
G1 X99.562 Y116.792 E10.26009
G1 X98.022 Y116.682 E10.34181
G1 X97.162 Y116.562 E10.38777
G1 X95.662 Y116.232 E10.46907
G1 X94.862 Y115.992 E10.51328
G1 X93.412 Y115.452 E10.59517
G1 X92.622 Y115.092 E10.64112
G1 X91.272 Y114.352 E10.72261
G1 X90.572 Y113.912 E10.76637
G1 X89.332 Y112.992 E10.84810
G1 X88.672 Y112.412 E10.89460
G1 X87.582 Y111.322 E10.97619
G1 X87.022 Y110.682 E11.02120
G1 X86.092 Y109.442 E11.10325
G1 X85.632 Y108.722 E11.14847
G1 X84.892 Y107.372 E11.22995
G1 X84.512 Y106.552 E11.27779
G1 X83.982 Y105.102 E11.35950
G1 X83.762 Y104.322 E11.40240
G1 X83.432 Y102.812 E11.48421
G1 X83.312 Y101.962 E11.52965
G1 X83.202 Y100.422 E11.61137
G1 X83.202 Y99.562 E11.65689
G1 X83.312 Y98.022 E11.73860
G1 X83.432 Y97.162 E11.78457
G1 X83.762 Y95.662 E11.86586
G1 X83.982 Y94.892 E11.90824
G1 X84.512 Y93.442 E11.98996
G1 X84.892 Y92.622 E12.03780
G1 X85.632 Y91.272 E12.11928
G1 X86.092 Y90.552 E12.16450
G1 X87.022 Y89.312 E12.24654
G1 X87.546 Y88.713 E12.28864
G1 F1800.000 E11.28864
G92 E0
G1 X104.416 Y96.966 F9000.000
G1 F1800.000 E1.00000
G1 X107.484 Y96.966 F1800.000 E1.16236
G1 X107.484 Y103.034 E1.48351
G1 X104.416 Y103.034 E1.64587
G1 X104.416 Y97.021 E1.96411
G1 X104.056 Y96.606 F9000.000
G1 X107.844 Y96.606 F1800.000 E2.16464
G1 X107.844 Y103.394 E2.52397
G1 X104.056 Y103.394 E2.72451
G1 X104.056 Y96.661 E3.08091
G1 F1800.000 E2.08091
G92 E0
G1 X102.254 Y98.362 F9000.000
G1 F1800.000 E1.00000
G1 X102.650 Y99.139 F1800.000 E1.04614
G1 X102.786 Y100.000 E1.09227
G1 X102.650 Y100.861 E1.13841
G1 X102.254 Y101.638 E1.18455
G1 X101.638 Y102.254 E1.23068
G1 X100.861 Y102.650 E1.27682
G1 X100.000 Y102.786 E1.32296
G1 X99.139 Y102.650 E1.36910
G1 X98.362 Y102.254 E1.41523
G1 X97.746 Y101.638 E1.46137
G1 X97.350 Y100.861 E1.50751
G1 X97.214 Y100.000 E1.55364
G1 X97.350 Y99.139 E1.59978
G1 X97.746 Y98.362 E1.64592
G1 X98.362 Y97.746 E1.69205
G1 X99.139 Y97.350 E1.73819
G1 X100.000 Y97.214 E1.78433
G1 X100.861 Y97.350 E1.83046
G1 X101.638 Y97.746 E1.87660
G1 X102.215 Y98.323 E1.91982
G1 X102.549 Y98.148 F9000.000
G1 X102.997 Y99.026 F1800.000 E1.97200
G1 X103.151 Y100.000 E2.02419
G1 X102.997 Y100.974 E2.07637
G1 X102.549 Y101.852 E2.12855
G1 X101.852 Y102.549 E2.18074
G1 X100.974 Y102.997 E2.23292
G1 X100.000 Y103.151 E2.28510
G1 X99.026 Y102.997 E2.33729
G1 X98.148 Y102.549 E2.38947
G1 X97.451 Y101.852 E2.44165
G1 X97.003 Y100.974 E2.49384
G1 X96.849 Y100.000 E2.54602
G1 X97.003 Y99.026 E2.59820
G1 X97.451 Y98.148 E2.65039
G1 X98.148 Y97.451 E2.70257
G1 X99.026 Y97.003 E2.75475
G1 X100.000 Y96.849 E2.80694
G1 X100.974 Y97.003 E2.85912
G1 X101.852 Y97.451 E2.91130
G1 X102.510 Y98.109 E2.96057
G1 F1800.000 E1.96057
G92 E0
G1 X107.901 Y93.154 F9000.000
G1 F1800.000 E1.00000
G1 X108.795 Y94.348 F1800.000 E1.07895
G1 X109.510 Y95.657 E1.15790
G1 X110.031 Y97.055 E1.23685
G1 X110.348 Y98.512 E1.31580
G1 X110.454 Y100.000 E1.39475
G1 X110.348 Y101.488 E1.47370
G1 X110.031 Y102.945 E1.55265
G1 X109.510 Y104.343 E1.63159
G1 X108.795 Y105.652 E1.71054
G1 X107.901 Y106.846 E1.78949
G1 X106.846 Y107.901 E1.86844
G1 X105.652 Y108.795 E1.94739
G1 X104.343 Y109.510 E2.02634
G1 X102.945 Y110.031 E2.10529
G1 X101.488 Y110.348 E2.18424
G1 X100.000 Y110.454 E2.26319
G1 X98.512 Y110.348 E2.34214
G1 X97.055 Y110.031 E2.42109
G1 X95.657 Y109.510 E2.50004
G1 X94.348 Y108.795 E2.57899
G1 X93.154 Y107.901 E2.65794
G1 X92.099 Y106.846 E2.73689
G1 X91.205 Y105.652 E2.81584
G1 X90.490 Y104.343 E2.89479
G1 X89.969 Y102.945 E2.97373
G1 X89.652 Y101.488 E3.05268
G1 X89.546 Y100.000 E3.13163
G1 X89.652 Y98.512 E3.21058
G1 X89.969 Y97.055 E3.28953
G1 X90.490 Y95.657 E3.36848
G1 X91.205 Y94.348 E3.44743
G1 X92.099 Y93.154 E3.52638
G1 X93.154 Y92.099 E3.60533
G1 X94.348 Y91.205 E3.68428
G1 X95.657 Y90.490 E3.76323
G1 X97.055 Y89.969 E3.84218
G1 X98.512 Y89.652 E3.92113
G1 X100.000 Y89.546 E4.00008
G1 X101.488 Y89.652 E4.07903
G1 X102.945 Y89.969 E4.15798
G1 X104.343 Y90.490 E4.23692
G1 X105.652 Y91.205 E4.31587
G1 X106.846 Y92.099 E4.39482
G1 X107.862 Y93.115 E4.47085
G1 X108.174 Y92.917 F9000.000
G1 X109.099 Y94.153 F1800.000 E4.55253
G1 X109.838 Y95.507 E4.63422
G1 X110.378 Y96.953 E4.71589
G1 X110.706 Y98.461 E4.79757
G1 X110.816 Y100.000 E4.87925
G1 X110.706 Y101.539 E4.96093
G1 X110.378 Y103.047 E5.04261
G1 X109.838 Y104.493 E5.12429
G1 X109.099 Y105.847 E5.20597
G1 X108.174 Y107.083 E5.28765
G1 X107.083 Y108.174 E5.36933
G1 X105.847 Y109.099 E5.45101
G1 X104.493 Y109.838 E5.53269
G1 X103.047 Y110.378 E5.61437
G1 X101.539 Y110.706 E5.69605
G1 X100.000 Y110.816 E5.77773
G1 X98.461 Y110.706 E5.85941
G1 X96.953 Y110.378 E5.94109
G1 X95.507 Y109.838 E6.02277
G1 X94.153 Y109.099 E6.10445
G1 X92.917 Y108.174 E6.18613
G1 X91.826 Y107.083 E6.26781
G1 X90.901 Y105.847 E6.34949
G1 X90.162 Y104.493 E6.43117
G1 X89.622 Y103.047 E6.51285
G1 X89.294 Y101.539 E6.59453
G1 X89.184 Y100.000 E6.67621
G1 X89.294 Y98.461 E6.75789
G1 X89.622 Y96.953 E6.83957
G1 X90.162 Y95.507 E6.92125
G1 X90.901 Y94.153 E7.00293
G1 X91.826 Y92.917 E7.08461
G1 X92.917 Y91.826 E7.16629
G1 X94.153 Y90.901 E7.24797
G1 X95.507 Y90.162 E7.32965
G1 X96.953 Y89.622 E7.41132
G1 X98.461 Y89.294 E7.49300
G1 X100.000 Y89.184 E7.57468
G1 X101.539 Y89.294 E7.65636
G1 X103.047 Y89.622 E7.73804
G1 X104.493 Y90.162 E7.81972
G1 X105.847 Y90.901 E7.90140
G1 X107.083 Y91.826 E7.98308
G1 X108.135 Y92.878 E8.06185
G1 F1800.000 E7.06185
G92 E0
G1 X105.568 Y91.567 F9000.000
G1 F1800.000 E1.00000
G1 X108.433 Y94.432 F3600.000 E1.22010
G1 X109.153 Y95.671 E1.29790
G1 X104.329 Y90.847 E1.66842
G1 X103.436 Y90.472 E1.72104
G1 X109.528 Y96.564 E2.18897
G1 X109.811 Y97.365 E2.23510
G1 X102.635 Y90.189 E2.78626
G1 X101.972 Y90.045 F9000.000
G1 X108.276 Y96.349 F3600.000 E3.27044
G1 X108.101 Y96.174 F9000.000
G1 X109.955 Y98.028 F3600.000 E3.41282
G1 X110.095 Y98.687 E3.44942
G1 X108.101 Y96.693 E3.60260
G1 X108.101 Y97.211 E3.63076
G1 X110.135 Y99.245 E3.78701
G1 X110.175 Y99.804 E3.81742
G1 X108.101 Y97.730 E3.97673
G1 X108.101 Y98.248 E4.00490
G1 X110.181 Y100.328 E4.16463
G1 X110.146 Y100.812 E4.19098
G1 X108.101 Y98.767 E4.34805
G1 X108.101 Y99.285 E4.37622
G1 X110.111 Y101.296 E4.53063
G1 X110.048 Y101.751 E4.55559
G1 X108.101 Y99.804 E4.70514
G1 X108.101 Y100.323 E4.73330
G1 X109.955 Y102.177 E4.87574
G1 X109.863 Y102.603 E4.89941
G1 X108.101 Y100.841 E5.03472
G1 X108.101 Y101.360 E5.06289
G1 X109.761 Y103.020 E5.19038
G1 X109.620 Y103.397 E5.21227
G1 X108.101 Y101.878 E5.32895
G1 X108.101 Y102.397 E5.35711
G1 X109.479 Y103.775 E5.46296
G1 X109.338 Y104.153 E5.48486
G1 X108.101 Y102.915 E5.57989
G1 X108.101 Y103.434 E5.60806
G1 X109.171 Y104.504 E5.69026
G1 X108.988 Y104.840 E5.71101
G1 X107.800 Y103.651 E5.80231
G1 X107.281 Y103.651 E5.83047
G1 X108.805 Y105.175 E5.94753
G1 X108.622 Y105.510 E5.96829
G1 X106.762 Y103.651 E6.11110
G1 X106.244 Y103.651 E6.13927
G1 X108.406 Y105.813 E6.30531
G1 X108.184 Y106.109 E6.32543
G1 X105.725 Y103.651 E6.51425
G1 X105.207 Y103.651 E6.54242
G1 X107.962 Y106.406 E6.75402
G1 X107.740 Y106.702 E6.77414
G1 X104.688 Y103.651 E7.00852
G1 X104.170 Y103.651 E7.03668
G1 X107.482 Y106.963 E7.29108
G1 X107.222 Y107.222 E7.31099
G1 X103.651 Y103.651 E7.58531
G1 X103.799 Y103.799 F9000.000
G1 X102.352 Y102.352 F3600.000 E7.69646
G1 X102.093 Y102.611 E7.71638
G1 X106.963 Y107.482 E8.09048
G1 X106.702 Y107.740 E8.11040
G1 X101.791 Y102.828 E8.48763
G1 X101.448 Y103.003 E8.50857
G1 X106.406 Y107.962 E8.88942
G1 X106.109 Y108.184 E8.90954
G1 X101.104 Y103.178 E9.29399
G1 X100.693 Y103.286 E9.31706
G1 X105.813 Y108.406 E9.71029
G1 X105.510 Y108.622 E9.73047
G1 X100.246 Y103.357 E10.13486
G1 X99.761 Y103.391 E10.16125
G1 X105.175 Y108.805 E10.57710
G1 X104.840 Y108.988 E10.59785
G1 X99.145 Y103.293 E11.03527
G1 X98.328 Y102.995 E11.08252
G1 X104.504 Y109.171 E11.55693
G1 X104.153 Y109.338 E11.57807
G1 X90.662 Y95.847 E12.61431
G1 X90.521 Y96.225 E12.63620
G1 X103.775 Y109.479 E13.65425
G1 X103.397 Y109.620 E13.67614
G1 X90.380 Y96.603 E14.67600
G1 X90.239 Y96.980 E14.69789
G1 X103.020 Y109.761 E15.67955
G1 X102.603 Y109.863 E15.70285
G1 X90.137 Y97.397 E16.66033
G1 X90.045 Y97.823 E16.68400
G1 X102.177 Y109.955 E17.61588
G1 X101.751 Y110.048 E17.63956
G1 X89.952 Y98.249 E18.54584
G1 X89.889 Y98.704 E18.57080
G1 X101.296 Y110.111 E19.44698
G1 X100.812 Y110.146 E19.47334
G1 X89.854 Y99.188 E20.31501
G1 X89.819 Y99.672 E20.34136
G1 X100.328 Y110.181 E21.14852
G1 X99.804 Y110.175 E21.17698
G1 X89.825 Y100.196 E21.94347
G1 X89.865 Y100.755 E21.97388
G1 X99.245 Y110.135 E22.69441
G1 X98.687 Y110.095 E22.72482
G1 X89.905 Y101.313 E23.39937
G1 X90.045 Y101.972 E23.43598
G1 X98.028 Y109.955 E24.04911
G1 X97.365 Y109.811 E24.08595
G1 X90.189 Y102.635 E24.63710
G1 X90.472 Y103.436 E24.68323
G1 X96.564 Y109.528 E25.15117
G1 X95.671 Y109.153 E25.20379
G1 X90.847 Y104.329 E25.57430
G1 X91.567 Y105.568 E25.65210
G1 X94.432 Y108.433 E25.87220
G1 F1800.000 E24.87220
G92 E0
G1 X97.005 Y101.672 F9000.000
G1 F1800.000 E1.00000
G1 X90.829 Y95.496 F3600.000 E1.47442
G1 X91.012 Y95.160 F9000.000
G1 X96.707 Y100.855 F3600.000 E1.91183
G1 X96.609 Y100.239 F9000.000
G1 X91.195 Y94.825 F3600.000 E2.32768
G1 X91.378 Y94.490 F9000.000
G1 X96.643 Y99.754 F3600.000 E2.73207
G1 X96.714 Y99.307 F9000.000
G1 X91.594 Y94.187 F3600.000 E3.12530
G1 X91.816 Y93.891 F9000.000
G1 X96.822 Y98.896 F3600.000 E3.50975
G1 X96.997 Y98.552 F9000.000
G1 X92.038 Y93.594 F3600.000 E3.89059
G1 X92.260 Y93.298 F9000.000
G1 X97.172 Y98.209 F3600.000 E4.26783
G1 X97.389 Y97.907 F9000.000
G1 X92.518 Y93.037 F3600.000 E4.64193
G1 X92.778 Y92.778 F9000.000
G1 X97.648 Y97.648 F3600.000 E5.01604
G1 X97.907 Y97.389 F9000.000
G1 X93.037 Y92.518 F3600.000 E5.39015
G1 X93.298 Y92.260 F9000.000
G1 X98.209 Y97.172 F3600.000 E5.76738
G1 X98.552 Y96.997 F9000.000
G1 X93.594 Y92.038 F3600.000 E6.14823
G1 X93.891 Y91.816 F9000.000
G1 X98.896 Y96.822 F3600.000 E6.53268
G1 X99.307 Y96.714 F9000.000
G1 X94.187 Y91.594 F3600.000 E6.92591
G1 X94.490 Y91.378 F9000.000
G1 X99.754 Y96.643 F3600.000 E7.33030
G1 X100.239 Y96.609 F9000.000
G1 X94.825 Y91.195 F3600.000 E7.74614
G1 X95.160 Y91.012 F9000.000
G1 X100.855 Y96.707 F3600.000 E8.18356
G1 X101.672 Y97.005 F9000.000
G1 X95.496 Y90.829 F3600.000 E8.65797
G1 X95.847 Y90.662 F9000.000
G1 X103.799 Y98.613 F3600.000 E9.26874
G1 X103.799 Y98.095 F9000.000
G1 X96.225 Y90.521 F3600.000 E9.85049
G1 X96.603 Y90.380 F9000.000
G1 X103.799 Y97.576 F3600.000 E10.40323
G1 X103.799 Y97.058 F9000.000
G1 X96.980 Y90.239 F3600.000 E10.92696
G1 X97.397 Y90.137 F9000.000
G1 X103.799 Y96.539 F3600.000 E11.41868
G1 X104.127 Y96.349 F9000.000
G1 X97.823 Y90.045 F3600.000 E11.90291
G1 X98.249 Y89.952 F9000.000
