; generated by Slic3r 0.7.1 on 2012-05-10 at 17:13:26

; layer_height = .35
; perimeters = 2
; solid_layers = 2
; fill_density = .42
; nozzle_diameter = .35
; filament_diameter = 1.75
; extrusion_multiplier = 1
; perimeter_speed = 30
; infill_speed = 60
; travel_speed = 150
; extrusion_width_ratio = 0
; scale = 1
; single wall width = 0.37mm

M190 S80 ; set bed temperature
M104 S185 ; set temperature

M109 S185 ; wait for temperature to be reached
G90 ; use absolute coordinates
G21 ; set units to millimeters
G92 E0 ; reset extrusion distance
M82 ; use absolute distances for extrusion
G1 Z0.350 F9000.000
G1 X88.430 Y88.680
G1 F1800.000 E1.00000
G1 X88.930 Y88.200 F1800.000 E1.03669
G1 X91.500 Y86.250 E1.20744
G1 X91.770 Y86.070 E1.22462
G1 X92.050 Y85.910 E1.24168
G1 X92.630 Y85.630 E1.27577
G1 X95.310 Y84.520 E1.42931
G1 X95.630 Y84.410 E1.44722
G1 X96.300 Y84.250 E1.48368
G1 X99.510 Y83.840 E1.65496
G1 X99.840 Y83.820 E1.67246
G1 X100.170 Y83.820 E1.68993
G1 X100.820 Y83.870 E1.72444
G1 X103.700 Y84.260 E1.87826
G1 X104.360 Y84.410 E1.91409
G1 X107.360 Y85.630 E2.08551
G1 X107.940 Y85.910 E2.11960
G1 X108.220 Y86.070 E2.13666
G1 X111.060 Y88.200 E2.32456
G1 X111.560 Y88.680 E2.36125
G1 X111.790 Y88.930 E2.37923
G1 X113.740 Y91.500 E2.54998
G1 X113.920 Y91.770 E2.56716
G1 X114.080 Y92.050 E2.58423
G1 X114.360 Y92.630 E2.61832
G1 X115.470 Y95.310 E2.77186
G1 X115.580 Y95.630 E2.78977
G1 X115.740 Y96.300 E2.82623
G1 X116.150 Y99.510 E2.99751
G1 X116.170 Y99.840 E3.01501
G1 X116.170 Y100.170 E3.03248
G1 X116.120 Y100.820 E3.06698
G1 X115.730 Y103.700 E3.22081
G1 X115.580 Y104.360 E3.25663
G1 X114.360 Y107.360 E3.42805
G1 X114.080 Y107.940 E3.46214
G1 X113.920 Y108.220 E3.47921
G1 X111.790 Y111.060 E3.66711
G1 X111.310 Y111.560 E3.70380
G1 X111.060 Y111.790 E3.72178
G1 X108.490 Y113.740 E3.89253
G1 X108.220 Y113.920 E3.90971
G1 X107.940 Y114.080 E3.92677
G1 X107.360 Y114.360 E3.96086
G1 X104.680 Y115.470 E4.11440
G1 X104.360 Y115.580 E4.13231
G1 X103.360 Y115.790 E4.18639
G1 X100.490 Y116.150 E4.33949
G1 X100.170 Y116.170 E4.35646
G1 X99.840 Y116.170 E4.37393
G1 X99.180 Y116.120 E4.40896
G1 X96.300 Y115.740 E4.56272
G1 X95.630 Y115.580 E4.59918
G1 X92.630 Y114.360 E4.77060
G1 X92.050 Y114.080 E4.80469
G1 X91.770 Y113.920 E4.82176
G1 X88.930 Y111.790 E5.00966
G1 X88.430 Y111.310 E5.04634
G1 X88.200 Y111.060 E5.06432
G1 X86.250 Y108.490 E5.23508
G1 X86.070 Y108.220 E5.25225
G1 X85.910 Y107.940 E5.26932
G1 X85.630 Y107.360 E5.30341
G1 X84.520 Y104.680 E5.45695
G1 X84.410 Y104.360 E5.47486
G1 X84.200 Y103.360 E5.52894
G1 X83.840 Y100.490 E5.68204
G1 X83.820 Y100.170 E5.69901
G1 X83.820 Y99.840 E5.71648
G1 X83.870 Y99.180 E5.75151
G1 X84.250 Y96.300 E5.90527
G1 X84.410 Y95.630 E5.94173
G1 X85.630 Y92.630 E6.11315
G1 X85.910 Y92.050 E6.14724
G1 X86.070 Y91.770 E6.16431
G1 X88.200 Y88.930 E6.35221
G1 X88.393 Y88.721 E6.36727
G1 X88.690 Y88.920 F9000.000
G1 X88.920 Y88.690 F1800.000 E6.38448
G1 X91.460 Y86.720 E6.55462
G1 X91.960 Y86.380 E6.58663
G1 X92.490 Y86.090 E6.61860
G1 X95.430 Y84.860 E6.78729
G1 X95.740 Y84.760 E6.80453
G1 X96.360 Y84.610 E6.83829
G1 X99.540 Y84.200 E7.00800
G1 X99.850 Y84.180 E7.02444
G1 X100.160 Y84.180 E7.04085
G1 X103.630 Y84.610 E7.22592
G1 X104.260 Y84.760 E7.26020
G1 X104.560 Y84.860 E7.27694
G1 X107.500 Y86.090 E7.44562
G1 X108.030 Y86.380 E7.47760
G1 X108.530 Y86.720 E7.50960
G1 X111.070 Y88.690 E7.67974
G1 X111.300 Y88.920 E7.69695
G1 X113.270 Y91.460 E7.86709
G1 X113.610 Y91.960 E7.89910
G1 X113.900 Y92.490 E7.93107
G1 X115.130 Y95.430 E8.09976
G1 X115.230 Y95.740 E8.11700
G1 X115.380 Y96.360 E8.15076
G1 X115.790 Y99.540 E8.32047
G1 X115.810 Y99.850 E8.33691
G1 X115.810 Y100.160 E8.35332
G1 X115.380 Y103.630 E8.53839
G1 X115.230 Y104.260 E8.57267
G1 X115.130 Y104.560 E8.58941
G1 X113.900 Y107.500 E8.75809
G1 X113.610 Y108.030 E8.79007
G1 X113.270 Y108.530 E8.82207
G1 X111.300 Y111.070 E8.99221
G1 X111.070 Y111.300 E9.00942
G1 X108.530 Y113.270 E9.17956
G1 X108.030 Y113.610 E9.21157
G1 X107.500 Y113.900 E9.24354
G1 X104.560 Y115.130 E9.41223
G1 X104.260 Y115.230 E9.42896
G1 X103.630 Y115.380 E9.46324
G1 X100.470 Y115.790 E9.63190
G1 X100.160 Y115.810 E9.64834
G1 X99.850 Y115.810 E9.66475
G1 X96.360 Y115.380 E9.85087
G1 X95.740 Y115.230 E9.88464
G1 X95.430 Y115.130 E9.90188
G1 X92.490 Y113.900 E10.07056
G1 X91.960 Y113.610 E10.10254
G1 X91.460 Y113.270 E10.13454
G1 X88.920 Y111.300 E10.30468
G1 X88.690 Y111.070 E10.32190
G1 X86.720 Y108.530 E10.49203
G1 X86.380 Y108.030 E10.52404
G1 X86.090 Y107.500 E10.55601
G1 X84.860 Y104.560 E10.72470
G1 X84.760 Y104.260 E10.74144
G1 X84.610 Y103.630 E10.77571
G1 X84.200 Y100.470 E10.94437
G1 X84.180 Y100.160 E10.96081
G1 X84.180 Y99.850 E10.97722
G1 X84.610 Y96.360 E11.16334
G1 X84.760 Y95.740 E11.19711
G1 X84.860 Y95.430 E11.21435
G1 X86.090 Y92.490 E11.38303
G1 X86.380 Y91.960 E11.41501
G1 X86.720 Y91.460 E11.44701
G1 X88.655 Y88.962 E11.61423
G1 F1800.000 E10.61423
G92 E0
G1 X93.505 Y93.505 F9000.000
G1 F1800.000 E1.00000
G1 X95.407 Y92.045 F1800.000 E1.12692
G1 X97.623 Y91.128 E1.25383
G1 X100.000 Y90.815 E1.38075
G1 X102.377 Y91.128 E1.50767
G1 X104.593 Y92.045 E1.63459
G1 X106.495 Y93.505 E1.76150
G1 X107.955 Y95.407 E1.88842
G1 X108.872 Y97.623 E2.01534
G1 X109.185 Y100.000 E2.14226
G1 X108.872 Y102.377 E2.26917
G1 X107.955 Y104.593 E2.39609
G1 X106.495 Y106.495 E2.52301
G1 X104.593 Y107.955 E2.64993
G1 X102.377 Y108.872 E2.77684
G1 X100.000 Y109.185 E2.90376
G1 X97.623 Y108.872 E3.03068
G1 X95.407 Y107.955 E3.15760
G1 X93.505 Y106.495 E3.28451
G1 X92.045 Y104.593 E3.41143
G1 X91.128 Y102.377 E3.53835
G1 X90.815 Y100.000 E3.66527
G1 X91.128 Y97.623 E3.79218
G1 X92.045 Y95.407 E3.91910
G1 X93.471 Y93.549 E4.04310
G1 X93.060 Y93.060 F9000.000
G1 X95.093 Y91.500 F1800.000 E4.17871
G1 X97.460 Y90.520 E4.31433
G1 X100.000 Y90.185 E4.44994
G1 X102.540 Y90.520 E4.58555
G1 X104.907 Y91.500 E4.72116
G1 X106.940 Y93.060 E4.85678
G1 X108.500 Y95.093 E4.99239
G1 X109.480 Y97.460 E5.12800
G1 X109.815 Y100.000 E5.26362
G1 X109.480 Y102.540 E5.39923
G1 X108.500 Y104.907 E5.53484
G1 X106.940 Y106.940 E5.67046
G1 X104.907 Y108.500 E5.80607
G1 X102.540 Y109.480 E5.94168
G1 X100.000 Y109.815 E6.07730
G1 X97.460 Y109.480 E6.21291
G1 X95.093 Y108.500 E6.34852
G1 X93.060 Y106.940 E6.48413
G1 X91.500 Y104.907 E6.61975
G1 X90.520 Y102.540 E6.75536
G1 X90.185 Y100.000 E6.89097
G1 X90.520 Y97.460 E7.02659
G1 X91.500 Y95.093 E7.16220
G1 X93.026 Y93.104 E7.29490
G1 F1800.000 E6.29490
G92 E0
G1 Z0.700 F9000.000
G1 X93.505 Y93.505
G1 F1800.000 E1.00000
G1 X95.407 Y92.045 F1800.000 E1.12692
G1 X97.623 Y91.128 E1.25383
G1 X100.000 Y90.815 E1.38075
G1 X102.377 Y91.128 E1.50767
G1 X104.593 Y92.045 E1.63459
G1 X106.495 Y93.505 E1.76150
G1 X107.955 Y95.407 E1.88842
G1 X108.872 Y97.623 E2.01534
G1 X109.185 Y100.000 E2.14226
G1 X108.872 Y102.377 E2.26917
G1 X107.955 Y104.593 E2.39609
G1 X106.495 Y106.495 E2.52301
G1 X104.593 Y107.955 E2.64993
G1 X102.377 Y108.872 E2.77684
G1 X100.000 Y109.185 E2.90376
G1 X97.623 Y108.872 E3.03068
G1 X95.407 Y107.955 E3.15760
G1 X93.505 Y106.495 E3.28451
G1 X92.045 Y104.593 E3.41143
G1 X91.128 Y102.377 E3.53835
G1 X90.815 Y100.000 E3.66527
G1 X91.128 Y97.623 E3.79218
G1 X92.045 Y95.407 E3.91910
G1 X93.471 Y93.549 E4.04310
G1 X93.060 Y93.060 F9000.000
G1 X95.093 Y91.500 F1800.000 E4.17871
G1 X97.460 Y90.520 E4.31433
G1 X100.000 Y90.185 E4.44994
G1 X102.540 Y90.520 E4.58555
G1 X104.907 Y91.500 E4.72116
G1 X106.940 Y93.060 E4.85678
G1 X108.500 Y95.093 E4.99239
G1 X109.480 Y97.460 E5.12800
G1 X109.815 Y100.000 E5.26362
G1 X109.480 Y102.540 E5.39923
G1 X108.500 Y104.907 E5.53484
G1 X106.940 Y106.940 E5.67046
G1 X104.907 Y108.500 E5.80607
G1 X102.540 Y109.480 E5.94168
G1 X100.000 Y109.815 E6.07730
G1 X97.460 Y109.480 E6.21291
G1 X95.093 Y108.500 E6.34852
G1 X93.060 Y106.940 E6.48413
G1 X91.500 Y104.907 E6.61975
G1 X90.520 Y102.540 E6.75536
G1 X90.185 Y100.000 E6.89097
G1 X90.520 Y97.460 E7.02659
G1 X91.500 Y95.093 E7.16220
G1 X93.026 Y93.104 E7.29490
G1 F1800.000 E6.29490
G92 E0
G1 Z1.050 F9000.000
G1 X93.505 Y93.505
G1 F1800.000 E1.00000
G1 X95.407 Y92.045 F1800.000 E1.12692
G1 X97.623 Y91.128 E1.25383
G1 X100.000 Y90.815 E1.38075
G1 X102.377 Y91.128 E1.50767
G1 X104.593 Y92.045 E1.63459
G1 X106.495 Y93.505 E1.76150
G1 X107.955 Y95.407 E1.88842
G1 X108.872 Y97.623 E2.01534
G1 X109.185 Y100.000 E2.14226
G1 X108.872 Y102.377 E2.26917
G1 X107.955 Y104.593 E2.39609
G1 X106.495 Y106.495 E2.52301
G1 X104.593 Y107.955 E2.64993
G1 X102.377 Y108.872 E2.77684
G1 X100.000 Y109.185 E2.90376
G1 X97.623 Y108.872 E3.03068
G1 X95.407 Y107.955 E3.15760
G1 X93.505 Y106.495 E3.28451
G1 X92.045 Y104.593 E3.41143
G1 X91.128 Y102.377 E3.53835
G1 X90.815 Y100.000 E3.66527
G1 X91.128 Y97.623 E3.79218
G1 X92.045 Y95.407 E3.91910
G1 X93.471 Y93.549 E4.04310
G1 X93.060 Y93.060 F9000.000
G1 X95.093 Y91.500 F1800.000 E4.17871
G1 X97.460 Y90.520 E4.31433
G1 X100.000 Y90.185 E4.44994
G1 X102.540 Y90.520 E4.58555
G1 X104.907 Y91.500 E4.72116
G1 X106.940 Y93.060 E4.85678
G1 X108.500 Y95.093 E4.99239
G1 X109.480 Y97.460 E5.12800
G1 X109.815 Y100.000 E5.26362
G1 X109.480 Y102.540 E5.39923
G1 X108.500 Y104.907 E5.53484
G1 X106.940 Y106.940 E5.67046
G1 X104.907 Y108.500 E5.80607
G1 X102.540 Y109.480 E5.94168
G1 X100.000 Y109.815 E6.07730
G1 X97.460 Y109.480 E6.21291
G1 X95.093 Y108.500 E6.34852
G1 X93.060 Y106.940 E6.48413
G1 X91.500 Y104.907 E6.61975
G1 X90.520 Y102.540 E6.75536
G1 X90.185 Y100.000 E6.89097
G1 X90.520 Y97.460 E7.02659
G1 X91.500 Y95.093 E7.16220
G1 X93.026 Y93.104 E7.29490
G1 F1800.000 E6.29490
G92 E0
G1 Z1.400 F9000.000
G1 X93.505 Y93.505
G1 F1800.000 E1.00000
G1 X95.407 Y92.045 F1800.000 E1.12692
G1 X97.623 Y91.128 E1.25383
G1 X100.000 Y90.815 E1.38075
G1 X102.377 Y91.128 E1.50767
G1 X104.593 Y92.045 E1.63459
G1 X106.495 Y93.505 E1.76150
G1 X107.955 Y95.407 E1.88842
G1 X108.872 Y97.623 E2.01534
G1 X109.185 Y100.000 E2.14226
G1 X108.872 Y102.377 E2.26917
G1 X107.955 Y104.593 E2.39609
G1 X106.495 Y106.495 E2.52301
G1 X104.593 Y107.955 E2.64993
G1 X102.377 Y108.872 E2.77684
G1 X100.000 Y109.185 E2.90376
G1 X97.623 Y108.872 E3.03068
G1 X95.407 Y107.955 E3.15760
G1 X93.505 Y106.495 E3.28451
G1 X92.045 Y104.593 E3.41143
G1 X91.128 Y102.377 E3.53835
G1 X90.815 Y100.000 E3.66527
G1 X91.128 Y97.623 E3.79218
G1 X92.045 Y95.407 E3.91910
G1 X93.471 Y93.549 E4.04310
G1 X93.060 Y93.060 F9000.000
G1 X95.093 Y91.500 F1800.000 E4.17871
G1 X97.460 Y90.520 E4.31433
G1 X100.000 Y90.185 E4.44994
G1 X102.540 Y90.520 E4.58555
G1 X104.907 Y91.500 E4.72116
G1 X106.940 Y93.060 E4.85678
G1 X108.500 Y95.093 E4.99239
G1 X109.480 Y97.460 E5.12800
G1 X109.815 Y100.000 E5.26362
G1 X109.480 Y102.540 E5.39923
G1 X108.500 Y104.907 E5.53484
G1 X106.940 Y106.940 E5.67046
G1 X104.907 Y108.500 E5.80607
G1 X102.540 Y109.480 E5.94168
G1 X100.000 Y109.815 E6.07730
G1 X97.460 Y109.480 E6.21291
G1 X95.093 Y108.500 E6.34852
G1 X93.060 Y106.940 E6.48413
G1 X91.500 Y104.907 E6.61975
G1 X90.520 Y102.540 E6.75536
G1 X90.185 Y100.000 E6.89097
G1 X90.520 Y97.460 E7.02659
G1 X91.500 Y95.093 E7.16220
G1 X93.026 Y93.104 E7.29490
G1 F1800.000 E6.29490
G92 E0
G1 Z1.750 F9000.000
G1 X93.505 Y93.505
G1 F1800.000 E1.00000
G1 X95.407 Y92.045 F1800.000 E1.12692
G1 X97.623 Y91.128 E1.25383
G1 X100.000 Y90.815 E1.38075
G1 X102.377 Y91.128 E1.50767
G1 X104.593 Y92.045 E1.63459
G1 X106.495 Y93.505 E1.76150
G1 X107.955 Y95.407 E1.88842
G1 X108.872 Y97.623 E2.01534
G1 X109.185 Y100.000 E2.14226
G1 X108.872 Y102.377 E2.26917
G1 X107.955 Y104.593 E2.39609
G1 X106.495 Y106.495 E2.52301
G1 X104.593 Y107.955 E2.64993
G1 X102.377 Y108.872 E2.77684
G1 X100.000 Y109.185 E2.90376
G1 X97.623 Y108.872 E3.03068
G1 X95.407 Y107.955 E3.15760
G1 X93.505 Y106.495 E3.28451
G1 X92.045 Y104.593 E3.41143
G1 X91.128 Y102.377 E3.53835
G1 X90.815 Y100.000 E3.66527
G1 X91.128 Y97.623 E3.79218
G1 X92.045 Y95.407 E3.91910
G1 X93.471 Y93.549 E4.04310
G1 X93.060 Y93.060 F9000.000
G1 X95.093 Y91.500 F1800.000 E4.17871
G1 X97.460 Y90.520 E4.31433
G1 X100.000 Y90.185 E4.44994
G1 X102.540 Y90.520 E4.58555
G1 X104.907 Y91.500 E4.72116
G1 X106.940 Y93.060 E4.85678
G1 X108.500 Y95.093 E4.99239
G1 X109.480 Y97.460 E5.12800
G1 X109.815 Y100.000 E5.26362
G1 X109.480 Y102.540 E5.39923
G1 X108.500 Y104.907 E5.53484
G1 X106.940 Y106.940 E5.67046
G1 X104.907 Y108.500 E5.80607
G1 X102.540 Y109.480 E5.94168
G1 X100.000 Y109.815 E6.07730
G1 X97.460 Y109.480 E6.21291
G1 X95.093 Y108.500 E6.34852
G1 X93.060 Y106.940 E6.48413
G1 X91.500 Y104.907 E6.61975
G1 X90.520 Y102.540 E6.75536
G1 X90.185 Y100.000 E6.89097
G1 X90.520 Y97.460 E7.02659
G1 X91.500 Y95.093 E7.16220
G1 X93.026 Y93.104 E7.29490
G1 F1800.000 E6.29490
G92 E0
G1 Z2.100 F9000.000
G1 X93.505 Y93.505
G1 F1800.000 E1.00000
G1 X95.407 Y92.045 F1800.000 E1.12692
G1 X97.623 Y91.128 E1.25383
G1 X100.000 Y90.815 E1.38075
G1 X102.377 Y91.128 E1.50767
G1 X104.593 Y92.045 E1.63459
G1 X106.495 Y93.505 E1.76150
G1 X107.955 Y95.407 E1.88842
G1 X108.872 Y97.623 E2.01534
G1 X109.185 Y100.000 E2.14226
G1 X108.872 Y102.377 E2.26917
G1 X107.955 Y104.593 E2.39609
G1 X106.495 Y106.495 E2.52301
G1 X104.593 Y107.955 E2.64993
G1 X102.377 Y108.872 E2.77684
G1 X100.000 Y109.185 E2.90376
G1 X97.623 Y108.872 E3.03068
G1 X95.407 Y107.955 E3.15760
G1 X93.505 Y106.495 E3.28451
G1 X92.045 Y104.593 E3.41143
G1 X91.128 Y102.377 E3.53835
G1 X90.815 Y100.000 E3.66527
G1 X91.128 Y97.623 E3.79218
G1 X92.045 Y95.407 E3.91910
G1 X93.471 Y93.549 E4.04310
G1 X93.060 Y93.060 F9000.000
G1 X95.093 Y91.500 F1800.000 E4.17871
G1 X97.460 Y90.520 E4.31433
G1 X100.000 Y90.185 E4.44994
G1 X102.540 Y90.520 E4.58555
G1 X104.907 Y91.500 E4.72116
G1 X106.940 Y93.060 E4.85678
G1 X108.500 Y95.093 E4.99239
G1 X109.480 Y97.460 E5.12800
G1 X109.815 Y100.000 E5.26362
G1 X109.480 Y102.540 E5.39923
G1 X108.500 Y104.907 E5.53484
G1 X106.940 Y106.940 E5.67046
G1 X104.907 Y108.500 E5.80607
G1 X102.540 Y109.480 E5.94168
G1 X100.000 Y109.815 E6.07730
G1 X97.460 Y109.480 E6.21291
G1 X95.093 Y108.500 E6.34852
G1 X93.060 Y106.940 E6.48413
G1 X91.500 Y104.907 E6.61975
G1 X90.520 Y102.540 E6.75536
G1 X90.185 Y100.000 E6.89097
G1 X90.520 Y97.460 E7.02659
G1 X91.500 Y95.093 E7.16220
G1 X93.026 Y93.104 E7.29490
G1 F1800.000 E6.29490
G92 E0
G1 Z2.450 F9000.000
G1 X93.505 Y93.505
G1 F1800.000 E1.00000
G1 X95.407 Y92.045 F1800.000 E1.12692
G1 X97.623 Y91.128 E1.25383
G1 X100.000 Y90.815 E1.38075
G1 X102.377 Y91.128 E1.50767
G1 X104.593 Y92.045 E1.63459
G1 X106.495 Y93.505 E1.76150
G1 X107.955 Y95.407 E1.88842
G1 X108.872 Y97.623 E2.01534
G1 X109.185 Y100.000 E2.14226
G1 X108.872 Y102.377 E2.26917
G1 X107.955 Y104.593 E2.39609
G1 X106.495 Y106.495 E2.52301
G1 X104.593 Y107.955 E2.64993
G1 X102.377 Y108.872 E2.77684
G1 X100.000 Y109.185 E2.90376
G1 X97.623 Y108.872 E3.03068
G1 X95.407 Y107.955 E3.15760
G1 X93.505 Y106.495 E3.28451
G1 X92.045 Y104.593 E3.41143
G1 X91.128 Y102.377 E3.53835
G1 X90.815 Y100.000 E3.66527
G1 X91.128 Y97.623 E3.79218
G1 X92.045 Y95.407 E3.91910
G1 X93.471 Y93.549 E4.04310
G1 X93.060 Y93.060 F9000.000
G1 X95.093 Y91.500 F1800.000 E4.17871
G1 X97.460 Y90.520 E4.31433
G1 X100.000 Y90.185 E4.44994
G1 X102.540 Y90.520 E4.58555
G1 X104.907 Y91.500 E4.72116
G1 X106.940 Y93.060 E4.85678
G1 X108.500 Y95.093 E4.99239
G1 X109.480 Y97.460 E5.12800
G1 X109.815 Y100.000 E5.26362
G1 X109.480 Y102.540 E5.39923
G1 X108.500 Y104.907 E5.53484
G1 X106.940 Y106.940 E5.67046
G1 X104.907 Y108.500 E5.80607
G1 X102.540 Y109.480 E5.94168
G1 X100.000 Y109.815 E6.07730
G1 X97.460 Y109.480 E6.21291
G1 X95.093 Y108.500 E6.34852
