; generated by Slic3r 0.7.1 on 2012-05-12 at 20:41:41

; layer_height = .35
; perimeters = 2
; solid_layers = 2
; fill_density = .42
; nozzle_diameter = .35
; filament_diameter = 1.75
; extrusion_multiplier = 1
; perimeter_speed = 30
; infill_speed = 60
; travel_speed = 150
; extrusion_width_ratio = 0
; scale = 1
; single wall width = 0.37mm

M190 S80 ; set bed temperature
M104 S185 ; set temperature

M109 S185 ; wait for temperature to be reached
G90 ; use absolute coordinates
G21 ; set units to millimeters
G92 E0 ; reset extrusion distance
M82 ; use absolute distances for extrusion
G1 Z0.350 F9000.000
G1 X94.698 Y94.808
G1 F1800.000 E1.00000
G1 X95.108 Y94.468 F1800.000 E1.02819
G1 X95.778 Y94.028 E1.07062
G1 X96.018 Y93.898 E1.08507
G1 X96.758 Y93.578 E1.12774
G1 X98.498 Y93.088 E1.22342
G1 X99.058 Y92.988 E1.25353
G1 X99.628 Y92.938 E1.28381
G1 X100.198 Y92.948 E1.31399
G1 X102.388 Y93.228 E1.43085
G1 X102.898 Y93.338 E1.45846
G1 X103.638 Y93.588 E1.49980
G1 X103.878 Y93.688 E1.51357
G1 X104.568 Y94.058 E1.55501
G1 X104.788 Y94.198 E1.56881
G1 X105.208 Y94.498 E1.59613
G1 X105.598 Y94.838 E1.62351
G1 X106.138 Y95.408 E1.66507
G1 X106.458 Y95.818 E1.69260
G1 X106.868 Y96.488 E1.73418
G1 X106.988 Y96.718 E1.74791
G1 X107.278 Y97.438 E1.78899
G1 X107.428 Y97.938 E1.81662
G1 X107.538 Y98.448 E1.84424
G1 X107.618 Y99.228 E1.88574
G1 X107.618 Y100.628 E1.95984
G1 X107.568 Y101.158 E1.98802
G1 X107.488 Y101.678 E2.01587
G1 X107.278 Y102.438 E2.05760
G1 X107.188 Y102.678 E2.07117
G1 X106.848 Y103.398 E2.11331
G1 X106.438 Y104.068 E2.15489
G1 X106.278 Y104.278 E2.16886
G1 X105.938 Y104.678 E2.19665
G1 X105.758 Y104.868 E2.21050
G1 X105.568 Y105.048 E2.22435
G1 X105.168 Y105.388 E2.25214
G1 X104.958 Y105.548 E2.26611
G1 X104.288 Y105.958 E2.30769
G1 X103.568 Y106.298 E2.34983
G1 X103.328 Y106.388 E2.36340
G1 X102.568 Y106.598 E2.40514
G1 X101.788 Y106.708 E2.44683
G1 X101.518 Y106.728 E2.46116
G1 X100.198 Y106.698 E2.53104
G1 X99.218 Y106.518 E2.58378
G1 X97.008 Y105.798 E2.70681
G1 X96.458 Y105.568 E2.73836
G1 X95.928 Y105.278 E2.77034
G1 X95.108 Y104.698 E2.82350
G1 X94.498 Y104.178 E2.86593
G1 X94.308 Y103.988 E2.88015
G1 X93.958 Y103.578 E2.90868
G1 X93.798 Y103.368 E2.92266
G1 X93.498 Y102.918 E2.95128
G1 X93.238 Y102.448 E2.97971
G1 X93.018 Y101.968 E3.00766
G1 X92.838 Y101.458 E3.03629
G1 X92.708 Y100.938 E3.06466
G1 X92.618 Y100.408 E3.09311
G1 X92.588 Y100.148 E3.10696
G1 X92.568 Y99.558 E3.13821
G1 X92.588 Y99.018 E3.16681
G1 X92.658 Y98.488 E3.19511
G1 X92.768 Y97.968 E3.22324
G1 X92.838 Y97.708 E3.23749
G1 X93.018 Y97.208 E3.26562
G1 X93.238 Y96.718 E3.29405
G1 X93.638 Y96.018 E3.33672
G1 X94.128 Y95.378 E3.37939
G1 X94.308 Y95.178 E3.39363
G1 X94.498 Y94.988 E3.40785
G1 X94.657 Y94.845 E3.41918
G1 X94.868 Y95.138 F9000.000
G1 X95.478 Y94.648 F1800.000 E3.46059
G1 X96.148 Y94.238 E3.50216
G1 X96.618 Y94.018 E3.52963
G1 X97.108 Y93.838 E3.55726
G1 X98.608 Y93.438 E3.63943
G1 X98.908 Y93.378 E3.65562
G1 X99.508 Y93.308 E3.68760
G1 X99.808 Y93.298 E3.70349
G1 X100.108 Y93.298 E3.71936
G1 X100.408 Y93.318 E3.73528
G1 X102.328 Y93.588 E3.83790
G1 X102.828 Y93.698 E3.86500
G1 X103.308 Y93.848 E3.89162
G1 X103.778 Y94.038 E3.91845
G1 X104.228 Y94.268 E3.94520
G1 X104.858 Y94.688 E3.98528
G1 X105.438 Y95.178 E4.02546
G1 X105.948 Y95.738 E4.06556
G1 X106.248 Y96.148 E4.09245
G1 X106.508 Y96.578 E4.11904
G1 X106.628 Y96.808 E4.13277
G1 X106.918 Y97.508 E4.17288
G1 X107.068 Y97.988 E4.19950
G1 X107.128 Y98.228 E4.21259
G1 X107.238 Y98.978 E4.25271
G1 X107.258 Y100.368 E4.32629
G1 X107.238 Y100.878 E4.35331
G1 X107.128 Y101.628 E4.39343
G1 X106.998 Y102.128 E4.42077
G1 X106.828 Y102.608 E4.44773
G1 X106.618 Y103.068 E4.47449
G1 X106.498 Y103.298 E4.48822
G1 X106.368 Y103.518 E4.50175
G1 X105.928 Y104.138 E4.54199
G1 X105.588 Y104.518 E4.56898
G1 X105.408 Y104.698 E4.58245
G1 X105.028 Y105.038 E4.60944
G1 X104.408 Y105.478 E4.64968
G1 X104.188 Y105.608 E4.66320
G1 X103.728 Y105.838 E4.69043
G1 X103.258 Y106.028 E4.71726
G1 X102.768 Y106.178 E4.74438
G1 X102.518 Y106.238 E4.75799
G1 X101.768 Y106.348 E4.79811
G1 X101.258 Y106.368 E4.82513
G1 X100.238 Y106.338 E4.87914
G1 X99.928 Y106.298 E4.89568
G1 X99.318 Y106.168 E4.92869
G1 X97.138 Y105.468 E5.04988
G1 X96.868 Y105.358 E5.06532
G1 X96.118 Y104.968 E5.11006
G1 X95.118 Y104.248 E5.17528
G1 X94.538 Y103.698 E5.21759
G1 X94.198 Y103.298 E5.24537
G1 X94.038 Y103.088 E5.25935
G1 X93.748 Y102.638 E5.28768
G1 X93.618 Y102.408 E5.30167
G1 X93.298 Y101.688 E5.34337
G1 X93.208 Y101.438 E5.35744
G1 X93.018 Y100.658 E5.39993
G1 X92.948 Y100.138 E5.42770
G1 X92.928 Y99.558 E5.45842
G1 X92.948 Y99.038 E5.48596
G1 X93.018 Y98.518 E5.51373
G1 X93.128 Y98.008 E5.54135
G1 X93.378 Y97.268 E5.58269
G1 X93.608 Y96.788 E5.61086
G1 X94.008 Y96.118 E5.65216
G1 X94.158 Y95.908 E5.66582
G1 X94.498 Y95.508 E5.69361
G1 X94.678 Y95.318 E5.70746
G1 X94.828 Y95.176 E5.71840
G1 F1800.000 E4.71840
G92 E0
G1 X100.868 Y100.374 F9000.000
G1 F1800.000 E1.00000
G1 X100.863 Y100.374 F1800.000 E1.00029
G1 X101.266 Y100.374 F9000.000
G1 X101.261 Y100.374 F1800.000 E1.00059
G1 F1800.000 E0.00059
G92 E0
G1 X99.238 Y99.824 F9000.000
G1 F1800.000 E1.00000
G1 X99.257 Y99.857 F1800.000 E1.00199
G1 X100.868 Y99.496 F9000.000
G1 X100.863 Y99.496 F1800.000 E1.00229
G1 X101.266 Y99.496 F9000.000
G1 X101.261 Y99.496 F1800.000 E1.00258
G1 X100.202 Y99.563 F9000.000
G1 X100.204 Y99.617 F1800.000 E1.00545
G1 X98.931 Y99.563 F9000.000
G1 X98.933 Y99.617 F1800.000 E1.00831
G1 X99.903 Y99.315 F9000.000
G1 X99.890 Y99.307 F1800.000 E1.00915
G1 F1800.000 E0.00915
G92 E0
G1 Z0.700 F9000.000
G91
G00 Z10
G90
G1 X0 Y0
; filament used = 4.7mm (0.0cm3)
