; generated by Slic3r 0.7.1 on 2012-07-11 at 10:02:09

; layer_height = .35
; perimeters = 2
; solid_layers = 2
; fill_density = .25
; nozzle_diameter = .35
; filament_diameter = 1.75
; extrusion_multiplier = 1
; perimeter_speed = 30
; infill_speed = 60
; travel_speed = 150
; extrusion_width_ratio = 0
; scale = 1
; single wall width = 0.37mm

M190 S85 ; set bed temperature
M104 S185 ; set temperature
G1 X0 Y0 Z0
M109 S185 ; wait for temperature to be reached
G90 ; use absolute coordinates
G21 ; set units to millimeters
G92 E0 ; reset extrusion distance
M82 ; use absolute distances for extrusion
G1 Z0.350 F9000.000
G1 X-13.141 Y-13.056
G1 F1800.000 E2.00000
G1 X-12.681 Y-13.506 F1800.000 E2.03406
G1 X-11.681 Y-14.376 E2.10422
G1 X-10.111 Y-15.516 E2.20691
G1 X-8.421 Y-16.496 E2.31032
G1 X-7.791 Y-16.806 E2.34748
G1 X-6.011 Y-17.516 E2.44891
G1 X-4.731 Y-17.906 E2.51974
G1 X-4.061 Y-18.066 E2.55620
G1 X-2.171 Y-18.386 E2.65766
G1 X-0.221 Y-18.516 E2.76110
G1 X1.119 Y-18.486 E2.83204
G1 X3.119 Y-18.246 E2.93866
G1 X3.749 Y-18.126 E2.97261
G1 X5.629 Y-17.636 E3.07544
G1 X6.879 Y-17.186 E3.14576
G1 X8.659 Y-16.355 E3.24971
G1 X9.239 Y-16.035 E3.28477
G1 X10.869 Y-14.976 E3.38769
G1 X12.429 Y-13.716 E3.49383
G1 X13.379 Y-12.786 E3.56419
G1 X14.659 Y-11.286 E3.66856
G1 X15.759 Y-9.686 E3.77134
G1 X16.099 Y-9.116 E3.80646
G1 X16.959 Y-7.386 E3.90872
G1 X17.449 Y-6.146 E3.97929
G1 X17.659 Y-5.516 E4.01444
G1 X18.149 Y-3.596 E4.11933
G1 X18.359 Y-2.276 E4.19007
G1 X18.489 Y-0.325 E4.29351
G1 X18.489 Y0.314 E4.32739
G1 X18.359 Y2.265 E4.43083
G1 X18.149 Y3.585 E4.50158
G1 X17.659 Y5.504 E4.60646
G1 X17.449 Y6.135 E4.64161
G1 X16.709 Y7.925 E4.74413
G1 X16.099 Y9.104 E4.81444
G1 X15.019 Y10.785 E4.92015
G1 X14.659 Y11.274 E4.95233
G1 X13.379 Y12.774 E5.05670
G1 X12.429 Y13.705 E5.12707
G1 X10.869 Y14.964 E5.23321
G1 X9.239 Y16.024 E5.33612
G1 X8.659 Y16.344 E5.37118
G1 X6.879 Y17.175 E5.47514
G1 X5.629 Y17.624 E5.54546
G1 X3.749 Y18.115 E5.64829
G1 X3.119 Y18.234 E5.68223
G1 X1.119 Y18.474 E5.78885
G1 X-0.221 Y18.505 E5.85980
G1 X-2.121 Y18.385 E5.96056
G1 X-2.791 Y18.294 E5.99634
G1 X-4.731 Y17.895 E6.10119
G1 X-6.011 Y17.505 E6.17201
G1 X-7.791 Y16.794 E6.27344
G1 X-8.421 Y16.484 E6.31061
G1 X-10.111 Y15.504 E6.41401
G1 X-11.681 Y14.365 E6.51671
G1 X-12.681 Y13.495 E6.58686
G1 X-14.051 Y12.065 E6.69168
G1 X-14.481 Y11.545 E6.72740
G1 X-15.271 Y10.475 E6.79780
G1 X-16.281 Y8.815 E6.90064
G1 X-16.581 Y8.245 E6.93474
G1 X-17.371 Y6.434 E7.03927
G1 X-17.961 Y4.545 E7.14407
G1 X-18.241 Y3.244 E7.21445
G1 X-18.481 Y1.294 E7.31844
G1 X-18.511 Y-0.676 E7.42273
G1 X-18.481 Y-1.306 E7.45611
G1 X-18.241 Y-3.256 E7.56010
G1 X-17.961 Y-4.556 E7.63049
G1 X-17.371 Y-6.446 E7.73529
G1 X-16.581 Y-8.256 E7.83982
G1 X-15.601 Y-9.976 E7.94460
G1 X-15.271 Y-10.486 E7.97675
G1 X-14.481 Y-11.556 E8.04715
G1 X-14.051 Y-12.076 E8.08286
G1 X-13.179 Y-13.015 E8.15073
G1 F1800.000 E6.15073
G92 E0
G1 X-6.543 Y-6.534 F9000.000
G1 F1800.000 E2.00000
G1 X6.525 Y-6.534 F1800.000 E2.69166
G1 X6.525 Y6.534 E3.38331
G1 X-6.543 Y6.534 E4.07497
G1 X-6.543 Y-6.479 E4.76371
G1 X-6.903 Y-6.894 F9000.000
G1 X6.885 Y-6.894 F1800.000 E5.49354
G1 X6.885 Y6.894 E6.22338
G1 X-6.903 Y6.894 E6.95321
G1 X-6.903 Y-6.839 E7.68013
G1 F1800.000 E5.68013
G92 E0
G1 X-8.489 Y-8.708 F9000.000
G1 F1800.000 E2.00000
G1 X-7.515 Y-9.560 F1800.000 E2.06848
G1 X-6.456 Y-10.304 E2.13696
G1 X-5.324 Y-10.931 E2.20544
G1 X-4.132 Y-11.434 E2.27392
G1 X-2.894 Y-11.808 E2.34241
G1 X-1.622 Y-12.047 E2.41089
G1 X-0.333 Y-12.151 E2.47937
G1 X0.961 Y-12.116 E2.54785
G1 X2.243 Y-11.944 E2.61633
G1 X3.500 Y-11.637 E2.68481
G1 X4.717 Y-11.198 E2.75329
G1 X5.881 Y-10.633 E2.82177
G1 X6.977 Y-9.946 E2.89025
G1 X7.995 Y-9.147 E2.95873
G1 X8.922 Y-8.245 E3.02722
G1 X9.748 Y-7.249 E3.09570
G1 X10.463 Y-6.171 E3.16418
G1 X11.060 Y-5.023 E3.23266
G1 X11.531 Y-3.818 E3.30114
G1 X11.871 Y-2.569 E3.36962
G1 X12.077 Y-1.292 E3.43810
G1 X12.146 Y0.000 E3.50658
G1 X12.077 Y1.292 E3.57507
G1 X11.871 Y2.569 E3.64355
G1 X11.531 Y3.818 E3.71203
G1 X11.060 Y5.023 E3.78051
G1 X10.463 Y6.171 E3.84899
G1 X9.748 Y7.249 E3.91747
G1 X8.922 Y8.245 E3.98595
G1 X7.995 Y9.147 E4.05443
G1 X6.977 Y9.946 E4.12291
G1 X5.881 Y10.633 E4.19139
G1 X4.717 Y11.198 E4.25988
G1 X3.500 Y11.637 E4.32836
G1 X2.243 Y11.944 E4.39684
G1 X0.961 Y12.116 E4.46532
G1 X-0.333 Y12.151 E4.53380
G1 X-1.622 Y12.047 E4.60228
G1 X-2.894 Y11.808 E4.67076
G1 X-4.132 Y11.434 E4.73924
G1 X-5.324 Y10.931 E4.80772
G1 X-6.456 Y10.304 E4.87621
G1 X-7.515 Y9.560 E4.94469
G1 X-8.489 Y8.708 E5.01317
G1 X-9.366 Y7.758 E5.08165
G1 X-10.138 Y6.719 E5.15013
G1 X-10.795 Y5.605 E5.21861
G1 X-11.329 Y4.426 E5.28709
G1 X-11.736 Y3.198 E5.35557
G1 X-12.009 Y1.933 E5.42405
G1 X-12.147 Y0.647 E5.49254
G1 X-12.147 Y-0.647 E5.56102
G1 X-12.009 Y-1.933 E5.62950
G1 X-11.736 Y-3.198 E5.69798
G1 X-11.329 Y-4.426 E5.76646
G1 X-10.795 Y-5.605 E5.83494
G1 X-10.138 Y-6.719 E5.90342
G1 X-9.366 Y-7.758 E5.97190
G1 X-8.526 Y-8.668 E6.03747
G1 X-8.741 Y-8.967 F9000.000
G1 X-7.738 Y-9.844 F1800.000 E6.10798
G1 X-6.648 Y-10.610 E6.17850
G1 X-5.482 Y-11.256 E6.24901
G1 X-4.255 Y-11.774 E6.31953
G1 X-2.979 Y-12.158 E6.39004
G1 X-1.670 Y-12.405 E6.46056
G1 X-0.342 Y-12.512 E6.53108
G1 X0.990 Y-12.476 E6.60159
G1 X2.310 Y-12.299 E6.67211
G1 X3.604 Y-11.983 E6.74262
G1 X4.858 Y-11.531 E6.81314
G1 X6.056 Y-10.949 E6.88366
G1 X7.185 Y-10.242 E6.95417
G1 X8.233 Y-9.419 E7.02469
G1 X9.187 Y-8.490 E7.09520
G1 X10.038 Y-7.464 E7.16572
G1 X10.774 Y-6.354 E7.23623
G1 X11.388 Y-5.172 E7.30675
G1 X11.874 Y-3.931 E7.37727
G1 X12.224 Y-2.646 E7.44778
G1 X12.436 Y-1.330 E7.51830
G1 X12.507 Y0.000 E7.58881
G1 X12.436 Y1.330 E7.65933
G1 X12.224 Y2.646 E7.72984
G1 X11.874 Y3.931 E7.80036
G1 X11.388 Y5.172 E7.87088
G1 X10.774 Y6.354 E7.94139
G1 X10.038 Y7.464 E8.01191
G1 X9.187 Y8.490 E8.08242
G1 X8.233 Y9.419 E8.15294
G1 X7.185 Y10.242 E8.22346
G1 X6.056 Y10.949 E8.29397
G1 X4.858 Y11.531 E8.36449
G1 X3.604 Y11.983 E8.43500
G1 X2.310 Y12.299 E8.50552
G1 X0.990 Y12.476 E8.57603
G1 X-0.342 Y12.512 E8.64655
G1 X-1.670 Y12.405 E8.71707
G1 X-2.979 Y12.158 E8.78758
G1 X-4.255 Y11.774 E8.85810
G1 X-5.482 Y11.256 E8.92861
G1 X-6.648 Y10.610 E8.99913
G1 X-7.738 Y9.844 E9.06964
G1 X-8.741 Y8.967 E9.14016
G1 X-9.644 Y7.988 E9.21068
G1 X-10.439 Y6.919 E9.28119
G1 X-11.115 Y5.771 E9.35171
G1 X-11.666 Y4.558 E9.42222
G1 X-12.084 Y3.293 E9.49274
G1 X-12.366 Y1.991 E9.56325
G1 X-12.507 Y0.666 E9.63377
G1 X-12.507 Y-0.666 E9.70429
G1 X-12.366 Y-1.991 E9.77480
G1 X-12.084 Y-3.293 E9.84532
G1 X-11.666 Y-4.558 E9.91583
G1 X-11.115 Y-5.771 E9.98635
G1 X-10.439 Y-6.919 E10.05686
G1 X-9.644 Y-7.988 E10.12738
G1 X-8.778 Y-8.927 E10.19498
G1 F1800.000 E8.19498
G92 E0
G1 X6.690 Y-9.736 F9000.000
G1 F1800.000 E2.00000
G1 X9.691 Y-6.735 F3600.000 E2.22727
G1 X10.502 Y-5.410 E2.31040
G1 X5.387 Y-10.525 E2.69766
G1 X4.404 Y-10.995 E2.75599
G1 X10.967 Y-4.431 E3.25293
G1 X11.295 Y-3.590 E3.30129
G1 X3.600 Y-11.284 E3.88389
G1 X2.873 Y-11.498 E3.92447
G1 X7.220 Y-7.151 E4.25359
G1 X7.142 Y-6.715 E4.27731
G1 X11.652 Y-2.205 E4.61877
G1 X11.750 Y-1.593 F9000.000
G1 X7.142 Y-6.201 F3600.000 E4.96770
G1 X7.142 Y-5.687 F9000.000
G1 X11.830 Y-1.000 F3600.000 E5.32265
G1 X11.859 Y-0.457 F9000.000
G1 X7.142 Y-5.174 F3600.000 E5.67978
G1 X7.142 Y-4.660 F9000.000
G1 X11.888 Y0.086 F3600.000 E6.03910
G1 X11.864 Y0.575 F9000.000
G1 X7.142 Y-4.146 F3600.000 E6.39659
G1 X7.142 Y-3.632 F9000.000
G1 X11.838 Y1.063 F3600.000 E6.75211
G1 X11.794 Y1.533 F9000.000
G1 X7.142 Y-3.118 F3600.000 E7.10430
G1 X7.142 Y-2.605 F9000.000
G1 X11.722 Y1.976 F3600.000 E7.45110
G1 X11.651 Y2.418 F9000.000
G1 X7.142 Y-2.091 F3600.000 E7.79250
G1 X7.142 Y-1.577 F9000.000
G1 X11.557 Y2.837 F3600.000 E8.12675
G1 X11.447 Y3.241 F9000.000
G1 X7.142 Y-1.063 F3600.000 E8.45266
G1 X7.142 Y-0.550 F9000.000
G1 X11.336 Y3.645 F3600.000 E8.77024
G1 X11.206 Y4.028 F9000.000
G1 X7.142 Y-0.036 F3600.000 E9.07794
G1 X7.142 Y0.478 F9000.000
G1 X11.061 Y4.397 F3600.000 E9.37470
G1 X10.917 Y4.767 F9000.000
G1 X7.142 Y0.992 F3600.000 E9.66052
G1 X7.142 Y1.506 F9000.000
G1 X10.759 Y5.123 F3600.000 E9.93440
G1 X10.583 Y5.461 F9000.000
G1 X7.142 Y2.019 F3600.000 E10.19497
G1 X7.142 Y2.533 F9000.000
G1 X10.408 Y5.799 F3600.000 E10.44224
G1 X10.228 Y6.133 F9000.000
G1 X7.142 Y3.047 F3600.000 E10.67591
G1 X7.142 Y3.561 F9000.000
G1 X10.023 Y6.442 F3600.000 E10.89406
G1 X9.818 Y6.751 F9000.000
G1 X7.142 Y4.074 F3600.000 E11.09670
G1 X7.142 Y4.588 F9000.000
G1 X9.613 Y7.060 F3600.000 E11.28383
G1 X9.388 Y7.348 F9000.000
G1 X7.142 Y5.102 F3600.000 E11.45385
G1 X7.142 Y5.616 F9000.000
G1 X9.155 Y7.628 F3600.000 E11.60625
G1 X8.922 Y7.909 F9000.000
G1 X7.142 Y6.130 F3600.000 E11.74101
G1 X7.142 Y6.643 F9000.000
G1 X8.681 Y8.182 F3600.000 E11.85750
G1 X8.420 Y8.435 F9000.000
G1 X7.136 Y7.151 F3600.000 E11.95473
G1 X6.622 Y7.151 F9000.000
G1 X8.160 Y8.689 F3600.000 E12.07116
G1 X7.900 Y8.942 F9000.000
G1 X6.108 Y7.151 F3600.000 E12.20678
G1 X5.595 Y7.151 F9000.000
G1 X7.616 Y9.172 F3600.000 E12.35981
G1 X7.328 Y9.398 F9000.000
G1 X5.081 Y7.151 F3600.000 E12.52995
G1 X4.567 Y7.151 F9000.000
G1 X7.040 Y9.624 F3600.000 E12.71720
G1 X6.741 Y9.838 F9000.000
G1 X4.053 Y7.151 F3600.000 E12.92066
G1 X3.540 Y7.151 F9000.000
G1 X6.424 Y10.036 F3600.000 E13.13909
G1 X6.108 Y10.234 F9000.000
G1 X3.026 Y7.151 F3600.000 E13.37250
G1 X2.512 Y7.151 F9000.000
G1 X5.791 Y10.430 F3600.000 E13.62075
G1 X5.445 Y10.598 F9000.000
G1 X1.998 Y7.151 F3600.000 E13.88173
G1 X1.485 Y7.151 F9000.000
G1 X5.099 Y10.766 F3600.000 E14.15544
G1 X4.754 Y10.934 F9000.000
G1 X0.971 Y7.151 F3600.000 E14.44187
G1 X0.457 Y7.151 F9000.000
G1 X4.383 Y11.077 F3600.000 E14.73913
G1 X4.005 Y11.213 F9000.000
G1 X-0.057 Y7.151 F3600.000 E15.04670
G1 X-0.571 Y7.151 F9000.000
G1 X3.628 Y11.349 F3600.000 E15.36458
G1 X3.227 Y11.462 F9000.000
G1 X-1.084 Y7.151 F3600.000 E15.69100
G1 X-1.598 Y7.151 F9000.000
G1 X2.814 Y11.563 F3600.000 E16.02506
G1 X2.401 Y11.664 F9000.000
G1 X-2.112 Y7.151 F3600.000 E16.36675
G1 X-2.626 Y7.151 F9000.000
G1 X1.960 Y11.736 F3600.000 E16.71394
G1 X1.507 Y11.797 F9000.000
G1 X-3.139 Y7.151 F3600.000 E17.06571
G1 X-3.653 Y7.151 F9000.000
G1 X1.053 Y11.858 F3600.000 E17.42208
G1 X0.555 Y11.873 F9000.000
G1 X-4.167 Y7.151 F3600.000 E17.77960
G1 X-4.681 Y7.151 F9000.000
G1 X0.054 Y11.886 F3600.000 E18.13812
G1 X-0.472 Y11.873 F9000.000
G1 X-5.195 Y7.151 F3600.000 E18.49567
G1 X-5.708 Y7.151 F9000.000
G1 X-1.031 Y11.829 F3600.000 E18.84982
G1 X-1.605 Y11.768 F9000.000
G1 X-6.222 Y7.151 F3600.000 E19.19939
G1 X-6.736 Y7.151 F9000.000
G1 X-2.238 Y11.649 F3600.000 E19.53992
G1 F1800.000 E17.53992
G92 E0
G1 X-6.810 Y9.646 F9000.000
G1 F1800.000 E2.00000
G1 X-9.654 Y6.802 F3600.000 E2.21531
G1 X-10.535 Y5.407 E2.30368
G1 X-5.442 Y10.500 E2.68932
G1 X-4.467 Y10.962 E2.74710
G1 X-10.980 Y4.448 E3.24028
G1 X-11.281 Y3.633 E3.28680
G1 X-3.634 Y11.280 E3.86581
G1 X-2.899 Y11.502 E3.90694
G1 X-7.250 Y7.151 E4.23638
G1 X-7.160 Y7.241 F9000.000
G1 X-11.516 Y2.885 F3600.000 E4.56618
G1 X-11.658 Y2.229 E4.60209
G1 X-7.160 Y6.727 E4.94263
G1 X-7.160 Y6.213 E4.97013
G1 X-11.775 Y1.598 E5.31957
G1 X-11.837 Y1.023 E5.35054
G1 X-7.160 Y5.699 E5.70463
G1 X-7.160 Y5.186 E5.73214
G1 X-11.890 Y0.456 E6.09027
G1 X-11.890 Y-0.058 E6.11777
G1 X-7.160 Y4.672 E6.47590
G1 X-7.160 Y4.158 E6.50341
G1 X-11.890 Y-0.572 E6.86154
G1 X-11.856 Y-1.051 E6.88728
G1 X-7.160 Y3.644 E7.24282
G1 X-7.160 Y3.130 E7.27032
G1 X-11.806 Y-1.516 E7.62211
G1 X-11.757 Y-1.980 E7.64710
G1 X-7.160 Y2.617 E7.99513
G1 X-7.160 Y2.103 E8.02263
G1 X-11.665 Y-2.402 E8.36374
G1 X-11.574 Y-2.825 E8.38688
G1 X-7.160 Y1.589 E8.72107
G1 X-7.160 Y1.075 E8.74858
G1 X-11.479 Y-3.244 E9.07559
G1 X-11.351 Y-3.630 E9.09736
G1 X-7.160 Y0.562 E9.41471
G1 X-7.160 Y0.048 E9.44221
G1 X-11.224 Y-4.016 E9.74989
G1 X-11.096 Y-4.402 E9.77165
G1 X-7.160 Y-0.466 E10.06963
G1 X-7.160 Y-0.980 E10.09714
G1 X-10.935 Y-4.755 E10.38298
G1 X-10.775 Y-5.108 E10.40376
G1 X-7.160 Y-1.494 E10.67746
G1 X-7.160 Y-2.007 E10.70497
G1 X-10.615 Y-5.462 E10.96653
G1 X-10.431 Y-5.792 E10.98675
G1 X-7.160 Y-2.521 E11.23440
G1 X-7.160 Y-3.035 E11.26191
G1 X-10.240 Y-6.115 E11.49514
G1 X-10.050 Y-6.438 E11.51523
G1 X-7.160 Y-3.549 E11.73403
G1 X-7.160 Y-4.062 E11.76154
G1 X-9.847 Y-6.750 E11.96500
G1 X-9.628 Y-7.044 E11.98466
G1 X-7.160 Y-4.576 E12.17154
G1 X-7.160 Y-5.090 E12.19905
G1 X-9.409 Y-7.339 E12.36934
G1 X-9.190 Y-7.634 E12.38900
G1 X-7.160 Y-5.604 E12.54270
G1 X-7.160 Y-6.117 E12.57020
G1 X-8.943 Y-7.901 E12.70523
G1 X-8.697 Y-8.168 E12.72469
G1 X-7.160 Y-6.631 E12.84104
G1 X-7.160 Y-7.145 E12.86855
G1 X-8.450 Y-8.435 E12.96623
G1 X-8.188 Y-8.687 E12.98568
G1 X-6.652 Y-7.151 E13.10197
G1 X-6.139 Y-7.151 E13.12948
G1 X-7.914 Y-8.927 E13.26393
G1 X-7.640 Y-9.167 E13.28342
G1 X-5.625 Y-7.151 E13.43603
G1 X-5.111 Y-7.151 E13.46353
G1 X-7.363 Y-9.403 E13.63406
G1 X-7.061 Y-9.615 E13.65381
G1 X-4.597 Y-7.151 E13.84039
G1 X-4.083 Y-7.151 E13.86790
G1 X-6.760 Y-9.827 E14.07053
G1 X-6.458 Y-10.039 E14.09027
G1 X-3.570 Y-7.151 E14.30895
G1 X-3.056 Y-7.151 E14.33646
G1 X-6.136 Y-10.231 E14.56965
G1 X-5.805 Y-10.414 E14.58989
G1 X-2.542 Y-7.151 E14.83695
G1 X-2.028 Y-7.151 E14.86445
G1 X-5.474 Y-10.597 E15.12538
G1 X-5.132 Y-10.769 E15.14588
G1 X-1.515 Y-7.151 E15.41978
G1 X-1.001 Y-7.151 E15.44729
G1 X-4.771 Y-10.921 E15.73274
G1 X-4.409 Y-11.074 E15.75373
G1 X-0.487 Y-7.151 E16.05073
G1 X0.027 Y-7.151 E16.07824
G1 X-4.042 Y-11.220 E16.38631
G1 X-3.647 Y-11.339 E16.40839
G1 X0.541 Y-7.151 E16.72548
G1 X1.054 Y-7.151 E16.75299
G1 X-3.253 Y-11.458 E17.07909
G1 X-2.853 Y-11.572 E17.10135
G1 X1.568 Y-7.151 E17.43608
G1 X2.082 Y-7.151 E17.46358
G1 X-2.420 Y-11.653 E17.80448
G1 X-1.988 Y-11.735 E17.82803
G1 X2.596 Y-7.151 E18.17510
G1 X3.109 Y-7.151 E18.20261
G1 X-1.544 Y-11.804 E18.55492
G1 X-1.068 Y-11.842 E18.58047
G1 X3.623 Y-7.151 E18.93566
G1 X4.137 Y-7.151 E18.96317
G1 X-0.592 Y-11.880 E19.32125
G1 X-0.083 Y-11.884 E19.34854
G1 X4.651 Y-7.151 E19.70692
G1 X5.165 Y-7.151 E19.73443
G1 X0.445 Y-11.870 E20.09174
G1 X0.991 Y-11.838 E20.12102
G1 X5.678 Y-7.151 E20.47591
G1 X6.192 Y-7.151 E20.50342
G1 X1.584 Y-11.759 E20.85230
G1 X2.193 Y-11.664 E20.88527
G1 X6.706 Y-7.151 E21.22697
G1 X7.142 Y-7.229 E21.25069
G1 X11.487 Y-2.883 E21.57970
G1 F1800.000 E19.57970
G92 E0
G1 Z0.700 F9000.000
G1 X6.525 Y-6.534
G1 F1800.000 E2.00000
G1 X6.525 Y6.534 F1800.000 E2.69166
G1 X-6.543 Y6.534 E3.38331
G1 X-6.543 Y-6.534 E4.07497
G1 X6.470 Y-6.534 E4.76371
G1 X6.885 Y-6.894 F9000.000
G1 X6.885 Y6.894 F1800.000 E5.49354
G1 X-6.903 Y6.894 E6.22338
G1 X-6.903 Y-6.894 E6.95321
G1 X6.830 Y-6.894 E7.68013
G1 F1800.000 E5.68013
G92 E0
G1 X8.922 Y-8.245 F9000.000
G1 F1800.000 E2.00000
G1 X9.748 Y-7.249 F1800.000 E2.06848
G1 X10.463 Y-6.171 E2.13696
G1 X11.060 Y-5.023 E2.20544
G1 X11.531 Y-3.818 E2.27392
G1 X11.871 Y-2.569 E2.34240
G1 X12.077 Y-1.292 E2.41089
G1 X12.146 Y0.000 E2.47937
G1 X12.077 Y1.292 E2.54785
G1 X11.871 Y2.569 E2.61633
G1 X11.531 Y3.818 E2.68481
G1 X11.060 Y5.023 E2.75329
G1 X10.463 Y6.171 E2.82177
G1 X9.748 Y7.249 E2.89025
G1 X8.922 Y8.245 E2.95874
G1 X7.995 Y9.147 E3.02722
G1 X6.977 Y9.946 E3.09570
G1 X5.881 Y10.633 E3.16418
G1 X4.717 Y11.198 E3.23266
G1 X3.500 Y11.637 E3.30114
G1 X2.243 Y11.944 E3.36962
G1 X0.961 Y12.116 E3.43810
G1 X-0.333 Y12.151 E3.50658
G1 X-1.622 Y12.047 E3.57506
G1 X-2.894 Y11.808 E3.64355
G1 X-4.132 Y11.434 E3.71203
G1 X-5.324 Y10.931 E3.78051
G1 X-6.456 Y10.304 E3.84899
G1 X-7.515 Y9.560 E3.91747
G1 X-8.489 Y8.708 E3.98595
G1 X-9.366 Y7.758 E4.05443
