; generated by Slic3r 0.7.1 on 2012-05-12 at 21:02:50

; layer_height = .35
; perimeters = 1
; solid_layers = 1
; fill_density = .25
; nozzle_diameter = .35
; filament_diameter = 1.75
; extrusion_multiplier = 1
; perimeter_speed = 30
; infill_speed = 60
; travel_speed = 150
; extrusion_width_ratio = 0
; scale = 1
; single wall width = 0.37mm

M190 S80 ; set bed temperature
M104 S185 ; set temperature

M109 S185 ; wait for temperature to be reached
G90 ; use absolute coordinates
G21 ; set units to millimeters
G92 E0 ; reset extrusion distance
M82 ; use absolute distances for extrusion
G1 Z0.350 F9000.000
G1 X71.880 Y71.950
G1 F1800.000 E1.00000
G1 X72.150 Y71.690 F1800.000 E1.01984
G1 X72.580 Y71.330 E1.04952
G1 X73.270 Y70.870 E1.09342
G1 X74.020 Y70.500 E1.13768
G1 X74.270 Y70.400 E1.15193
G1 X74.540 Y70.310 E1.16700
G1 X75.070 Y70.170 E1.19601
G1 X75.620 Y70.070 E1.22560
G1 X75.900 Y70.040 E1.24051
G1 X76.450 Y70.020 E1.26964
G1 X124.090 Y70.040 E3.79120
G1 X124.370 Y70.070 E3.80611
G1 X124.920 Y70.170 E3.83570
G1 X125.450 Y70.310 E3.86471
G1 X125.720 Y70.400 E3.87977
G1 X126.480 Y70.740 E3.92384
G1 X126.720 Y70.870 E3.93829
G1 X127.190 Y71.170 E3.96780
G1 X127.410 Y71.330 E3.98220
G1 X127.840 Y71.690 E4.01188
G1 X128.300 Y72.150 E4.04632
G1 X128.660 Y72.580 E4.07600
G1 X129.120 Y73.270 E4.11989
G1 X129.490 Y74.020 E4.16416
G1 X129.590 Y74.270 E4.17841
G1 X129.680 Y74.540 E4.19347
G1 X129.820 Y75.070 E4.22249
G1 X129.920 Y75.620 E4.25208
G1 X129.950 Y75.900 E4.26698
G1 X129.950 Y124.090 E6.81766
G1 X129.920 Y124.370 E6.83256
G1 X129.820 Y124.920 E6.86215
G1 X129.680 Y125.450 E6.89117
G1 X129.590 Y125.720 E6.90623
G1 X129.250 Y126.480 E6.95030
G1 X129.120 Y126.720 E6.96475
G1 X128.820 Y127.190 E6.99426
G1 X128.660 Y127.410 E7.00866
G1 X128.300 Y127.840 E7.03834
G1 X127.840 Y128.300 E7.07277
G1 X127.410 Y128.660 E7.10246
G1 X126.720 Y129.120 E7.14635
G1 X125.970 Y129.490 E7.19061
G1 X125.720 Y129.590 E7.20487
G1 X125.450 Y129.680 E7.21993
G1 X124.920 Y129.820 E7.24895
G1 X124.370 Y129.920 E7.27853
G1 X124.090 Y129.950 E7.29344
G1 X123.540 Y129.970 E7.32257
G1 X75.900 Y129.950 E9.84414
G1 X75.620 Y129.920 E9.85904
G1 X75.070 Y129.820 E9.88863
G1 X74.540 Y129.680 E9.91764
G1 X74.270 Y129.590 E9.93271
G1 X73.510 Y129.250 E9.97678
G1 X73.270 Y129.120 E9.99122
G1 X72.800 Y128.820 E10.02074
G1 X72.580 Y128.660 E10.03513
G1 X72.150 Y128.300 E10.06482
G1 X71.690 Y127.840 E10.09925
G1 X71.330 Y127.410 E10.12893
G1 X70.870 Y126.720 E10.17283
G1 X70.500 Y125.970 E10.21709
G1 X70.400 Y125.720 E10.23134
G1 X70.310 Y125.450 E10.24641
G1 X70.170 Y124.920 E10.27542
G1 X70.070 Y124.370 E10.30501
G1 X70.040 Y124.090 E10.31992
G1 X70.040 Y75.900 E12.87059
G1 X70.070 Y75.620 E12.88550
G1 X70.170 Y75.070 E12.91509
G1 X70.310 Y74.540 E12.94410
G1 X70.400 Y74.270 E12.95916
G1 X70.740 Y73.510 E13.00323
G1 X70.870 Y73.270 E13.01768
G1 X71.170 Y72.800 E13.04719
G1 X71.330 Y72.580 E13.06159
G1 X71.690 Y72.150 E13.09127
G1 X71.842 Y71.990 E13.10296
G1 X72.140 Y72.210 F9000.000
G1 X72.590 Y71.780 F1800.000 E13.13590
G1 X73.230 Y71.320 E13.17762
G1 X73.450 Y71.180 E13.19142
G1 X73.910 Y70.940 E13.21888
G1 X74.400 Y70.740 E13.24690
G1 X74.900 Y70.580 E13.27468
G1 X75.410 Y70.470 E13.30230
G1 X75.930 Y70.400 E13.33007
G1 X76.450 Y70.380 E13.35761
G1 X124.060 Y70.400 E15.87759
G1 X124.580 Y70.470 E15.90536
G1 X125.090 Y70.580 E15.93298
G1 X125.590 Y70.740 E15.96076
G1 X126.080 Y70.940 E15.98878
G1 X126.540 Y71.180 E16.01624
G1 X127.190 Y71.620 E16.05778
G1 X127.400 Y71.780 E16.07176
G1 X128.210 Y72.590 E16.13239
G1 X128.670 Y73.230 E16.17411
G1 X128.810 Y73.450 E16.18791
G1 X129.050 Y73.910 E16.21537
G1 X129.250 Y74.400 E16.24338
G1 X129.410 Y74.900 E16.27117
G1 X129.520 Y75.410 E16.29879
G1 X129.590 Y75.930 E16.32656
G1 X129.590 Y124.060 E18.87406
G1 X129.520 Y124.580 E18.90183
G1 X129.410 Y125.090 E18.92944
G1 X129.250 Y125.590 E18.95723
G1 X129.050 Y126.080 E18.98524
G1 X128.810 Y126.540 E19.01271
G1 X128.370 Y127.190 E19.05425
G1 X128.210 Y127.400 E19.06823
G1 X127.400 Y128.210 E19.12886
G1 X126.760 Y128.670 E19.17057
G1 X126.540 Y128.810 E19.18438
G1 X126.080 Y129.050 E19.21184
G1 X125.590 Y129.250 E19.23985
G1 X125.090 Y129.410 E19.26764
G1 X124.580 Y129.520 E19.29525
G1 X124.060 Y129.590 E19.32303
G1 X123.540 Y129.610 E19.35057
G1 X75.930 Y129.590 E21.87055
G1 X75.410 Y129.520 E21.89832
G1 X74.900 Y129.410 E21.92593
G1 X74.400 Y129.250 E21.95372
G1 X73.910 Y129.050 E21.98173
G1 X73.450 Y128.810 E22.00919
G1 X72.800 Y128.370 E22.05074
G1 X72.590 Y128.210 E22.06471
G1 X71.780 Y127.400 E22.12535
G1 X71.320 Y126.760 E22.16706
G1 X71.180 Y126.540 E22.18086
G1 X70.940 Y126.080 E22.20833
G1 X70.740 Y125.590 E22.23634
G1 X70.580 Y125.090 E22.26413
G1 X70.470 Y124.580 E22.29174
G1 X70.400 Y124.060 E22.31951
G1 X70.400 Y75.930 E24.86701
G1 X70.470 Y75.410 E24.89479
G1 X70.580 Y74.900 E24.92240
G1 X70.740 Y74.400 E24.95019
G1 X70.940 Y73.910 E24.97820
G1 X71.180 Y73.450 E25.00566
G1 X71.620 Y72.800 E25.04721
G1 X71.780 Y72.590 E25.06118
G1 X72.102 Y72.250 E25.08597
G1 F1800.000 E24.08597
G92 E0
G1 X76.387 Y76.454 F9000.000
G1 F1800.000 E1.00000
G1 X76.454 Y76.387 F1800.000 E1.00504
G1 X90.605 Y76.387 E1.75404
G1 X93.958 Y79.740 E2.00501
G1 X106.042 Y79.740 E2.64464
G1 X109.395 Y76.387 E2.89561
G1 X123.546 Y76.387 E3.64461
G1 X123.613 Y76.454 E3.64965
G1 X123.613 Y90.605 E4.39864
G1 X120.260 Y93.958 E4.64961
G1 X120.260 Y106.042 E5.28925
G1 X123.613 Y109.395 E5.54022
G1 X123.613 Y123.546 E6.28921
G1 X123.546 Y123.613 E6.29425
G1 X109.395 Y123.613 E7.04325
G1 X106.042 Y120.260 E7.29422
G1 X93.958 Y120.260 E7.93385
G1 X90.605 Y123.613 E8.18482
G1 X76.454 Y123.613 E8.93381
G1 X76.387 Y123.546 E8.93886
G1 X76.387 Y109.395 E9.68785
G1 X79.740 Y106.042 E9.93882
G1 X79.740 Y93.958 E10.57846
G1 X76.387 Y90.605 E10.82943
G1 X76.387 Y76.509 E11.57550
G1 F1800.000 E10.57550
G92 E0
G1 X76.964 Y123.357 F9000.000
G1 F1800.000 E1.00000
G1 X76.643 Y123.036 F3600.000 E1.02418
G1 X76.643 Y122.523 E1.05153
G1 X77.477 Y123.357 E1.11440
G1 X77.989 Y123.357 E1.14175
G1 X76.643 Y122.011 E1.24329
G1 X76.643 Y121.498 E1.27064
G1 X78.502 Y123.357 E1.41086
G1 X79.014 Y123.357 E1.43821
G1 X76.643 Y120.986 E1.61711
G1 X76.643 Y120.473 E1.64446
G1 X79.527 Y123.357 E1.86204
G1 X80.040 Y123.357 E1.88939
G1 X76.643 Y119.960 E2.14565
G1 X76.643 Y119.448 E2.17300
G1 X80.552 Y123.357 E2.46794
G1 X81.065 Y123.357 E2.49529
G1 X76.643 Y118.935 E2.82890
G1 X76.643 Y118.422 E2.85625
G1 X81.578 Y123.357 E3.22855
G1 X82.090 Y123.357 E3.25590
G1 X76.643 Y117.910 E3.66688
G1 X76.643 Y117.397 E3.69423
G1 X82.603 Y123.357 E4.14388
G1 X83.115 Y123.357 E4.17123
G1 X76.643 Y116.885 E4.65956
G1 X76.643 Y116.372 E4.68691
G1 X83.628 Y123.357 E5.21393
G1 X84.141 Y123.357 E5.24128
G1 X76.643 Y115.859 E5.80697
G1 X76.643 Y115.347 E5.83432
G1 X84.653 Y123.357 E6.43869
G1 X85.166 Y123.357 E6.46604
G1 X76.643 Y114.834 E7.10909
G1 X76.643 Y114.321 E7.13644
G1 X85.679 Y123.357 E7.81817
G1 X86.191 Y123.357 E7.84552
G1 X76.643 Y113.809 E8.56593
G1 X76.643 Y113.296 E8.59328
G1 X86.704 Y123.357 E9.35236
G1 X87.216 Y123.357 E9.37971
G1 X76.643 Y112.784 E10.17748
G1 X76.643 Y112.271 E10.20483
G1 X87.729 Y123.357 E11.04128
G1 X88.242 Y123.357 E11.06863
G1 X76.643 Y111.758 E11.94375
G1 X76.643 Y111.246 E11.97110
G1 X88.754 Y123.357 E12.88490
G1 X89.267 Y123.357 E12.91226
G1 X76.643 Y110.733 E13.86474
G1 X76.643 Y110.220 E13.89209
G1 X89.780 Y123.357 E14.88325
G1 X90.292 Y123.357 E14.91060
G1 X76.643 Y109.708 E15.94044
G1 X76.766 Y109.318 E15.96225
G1 X90.682 Y123.234 E17.01226
G1 X90.938 Y122.978 E17.03160
G1 X77.022 Y109.062 E18.08160
G1 X77.279 Y108.805 E18.10094
G1 X91.195 Y122.721 E19.15095
G1 X91.451 Y122.465 E19.17029
G1 X77.535 Y108.549 E20.22030
G1 X77.791 Y108.293 E20.23964
G1 X91.707 Y122.209 E21.28964
G1 X91.964 Y121.952 E21.30898
G1 X78.048 Y108.036 E22.35899
G1 X78.304 Y107.780 E22.37833
G1 X92.220 Y121.696 E23.42833
G1 X92.476 Y121.440 E23.44767
G1 X78.560 Y107.524 E24.49768
G1 X78.817 Y107.267 E24.51702
G1 X92.733 Y121.183 E25.56703
G1 X92.989 Y120.927 E25.58637
G1 X79.073 Y107.011 E26.63637
G1 X79.329 Y106.755 E26.65571
G1 X93.245 Y120.671 E27.70572
G1 X93.502 Y120.414 E27.72506
G1 X79.586 Y106.498 E28.77507
G1 X79.842 Y106.242 E28.79440
G1 X93.758 Y120.158 E29.84441
G1 X94.116 Y120.004 F9000.000
G1 X79.996 Y105.884 F3600.000 E30.90980
G1 X79.996 Y105.371 E30.93715
G1 X94.629 Y120.004 E32.04122
G1 X95.141 Y120.004 E32.06857
G1 X79.996 Y104.859 E33.21132
G1 X79.996 Y104.346 E33.23867
G1 X95.654 Y120.004 E34.42010
G1 X96.167 Y120.004 E34.44745
G1 X79.996 Y103.833 E35.66756
G1 X79.996 Y103.321 E35.69491
G1 X96.679 Y120.004 E36.95370
G1 X97.192 Y120.004 E36.98105
G1 X79.996 Y102.808 E38.27852
G1 X79.996 Y102.295 E38.30587
G1 X97.705 Y120.004 E39.64201
G1 X98.217 Y120.004 E39.66936
G1 X79.996 Y101.783 E41.04419
G1 X79.996 Y101.270 E41.07154
G1 X98.730 Y120.004 E42.48504
G1 X99.242 Y120.004 E42.51239
G1 X79.996 Y100.758 E43.96458
G1 X79.996 Y100.245 E43.99193
G1 X99.755 Y120.004 E45.48279
G1 X100.268 Y120.004 E45.51014
G1 X79.996 Y99.732 E47.03968
G1 X79.996 Y99.220 E47.06703
G1 X100.780 Y120.004 E48.63525
G1 X101.293 Y120.004 E48.66260
G1 X79.996 Y98.707 E50.26950
G1 X79.996 Y98.194 E50.29685
G1 X101.806 Y120.004 E51.94243
G1 X102.318 Y120.004 E51.96978
G1 X79.996 Y97.682 E53.65404
G1 X79.996 Y97.169 E53.68139
G1 X102.831 Y120.004 E55.40432
G1 X103.343 Y120.004 E55.43167
G1 X79.996 Y96.657 E57.19329
G1 X79.996 Y96.144 E57.22064
G1 X103.856 Y120.004 E59.02094
G1 X104.369 Y120.004 E59.04829
G1 X79.996 Y95.631 E60.88726
G1 X79.996 Y95.119 E60.91461
G1 X104.881 Y120.004 E62.79226
G1 X105.394 Y120.004 E62.81961
G1 X79.996 Y94.606 E64.73595
G1 X79.996 Y94.093 E64.76330
G1 X105.907 Y120.004 E66.71831
G1 F1800.000 E65.71831
G92 E0
G1 X109.772 Y123.357 F9000.000
G1 F1800.000 E1.00000
G1 X76.643 Y90.228 F3600.000 E3.49965
G1 X76.643 Y89.715 E3.52700
G1 X110.285 Y123.357 E6.06533
G1 X110.797 Y123.357 E6.09268
G1 X76.643 Y89.203 E8.66968
G1 X76.643 Y88.690 E8.69703
G1 X111.310 Y123.357 E11.31272
G1 X111.822 Y123.357 E11.34007
G1 X76.643 Y88.178 E13.99443
G1 X76.643 Y87.665 E14.02178
G1 X112.335 Y123.357 E16.71483
G1 X112.848 Y123.357 E16.74218
G1 X76.643 Y87.152 E19.47390
G1 X76.643 Y86.640 E19.50125
G1 X113.360 Y123.357 E22.27165
G1 X113.873 Y123.357 E22.29900
G1 X76.643 Y86.127 E25.10808
G1 X76.643 Y85.614 E25.13543
G1 X114.386 Y123.357 E27.98319
G1 X114.898 Y123.357 E28.01054
G1 X76.643 Y85.102 E30.89698
G1 X76.643 Y84.589 E30.92433
G1 X115.411 Y123.357 E33.84945
G1 X115.924 Y123.357 E33.87680
G1 X76.643 Y84.076 E36.84060
G1 X76.643 Y83.564 E36.86795
G1 X116.436 Y123.357 E39.87042
G1 X116.949 Y123.357 E39.89777
G1 X76.643 Y83.051 E42.93893
G1 X76.643 Y82.539 E42.96628
G1 X117.461 Y123.357 E46.04611
G1 X117.974 Y123.357 E46.07347
G1 X76.643 Y82.026 E49.19198
G1 X76.643 Y81.513 E49.21933
G1 X118.487 Y123.357 E52.37652
G1 X118.999 Y123.357 E52.40387
G1 X76.643 Y81.001 E55.59974
G1 X76.643 Y80.488 E55.62709
G1 X119.512 Y123.357 E58.86165
G1 X120.025 Y123.357 E58.88900
G1 X76.643 Y79.975 E62.16223
G1 X76.643 Y79.463 E62.18958
G1 X120.537 Y123.357 E65.50149
G1 X121.050 Y123.357 E65.52884
G1 X76.643 Y78.950 E68.87943
G1 X76.643 Y78.438 E68.90678
G1 X121.562 Y123.357 E72.29604
G1 X122.075 Y123.357 E72.32339
G1 X76.643 Y77.925 E75.75134
G1 X76.643 Y77.412 E75.77869
G1 X122.588 Y123.357 E79.24532
G1 X123.100 Y123.357 E79.27267
G1 X76.643 Y76.900 E82.77797
G1 X76.900 Y76.643 E82.79731
G1 X123.357 Y123.100 E86.30262
G1 X123.357 Y122.588 E86.32997
G1 X77.412 Y76.643 E89.79659
G1 X77.925 Y76.643 E89.82394
G1 X123.357 Y122.075 E93.25189
G1 X123.357 Y121.562 E93.27924
G1 X78.438 Y76.643 E96.66851
G1 X78.950 Y76.643 E96.69586
G1 X123.357 Y121.050 E100.04645
G1 X123.357 Y120.537 E100.07380
G1 X79.463 Y76.643 E103.38571
G1 X79.975 Y76.643 E103.41306
G1 X123.357 Y120.025 E106.68629
G1 X123.357 Y119.512 E106.71364
G1 X80.488 Y76.643 E109.94819
G1 X81.001 Y76.643 E109.97554
G1 X123.357 Y118.999 E113.17141
G1 X123.357 Y118.487 E113.19876
G1 X81.513 Y76.643 E116.35596
G1 X82.026 Y76.643 E116.38331
G1 X123.357 Y117.974 E119.50182
G1 X123.357 Y117.461 E119.52917
G1 X82.539 Y76.643 E122.60901
G1 X83.051 Y76.643 E122.63636
G1 X123.357 Y116.949 E125.67751
G1 X123.357 Y116.436 E125.70486
G1 X83.564 Y76.643 E128.70734
G1 X84.076 Y76.643 E128.73469
G1 X123.357 Y115.924 E131.69849
G1 X123.357 Y115.411 E131.72584
G1 X84.589 Y76.643 E134.65096
G1 X85.102 Y76.643 E134.67831
G1 X123.357 Y114.898 E137.56475
G1 X123.357 Y114.386 E137.59210
G1 X85.614 Y76.643 E140.43986
G1 X86.127 Y76.643 E140.46721
G1 X123.357 Y113.873 E143.27629
G1 X123.357 Y113.360 E143.30364
G1 X86.640 Y76.643 E146.07404
G1 X87.152 Y76.643 E146.10139
G1 X123.357 Y112.848 E148.83311
G1 X123.357 Y112.335 E148.86046
G1 X87.665 Y76.643 E151.55351
G1 X88.177 Y76.643 E151.58086
G1 X123.357 Y111.823 E154.23522
G1 X123.357 Y111.310 E154.26257
G1 X88.690 Y76.643 E156.87826
G1 X89.203 Y76.643 E156.90561
G1 X123.357 Y110.797 E159.48261
G1 X123.357 Y110.285 E159.50996
G1 X89.715 Y76.643 E162.04829
G1 X90.228 Y76.643 E162.07564
G1 X123.357 Y109.772 E164.57529
G1 F1800.000 E163.57529
G92 E0
G1 X120.004 Y105.907 F9000.000
G1 F1800.000 E1.00000
G1 X94.093 Y79.996 F3600.000 E2.95501
G1 X94.606 Y79.996 E2.98236
G1 X120.004 Y105.394 E4.89869
G1 X120.004 Y104.881 E4.92605
G1 X95.119 Y79.996 E6.80370
G1 X95.631 Y79.996 E6.83105
G1 X120.004 Y104.369 E8.67002
G1 X120.004 Y103.856 E8.69737
G1 X96.144 Y79.996 E10.49767
G1 X96.657 Y79.996 E10.52502
G1 X120.004 Y103.343 E12.28664
G1 X120.004 Y102.831 E12.31399
G1 X97.169 Y79.996 E14.03692
G1 X97.682 Y79.996 E14.06427
G1 X120.004 Y102.318 E15.74853
G1 X120.004 Y101.806 E15.77588
G1 X98.194 Y79.996 E17.42146
G1 X98.707 Y79.996 E17.44881
G1 X120.004 Y101.293 E19.05571
G1 X120.004 Y100.780 E19.08306
G1 X99.220 Y79.996 E20.65128
G1 X99.732 Y79.996 E20.67863
G1 X120.004 Y100.268 E22.20817
G1 X120.004 Y99.755 E22.23552
G1 X100.245 Y79.996 E23.72639
G1 X100.758 Y79.996 E23.75374
G1 X120.004 Y99.242 E25.20592
G1 X120.004 Y98.730 E25.23327
G1 X101.270 Y79.996 E26.64677
G1 X101.783 Y79.996 E26.67412
G1 X120.004 Y98.217 E28.04895
G1 X120.004 Y97.705 E28.07630
G1 X102.295 Y79.996 E29.41245
G1 X102.808 Y79.996 E29.43980
G1 X120.004 Y97.192 E30.73726
G1 X120.004 Y96.679 E30.76461
G1 X103.321 Y79.996 E32.02340
G1 X103.833 Y79.996 E32.05075
G1 X120.004 Y96.167 E33.27086
G1 X120.004 Y95.654 E33.29821
G1 X104.346 Y79.996 E34.47964
G1 X104.859 Y79.996 E34.50699
G1 X120.004 Y95.141 E35.64974
G1 X120.004 Y94.629 E35.67709
G1 X105.371 Y79.996 E36.78116
G1 X105.884 Y79.996 E36.80851
G1 X120.004 Y94.116 E37.87390
G1 X120.158 Y93.758 F9000.000
G1 X106.242 Y79.842 F3600.000 E38.92391
G1 X106.498 Y79.586 E38.94325
G1 X120.414 Y93.502 E39.99326
G1 X120.671 Y93.245 E40.01259
G1 X106.755 Y79.329 E41.06260
G1 X107.011 Y79.073 E41.08194
G1 X120.927 Y92.989 E42.13195
G1 X121.183 Y92.733 E42.15129
G1 X107.267 Y78.817 E43.20129
G1 X107.524 Y78.560 E43.22063
G1 X121.440 Y92.476 E44.27064
G1 X121.696 Y92.220 E44.28998
G1 X107.780 Y78.304 E45.33999
G1 X108.036 Y78.048 E45.35933
G1 X121.952 Y91.964 E46.40933
G1 X122.209 Y91.707 E46.42867
G1 X108.293 Y77.791 E47.47868
G1 X108.549 Y77.535 E47.49802
G1 X122.465 Y91.451 E48.54802
G1 X122.721 Y91.195 E48.56736
G1 X108.805 Y77.279 E49.61737
G1 X109.062 Y77.022 E49.63671
G1 X122.978 Y90.938 E50.68672
G1 X123.234 Y90.682 E50.70606
G1 X109.318 Y76.766 E51.75606
G1 X109.708 Y76.643 E51.77787
G1 X123.357 Y90.292 E52.80771
G1 X123.357 Y89.780 E52.83506
G1 X110.220 Y76.643 E53.82623
G1 X110.733 Y76.643 E53.85358
