; generated by Slic3r 0.7.1 on 2012-05-10 at 19:14:46

; layer_height = .35
; perimeters = 2
; solid_layers = 2
; fill_density = .42
; nozzle_diameter = .35
; filament_diameter = 1.75
; extrusion_multiplier = 1
; perimeter_speed = 30
; infill_speed = 60
; travel_speed = 150
; extrusion_width_ratio = 0
; scale = 1
; single wall width = 0.37mm

M190 S80 ; set bed temperature
M104 S185 ; set temperature

M109 S185 ; wait for temperature to be reached
G90 ; use absolute coordinates
G21 ; set units to millimeters
G92 E0 ; reset extrusion distance
M82 ; use absolute distances for extrusion
G1 Z0.350 F9000.000
G1 X84.702 Y89.108
G1 F1800.000 E1.00000
G1 X84.852 Y88.868 F1800.000 E1.01498
G1 X85.202 Y88.408 E1.04557
G1 X85.592 Y87.978 E1.07630
G1 X86.242 Y87.418 E1.12171
G1 X86.972 Y86.868 E1.17009
G1 X87.462 Y86.558 E1.20078
G1 X87.972 Y86.298 E1.23108
G1 X88.782 Y85.998 E1.27680
G1 X89.342 Y85.858 E1.30735
G1 X89.622 Y85.808 E1.32241
G1 X90.192 Y85.748 E1.35274
G1 X97.782 Y85.608 E1.75455
G1 X104.272 Y85.858 E2.09831
G1 X108.612 Y86.448 E2.33014
G1 X110.722 Y86.968 E2.44516
G1 X111.712 Y87.308 E2.50057
G1 X114.372 Y88.498 E2.65481
G1 X116.362 Y89.638 E2.77620
G1 X117.762 Y90.638 E2.86726
G1 X118.612 Y91.378 E2.92691
G1 X118.772 Y91.538 E2.93889
G1 X119.402 Y92.278 E2.99033
G1 X119.512 Y92.428 E3.00017
G1 X120.072 Y93.348 E3.05718
G1 X120.382 Y94.038 E3.09722
G1 X120.492 Y94.338 E3.11413
G1 X120.582 Y94.648 E3.13122
G1 X120.722 Y95.318 E3.16745
G1 X120.812 Y96.368 E3.22323
G1 X120.812 Y103.618 E3.60697
G1 X120.722 Y104.668 E3.66274
G1 X120.582 Y105.338 E3.69897
G1 X120.492 Y105.648 E3.71606
G1 X120.262 Y106.238 E3.74958
G1 X120.072 Y106.638 E3.77302
G1 X119.512 Y107.558 E3.83002
G1 X119.402 Y107.708 E3.83987
G1 X118.772 Y108.448 E3.89131
G1 X117.832 Y109.298 E3.95839
G1 X116.702 Y110.128 E4.03260
G1 X114.142 Y111.608 E4.18911
G1 X111.712 Y112.678 E4.32965
G1 X110.722 Y113.018 E4.38505
G1 X108.452 Y113.568 E4.50868
G1 X104.272 Y114.138 E4.73197
G1 X98.232 Y114.388 E5.05194
G1 X90.182 Y114.238 E5.47810
G1 X89.612 Y114.178 E5.50843
G1 X88.782 Y113.988 E5.55350
G1 X88.232 Y113.798 E5.58430
G1 X87.972 Y113.688 E5.59924
G1 X87.462 Y113.428 E5.62954
G1 X86.972 Y113.118 E5.66023
G1 X86.042 Y112.418 E5.72184
G1 X85.492 Y111.898 E5.76191
G1 X80.592 Y106.348 E6.15377
G1 X80.272 Y105.918 E6.18214
G1 X79.862 Y105.218 E6.22508
G1 X79.542 Y104.468 E6.26824
G1 X79.322 Y103.688 E6.31114
G1 X79.232 Y103.158 E6.33959
G1 X79.202 Y102.888 E6.35397
G1 X79.192 Y100.648 E6.47253
G1 X79.242 Y100.068 E6.50335
G1 X79.422 Y99.198 E6.55037
G1 X80.872 Y95.428 E6.76417
G1 X81.292 Y94.588 E6.81387
G1 X84.673 Y89.155 E7.15258
G1 X85.002 Y89.298 F9000.000
G1 X85.172 Y89.038 F1800.000 E7.16902
G1 X85.552 Y88.548 E7.20184
G1 X85.982 Y88.098 E7.23479
G1 X87.182 Y87.158 E7.31547
G1 X87.882 Y86.748 E7.35841
G1 X88.122 Y86.628 E7.37261
G1 X88.622 Y86.428 E7.40112
G1 X89.142 Y86.278 E7.42976
G1 X89.672 Y86.168 E7.45841
G1 X90.212 Y86.108 E7.48717
G1 X97.782 Y85.968 E7.88791
G1 X104.822 Y86.268 E8.26088
G1 X108.532 Y86.798 E8.45924
G1 X110.002 Y87.138 E8.53910
G1 X111.592 Y87.658 E8.62764
G1 X113.872 Y88.648 E8.75921
G1 X115.692 Y89.648 E8.86912
G1 X117.532 Y90.918 E8.98746
G1 X117.932 Y91.248 E9.01491
G1 X118.512 Y91.798 E9.05722
G1 X119.112 Y92.488 E9.10561
G1 X119.222 Y92.638 E9.11546
G1 X119.752 Y93.508 E9.16938
G1 X120.052 Y94.168 E9.20775
G1 X120.152 Y94.448 E9.22349
G1 X120.362 Y95.318 E9.27086
G1 X120.372 Y95.378 E9.27408
G1 X120.452 Y96.368 E9.32665
G1 X120.452 Y103.618 E9.71039
G1 X120.372 Y104.608 E9.76296
G1 X120.232 Y105.248 E9.79764
G1 X120.152 Y105.538 E9.81356
G1 X120.052 Y105.818 E9.82930
G1 X119.752 Y106.478 E9.86767
G1 X119.222 Y107.348 E9.92159
G1 X119.112 Y107.498 E9.93144
G1 X118.512 Y108.188 E9.97984
G1 X118.002 Y108.678 E10.01727
G1 X117.602 Y109.018 E10.04506
G1 X116.492 Y109.828 E10.11779
G1 X114.532 Y110.998 E10.23861
G1 X113.992 Y111.278 E10.27080
G1 X112.112 Y112.128 E10.38001
G1 X110.602 Y112.668 E10.46489
G1 X109.992 Y112.848 E10.49855
G1 X107.842 Y113.318 E10.61504
G1 X104.822 Y113.728 E10.77635
G1 X97.862 Y114.028 E11.14508
G1 X90.212 Y113.878 E11.55007
G1 X89.672 Y113.818 E11.57883
G1 X89.142 Y113.708 E11.60748
G1 X88.622 Y113.558 E11.63613
G1 X88.122 Y113.358 E11.66463
G1 X87.872 Y113.238 E11.67931
G1 X87.182 Y112.828 E11.72179
G1 X86.272 Y112.138 E11.78224
G1 X85.752 Y111.648 E11.82006
G1 X80.702 Y105.898 E12.22511
G1 X80.402 Y105.448 E12.25374
G1 X80.142 Y104.968 E12.28263
G1 X79.842 Y104.218 E12.32539
G1 X79.692 Y103.688 E12.35454
G1 X79.592 Y103.158 E12.38309
G1 X79.562 Y102.888 E12.39747
G1 X79.552 Y100.668 E12.51498
G1 X79.642 Y99.838 E12.55916
G1 X79.772 Y99.298 E12.58856
G1 X79.852 Y99.038 E12.60296
G1 X81.042 Y95.968 E12.77724
G1 X81.472 Y94.998 E12.83340
G1 X84.973 Y89.345 E13.18535
G1 F1800.000 E12.18535
G92 E0
G1 X90.954 Y106.940 F9000.000
G1 F1800.000 E1.00000
G1 X103.287 Y105.880 F1800.000 E1.65519
G1 X103.942 Y105.923 E1.68993
G1 X105.779 Y106.496 E1.79176
G1 X106.200 Y106.600 E1.81473
G1 X106.716 Y106.685 E1.84241
G1 X107.055 Y106.711 E1.86037
G1 X107.719 Y106.687 E1.89554
G1 X107.911 Y106.664 E1.90582
G1 X108.633 Y106.516 E1.94480
G1 X108.667 Y106.516 E1.94658
G1 X109.297 Y106.310 E1.98169
G1 X109.742 Y106.122 E2.00725
G1 X110.113 Y105.933 E2.02927
G1 X110.433 Y105.743 E2.04899
G1 X110.714 Y105.551 E2.06700
G1 X110.963 Y105.359 E2.08363
G1 X111.225 Y105.131 E2.10204
G1 X112.557 Y103.781 E2.20237
G1 X112.711 Y103.642 E2.21339
G1 X112.904 Y103.490 E2.22637
G1 X113.118 Y103.356 E2.23976
G1 X113.297 Y103.280 E2.25003
G1 X113.400 Y103.255 E2.25564
G1 X113.525 Y103.245 E2.26227
G1 X113.776 Y103.271 E2.27564
G1 X113.866 Y103.297 E2.28060
G1 X113.965 Y103.344 E2.28642
G1 X113.996 Y103.368 E2.28849
G1 X114.015 Y103.387 E2.28994
G1 X114.061 Y103.458 E2.29439
G1 X114.083 Y103.519 E2.29784
G1 X114.092 Y103.589 E2.30156
G1 X114.091 Y103.594 E2.30183
G1 X114.081 Y103.611 E2.30287
G1 X113.998 Y103.722 E2.31020
G1 X113.874 Y103.848 E2.31960
G1 X113.496 Y104.162 E2.34559
G1 X112.831 Y104.635 E2.38878
G1 X111.360 Y105.494 E2.47893
G1 X109.516 Y106.327 E2.58604
G1 X108.555 Y106.654 E2.63974
G1 X106.969 Y107.016 E2.72589
G1 X103.990 Y107.421 E2.88499
G1 X97.976 Y107.667 E3.20359
G1 X90.954 Y107.541 E3.57529
G1 X90.954 Y106.995 E3.60422
G1 X90.594 Y107.018 F9000.000
G1 X90.594 Y106.609 F1800.000 E3.62588
G1 X103.284 Y105.518 E4.30003
G1 X104.006 Y105.566 E4.33832
G1 X105.878 Y106.149 E4.44210
G1 X106.273 Y106.246 E4.46365
G1 X106.760 Y106.327 E4.48977
G1 X107.062 Y106.350 E4.50582
G1 X107.690 Y106.327 E4.53909
G1 X107.854 Y106.308 E4.54779
G1 X108.597 Y106.156 E4.58793
G1 X108.609 Y106.156 E4.58860
G1 X109.171 Y105.972 E4.61985
G1 X109.590 Y105.795 E4.64394
G1 X109.939 Y105.617 E4.66467
G1 X110.239 Y105.439 E4.68315
G1 X110.502 Y105.259 E4.70003
G1 X110.734 Y105.080 E4.71554
G1 X110.978 Y104.868 E4.73264
G1 X112.307 Y103.521 E4.83281
G1 X112.479 Y103.365 E4.84508
G1 X112.480 Y103.365 E4.84514
G1 X112.696 Y103.195 E4.85969
G1 X112.951 Y103.035 E4.87561
G1 X113.182 Y102.937 E4.88891
G1 X113.342 Y102.898 E4.89759
G1 X113.528 Y102.883 E4.90750
G1 X113.845 Y102.915 E4.92435
G1 X113.994 Y102.958 E4.93259
G1 X114.153 Y103.034 E4.94189
G1 X114.156 Y103.036 E4.94209
G1 X114.234 Y103.096 E4.94732
G1 X114.298 Y103.160 E4.95207
G1 X114.386 Y103.298 E4.96073
G1 X114.435 Y103.432 E4.96831
G1 X114.454 Y103.571 E4.97570
G1 X114.453 Y103.627 E4.97868
G1 X114.442 Y103.683 E4.98169
G1 X114.420 Y103.742 E4.98505
G1 X114.387 Y103.805 E4.98882
G1 X114.272 Y103.958 E4.99891
G1 X114.118 Y104.114 E5.01056
G1 X113.716 Y104.448 E5.03821
G1 X113.025 Y104.939 E5.08307
G1 X111.526 Y105.815 E5.17497
G1 X109.648 Y106.663 E5.28400
G1 X108.654 Y107.001 E5.33960
G1 X107.033 Y107.371 E5.42760
G1 X104.022 Y107.781 E5.58845
G1 X97.980 Y108.028 E5.90851
G1 X90.594 Y107.896 E6.29952
G1 X90.594 Y107.510 E6.31991
G1 X90.098 Y107.510 E6.34617
G1 X90.098 Y107.018 E6.37224
G1 X90.539 Y107.018 E6.39557
G1 F1800.000 E5.39557
G92 E0
G1 X99.671 Y101.028 F9000.000
G1 F1800.000 E1.00000
G1 X99.822 Y100.539 F1800.000 E1.02710
G1 X100.017 Y100.020 E1.05641
G1 X110.725 Y100.020 E1.62317
G1 X110.793 Y100.583 E1.65320
G1 X110.802 Y100.812 E1.66531
G1 X110.789 Y101.028 E1.67675
G1 X99.726 Y101.028 E2.26232
G1 X99.654 Y101.132 F9000.000
G1 X110.799 Y101.132 F1800.000 E2.85221
G1 X110.736 Y101.474 E2.87062
G1 X110.665 Y101.765 E2.88644
G1 X110.541 Y102.140 E2.90735
G1 X99.583 Y102.140 E3.48735
G1 X99.586 Y101.705 E3.51035
G1 X99.611 Y101.414 E3.52580
G1 X99.646 Y101.187 E3.53799
G1 X99.582 Y102.244 F9000.000
G1 X110.404 Y102.244 F1800.000 E4.11084
G1 X110.458 Y102.337 E4.11648
G1 X110.276 Y102.649 E4.13561
G1 X110.083 Y102.940 E4.15409
G1 X109.837 Y103.252 E4.17510
G1 X100.465 Y103.252 E4.67118
G1 X100.053 Y103.025 E4.69605
G1 X99.983 Y102.974 E4.70063
G1 X99.764 Y102.773 E4.71639
G1 X99.764 Y102.748 E4.71767
G1 X99.742 Y102.717 E4.71972
G1 X99.695 Y102.622 E4.72531
G1 X99.690 Y102.597 E4.72667
G1 X99.598 Y102.297 E4.74328
G1 F1800.000 E3.74328
G92 E0
G1 X100.051 Y99.918 F9000.000
G1 F1800.000 E1.00000
G1 X100.614 Y98.908 F1800.000 E1.06118
G1 X110.408 Y98.908 E1.57959
G1 X110.698 Y99.918 E1.63518
G1 X100.106 Y99.918 E2.19578
G1 X100.791 Y98.806 F9000.000
G1 X100.735 Y98.699 F1800.000 E2.20215
G1 X101.243 Y97.977 E2.24885
G1 X101.258 Y97.962 E2.25002
G1 X101.389 Y97.796 E2.26117
G1 X109.851 Y97.796 E2.70907
G1 X109.974 Y97.990 E2.72121
G1 X110.136 Y98.280 E2.73881
G1 X110.380 Y98.806 E2.76948
G1 X100.846 Y98.806 E3.27412
G1 X101.655 Y97.694 F9000.000
G1 X101.597 Y97.542 F1800.000 E3.28271
G1 X102.086 Y97.103 E3.31748
G1 X102.476 Y96.816 E3.34313
G1 X102.685 Y96.684 E3.35619
G1 X108.631 Y96.684 E3.67091
G1 X108.887 Y96.845 E3.68689
G1 X109.229 Y97.104 E3.70964
G1 X109.319 Y97.185 E3.71600
G1 X109.688 Y97.554 E3.74363
G1 X109.630 Y97.694 E3.75165
G1 X101.710 Y97.694 E4.17081
G1 F1800.000 E3.17081
G92 E0
G1 X103.512 Y96.582 F9000.000
G1 F1800.000 E1.00000
G1 X103.473 Y96.313 F1800.000 E1.01436
G1 X103.802 Y96.214 E1.03256
G1 X104.226 Y96.114 E1.05561
G1 X104.649 Y96.046 E1.07831
G1 X105.073 Y96.009 E1.10081
G1 X105.493 Y95.994 E1.12306
G1 X105.917 Y96.004 E1.14549
G1 X106.750 Y96.082 E1.18980
G1 X107.175 Y96.156 E1.21262
G1 X107.761 Y96.295 E1.24447
G1 X107.727 Y96.582 E1.25978
G1 X103.568 Y96.582 E1.47994
G1 F1800.000 E0.47994
G92 E0
G1 X101.713 Y103.356 F9000.000
G1 F1800.000 E1.00000
G1 X109.485 Y103.356 F1800.000 E1.41141
G1 X109.526 Y103.621 E1.42557
G1 X108.826 Y103.841 E1.46443
G1 X108.395 Y103.916 E1.48755
G1 X107.972 Y103.959 E1.51006
G1 X106.727 Y103.998 E1.57600
G1 X103.425 Y103.929 E1.75080
G1 X102.177 Y103.753 E1.81750
G1 X101.683 Y103.656 E1.84415
G1 X101.707 Y103.411 E1.85716
G1 F1800.000 E0.85716
G92 E0
G1 X95.335 Y103.661 F9000.000
G1 F1800.000 E1.00000
G1 X94.426 Y103.826 F1800.000 E1.04890
G1 X93.181 Y103.961 E1.11522
G1 X92.349 Y103.986 E1.15928
G1 X91.937 Y103.986 E1.18107
G1 X90.702 Y103.998 E1.24645
G1 X89.462 Y103.984 E1.31210
G1 X88.625 Y103.916 E1.35654
G1 X88.194 Y103.841 E1.37965
G1 X87.492 Y103.621 E1.41862
G1 X87.532 Y103.356 E1.43280
G1 X95.308 Y103.356 E1.84436
G1 X95.330 Y103.606 E1.85762
G1 X96.553 Y103.252 F9000.000
G1 X87.181 Y103.252 F1800.000 E2.35369
G1 X86.937 Y102.942 E2.37458
G1 X86.850 Y102.819 E2.38252
G1 X86.557 Y102.340 E2.41224
G1 X86.611 Y102.244 E2.41808
G1 X97.436 Y102.244 E2.99109
G1 X97.328 Y102.597 E3.01062
G1 X97.324 Y102.620 E3.01184
G1 X97.280 Y102.715 E3.01738
G1 X97.211 Y102.812 E3.02369
G1 X97.035 Y102.974 E3.03636
G1 X96.965 Y103.025 E3.04095
G1 X96.601 Y103.225 E3.06290
G1 X97.437 Y102.140 F9000.000
G1 X86.477 Y102.140 F1800.000 E3.64301
G1 X86.353 Y101.765 E3.66392
G1 X86.282 Y101.474 E3.67974
G1 X86.219 Y101.132 E3.69815
G1 X97.364 Y101.132 E4.28804
G1 X97.406 Y101.414 E4.30311
G1 X97.434 Y101.705 E4.31857
G1 X97.437 Y102.085 E4.33868
G1 X97.360 Y101.028 F9000.000
G1 X86.214 Y101.028 F1800.000 E4.92864
G1 X86.225 Y100.585 E4.95210
G1 X86.293 Y100.020 E4.98219
G1 X97.004 Y100.020 E5.54910
G1 X97.341 Y100.976 E5.60274
G1 X96.970 Y99.918 F9000.000
G1 X86.323 Y99.918 F1800.000 E6.16627
G1 X86.609 Y98.908 E6.22181
G1 X96.404 Y98.908 E6.74023
G1 X96.943 Y99.870 E6.79857
G1 X96.230 Y98.806 F9000.000
G1 X86.638 Y98.806 F1800.000 E7.30629
G1 X86.882 Y98.280 E7.33696
G1 X87.044 Y97.990 E7.35456
G1 X87.167 Y97.796 E7.36670
G1 X95.628 Y97.796 E7.81453
G1 X95.741 Y97.936 E7.82404
G1 X96.286 Y98.697 E7.87361
G1 X96.256 Y98.757 E7.87714
G1 X95.362 Y97.694 F9000.000
G1 X87.388 Y97.694 F1800.000 E8.29919
G1 X87.330 Y97.554 E8.30722
G1 X87.700 Y97.184 E8.33490
G1 X87.792 Y97.104 E8.34134
G1 X88.133 Y96.845 E8.36401
G1 X88.387 Y96.684 E8.37990
G1 X94.335 Y96.684 E8.69476
G1 X94.544 Y96.816 E8.70781
G1 X94.934 Y97.103 E8.73348
G1 X95.420 Y97.543 E8.76816
G1 X95.382 Y97.642 E8.77380
G1 F1800.000 E7.77380
G92 E0
G1 X93.505 Y96.582 F9000.000
G1 F1800.000 E1.00000
G1 X89.293 Y96.582 F1800.000 E1.22296
G1 X89.259 Y96.295 E1.23823
G1 X89.843 Y96.156 E1.26998
G1 X90.265 Y96.082 E1.29269
G1 X90.687 Y96.033 E1.31515
G1 X91.495 Y95.994 E1.35794
G1 X91.947 Y96.009 E1.38190
G1 X92.369 Y96.046 E1.40431
G1 X92.792 Y96.114 E1.42700
G1 X93.216 Y96.214 E1.45005
G1 X93.545 Y96.313 E1.46825
G1 X93.514 Y96.527 E1.47969
G1 F1800.000 E0.47969
G92 E0
G1 X97.820 Y101.248 F9000.000
G1 F1800.000 E1.00000
G1 X97.869 Y101.276 F1800.000 E1.00300
G1 X98.184 Y101.389 E1.02069
G1 X98.510 Y101.421 E1.03805
G1 X98.834 Y101.389 E1.05529
G1 X99.149 Y101.276 E1.07297
G1 X99.230 Y101.230 E1.07794
G1 X99.231 Y101.229 E1.07801
G1 X99.182 Y101.388 E1.08684
G1 X99.252 Y101.388 E1.09053
G1 X99.226 Y101.688 E1.10646
G1 X99.224 Y101.884 E1.11680
G1 X99.094 Y101.884 E1.12370
G1 X99.221 Y102.298 E1.14664
G1 X99.219 Y102.500 E1.15735
G1 X99.283 Y102.500 E1.16072
G1 X99.340 Y102.685 E1.17097
G1 X99.350 Y102.740 E1.17393
G1 X99.404 Y102.847 E1.18022
G1 X99.404 Y102.931 E1.18467
G1 X99.754 Y103.253 E1.20988
G1 X99.859 Y103.330 E1.21677
G1 X100.155 Y103.493 E1.23464
G1 X99.007 Y103.340 E1.29594
G1 X98.513 Y103.247 E1.32253
G1 X97.613 Y103.406 E1.37091
G1 X96.894 Y103.476 E1.40916
G1 X97.159 Y103.330 E1.42516
G1 X97.264 Y103.253 E1.43206
G1 X97.483 Y103.051 E1.44784
G1 X97.593 Y102.896 E1.45787
G1 X97.669 Y102.733 E1.46741
G1 X97.678 Y102.685 E1.46997
G1 X97.735 Y102.500 E1.48022
G1 X97.801 Y102.500 E1.48370
G1 X97.799 Y102.292 E1.49475
G1 X97.924 Y101.884 E1.51733
G1 X97.796 Y101.884 E1.52413
G1 X97.794 Y101.686 E1.53457
G1 X97.766 Y101.388 E1.55041
G1 X97.870 Y101.388 E1.55588
G1 X97.838 Y101.300 E1.56083
G1 X98.021 Y100.948 F9000.000
G1 X98.263 Y101.035 F1800.000 E1.57448
G1 X98.510 Y101.059 E1.58760
G1 X98.755 Y101.035 E1.60060
G1 X98.997 Y100.948 E1.61425
G1 X99.034 Y100.926 E1.61649
G1 X99.246 Y100.772 E1.63036
G1 X99.297 Y100.721 E1.63422
G1 X99.479 Y100.492 E1.64965
G1 X99.532 Y100.413 E1.65470
G1 X99.689 Y100.121 E1.67223
G1 X100.320 Y98.716 E1.75377
G1 X100.464 Y98.465 E1.76907
G1 X101.115 Y97.598 E1.82650
G1 X101.514 Y97.164 E1.85765
G1 X101.913 Y96.802 E1.88620
G1 X102.234 Y96.561 E1.90747
G1 X102.703 Y96.281 E1.93636
G1 X103.096 Y96.103 E1.95919
G1 X103.492 Y95.966 E1.98137
G1 X103.887 Y95.868 E2.00289
G1 X104.285 Y95.804 E2.02424
G1 X104.684 Y95.767 E2.04542
G1 X105.083 Y95.754 E2.06658
G1 X105.890 Y95.789 E2.10932
G1 X106.694 Y95.897 E2.15225
G1 X107.277 Y96.028 E2.18387
G1 X107.899 Y96.222 E2.21838
G1 X108.298 Y96.377 E2.24102
G1 X108.714 Y96.571 E2.26534
G1 X109.197 Y96.844 E2.29472
G1 X109.599 Y97.116 E2.32039
G1 X109.932 Y97.382 E2.34297
G1 X110.053 Y97.507 E2.35215
G1 X110.070 Y97.529 E2.35363
G1 X110.130 Y97.620 E2.35938
