; generated by Slic3r 0.7.1 on 2012-05-12 at 20:43:12

; layer_height = .35
; perimeters = 2
; solid_layers = 2
; fill_density = .42
; nozzle_diameter = .35
; filament_diameter = 1.75
; extrusion_multiplier = 1
; perimeter_speed = 30
; infill_speed = 60
; travel_speed = 150
; extrusion_width_ratio = 0
; scale = 1
; single wall width = 0.37mm

M190 S80 ; set bed temperature
M104 S185 ; set temperature

M109 S185 ; wait for temperature to be reached
G90 ; use absolute coordinates
G21 ; set units to millimeters
G92 E0 ; reset extrusion distance
M82 ; use absolute distances for extrusion
G1 Z0.350 F9000.000
G1 X81.099 Y89.333
G1 F1800.000 E1.00000
G1 X81.349 Y88.873 F1800.000 E1.02771
G1 X81.629 Y88.433 E1.05532
G1 X81.949 Y88.023 E1.08284
G1 X82.489 Y87.453 E1.12440
G1 X82.879 Y87.113 E1.15179
G1 X83.299 Y86.813 E1.17911
G1 X83.749 Y86.543 E1.20688
G1 X84.209 Y86.303 E1.23435
G1 X84.689 Y86.113 E1.26167
G1 X94.249 Y83.143 E1.79153
G1 X94.869 Y83.013 E1.82506
G1 X95.189 Y82.973 E1.84213
G1 X95.829 Y82.943 E1.87605
G1 X113.719 Y82.943 E2.82296
G1 X114.249 Y82.993 E2.85113
G1 X114.769 Y83.073 E2.87898
G1 X115.529 Y83.283 E2.92071
G1 X115.769 Y83.373 E2.93428
G1 X116.489 Y83.713 E2.97643
G1 X117.159 Y84.123 E3.01800
G1 X117.369 Y84.283 E3.03198
G1 X117.769 Y84.623 E3.05976
G1 X117.959 Y84.803 E3.07362
G1 X118.139 Y84.993 E3.08747
G1 X118.479 Y85.393 E3.11525
G1 X118.639 Y85.603 E3.12923
G1 X119.049 Y86.273 E3.17080
G1 X119.389 Y86.993 E3.21295
G1 X119.479 Y87.233 E3.22652
G1 X119.689 Y87.993 E3.26825
G1 X119.799 Y88.773 E3.30994
G1 X119.819 Y89.043 E3.32427
G1 X119.819 Y111.203 E4.49719
G1 X119.769 Y111.733 E4.52537
G1 X119.689 Y112.253 E4.55322
G1 X119.479 Y113.013 E4.59495
G1 X119.389 Y113.253 E4.60852
G1 X119.049 Y113.973 E4.65066
G1 X118.639 Y114.643 E4.69224
G1 X118.479 Y114.853 E4.70621
G1 X118.139 Y115.253 E4.73400
G1 X117.959 Y115.443 E4.74785
G1 X117.769 Y115.623 E4.76171
G1 X117.369 Y115.963 E4.78949
G1 X117.159 Y116.123 E4.80347
G1 X116.489 Y116.533 E4.84504
G1 X115.769 Y116.873 E4.88719
G1 X115.529 Y116.963 E4.90075
G1 X114.769 Y117.173 E4.94249
G1 X113.989 Y117.283 E4.98418
G1 X113.719 Y117.303 E4.99851
G1 X95.539 Y117.293 E5.96077
G1 X94.959 Y117.243 E5.99158
G1 X94.379 Y117.133 E6.02283
G1 X94.099 Y117.063 E6.03811
G1 X84.569 Y113.893 E6.56970
G1 X84.079 Y113.683 E6.59792
G1 X83.609 Y113.433 E6.62609
G1 X83.169 Y113.143 E6.65399
G1 X82.749 Y112.823 E6.68193
G1 X82.549 Y112.653 E6.69583
G1 X82.169 Y112.273 E6.72427
G1 X81.829 Y111.873 E6.75206
G1 X81.669 Y111.663 E6.76603
G1 X81.379 Y111.223 E6.79392
G1 X81.119 Y110.753 E6.82235
G1 X80.909 Y110.273 E6.85009
G1 X80.739 Y109.773 E6.87804
G1 X80.609 Y109.253 E6.90641
G1 X80.519 Y108.733 E6.93434
G1 X80.469 Y108.203 E6.96252
G1 X80.469 Y91.843 E7.82845
G1 X80.549 Y91.063 E7.86995
G1 X80.659 Y90.553 E7.89756
G1 X80.809 Y90.053 E7.92519
G1 X81.078 Y89.384 E7.96336
G1 X81.359 Y89.643 F9000.000
G1 X81.709 Y88.963 F1800.000 E8.00384
G1 X82.149 Y88.343 E8.04408
G1 X82.489 Y87.963 E8.07107
G1 X82.849 Y87.613 E8.09765
G1 X83.049 Y87.443 E8.11154
G1 X83.449 Y87.143 E8.13800
G1 X83.879 Y86.873 E8.16488
G1 X84.339 Y86.643 E8.19210
G1 X84.809 Y86.453 E8.21893
G1 X94.339 Y83.493 E8.74712
G1 X94.629 Y83.423 E8.76291
G1 X95.229 Y83.333 E8.79503
G1 X95.829 Y83.303 E8.82682
G1 X113.969 Y83.323 E9.78697
G1 X114.719 Y83.433 E9.82709
G1 X115.219 Y83.563 E9.85443
G1 X115.699 Y83.733 E9.88138
G1 X116.159 Y83.943 E9.90815
G1 X116.389 Y84.063 E9.92188
G1 X116.609 Y84.193 E9.93541
G1 X117.229 Y84.633 E9.97565
G1 X117.609 Y84.973 E10.00264
G1 X117.789 Y85.153 E10.01611
G1 X118.129 Y85.533 E10.04310
G1 X118.569 Y86.153 E10.08334
G1 X118.699 Y86.373 E10.09686
G1 X118.929 Y86.833 E10.12409
G1 X119.119 Y87.303 E10.15092
G1 X119.269 Y87.793 E10.17804
G1 X119.329 Y88.043 E10.19165
G1 X119.439 Y88.793 E10.23177
G1 X119.439 Y111.453 E11.43116
G1 X119.329 Y112.203 E11.47128
G1 X119.199 Y112.703 E11.49862
G1 X119.029 Y113.183 E11.52558
G1 X118.819 Y113.643 E11.55234
G1 X118.699 Y113.873 E11.56607
G1 X118.569 Y114.093 E11.57960
G1 X118.129 Y114.713 E11.61984
G1 X117.789 Y115.093 E11.64683
G1 X117.609 Y115.273 E11.66030
G1 X117.229 Y115.613 E11.68729
G1 X116.609 Y116.053 E11.72753
G1 X116.389 Y116.183 E11.74105
G1 X115.929 Y116.413 E11.76828
G1 X115.459 Y116.603 E11.79511
G1 X114.969 Y116.753 E11.82223
G1 X114.719 Y116.813 E11.83584
G1 X113.969 Y116.923 E11.87596
G1 X113.459 Y116.943 E11.90298
G1 X95.509 Y116.933 E12.85306
G1 X95.189 Y116.913 E12.87003
G1 X94.239 Y116.733 E12.92121
G1 X84.689 Y113.553 E13.45398
G1 X83.979 Y113.223 E13.49542
G1 X83.759 Y113.103 E13.50868
G1 X83.539 Y112.963 E13.52248
G1 X83.119 Y112.663 E13.54980
G1 X82.539 Y112.143 E13.59103
G1 X82.199 Y111.763 E13.61802
G1 X81.749 Y111.133 E13.65900
G1 X81.489 Y110.683 E13.68651
G1 X81.179 Y109.973 E13.72751
G1 X81.029 Y109.473 E13.75514
G1 X80.919 Y108.973 E13.78224
G1 X80.849 Y108.463 E13.80949
G1 X80.849 Y91.593 E14.70241
G1 X80.959 Y90.843 E14.74253
G1 X81.089 Y90.353 E14.76937
G1 X81.259 Y89.873 E14.79632
G1 X81.337 Y89.694 E14.80668
G1 F1800.000 E13.80668
G92 E0
G1 X96.193 Y89.671 F9000.000
G1 F1800.000 E1.00000
G1 X113.105 Y89.671 F1800.000 E1.89511
G1 X113.105 Y110.583 E3.00193
G1 X96.193 Y110.583 E3.89703
G1 X96.193 Y89.727 E5.00094
G1 X95.833 Y89.311 F9000.000
G1 X113.465 Y89.311 F1800.000 E5.93422
G1 X113.465 Y110.943 E7.07922
G1 X95.833 Y110.943 E8.01250
G1 X95.833 Y89.366 E9.15458
G1 F1800.000 E8.15458
G92 E0
G1 X88.105 Y106.671 F9000.000
G1 F1800.000 E1.00000
G1 X88.105 Y107.583 F1800.000 E1.04823
G1 X87.193 Y107.583 E1.09646
G1 X87.193 Y106.671 E1.14470
G1 X88.049 Y106.671 E1.19001
G1 X88.465 Y106.311 F9000.000
G1 X88.465 Y107.943 F1800.000 E1.27642
G1 X86.833 Y107.943 E1.36282
G1 X86.833 Y106.311 E1.44923
G1 X88.410 Y106.311 E1.53272
G1 F1800.000 E0.53272
G92 E0
G1 X88.105 Y93.383 F9000.000
G1 F1800.000 E1.00000
G1 X87.193 Y93.383 F1800.000 E1.04823
G1 X87.193 Y92.471 E1.09646
G1 X88.105 Y92.471 E1.14470
G1 X88.105 Y93.327 E1.19001
G1 X88.465 Y93.743 F9000.000
G1 X86.833 Y93.743 F1800.000 E1.27642
G1 X86.833 Y92.111 E1.36282
G1 X88.465 Y92.111 E1.44923
G1 X88.465 Y93.688 E1.53272
G1 F1800.000 E0.53272
G92 E0
G1 X96.774 Y110.326 F9000.000
G1 F1800.000 E1.00000
G1 X96.450 Y110.002 F3600.000 E1.02475
G1 X96.450 Y109.485 E1.05261
G1 X97.291 Y110.326 E1.11677
G1 X97.807 Y110.326 E1.14463
G1 X96.450 Y108.969 E1.24819
G1 X96.450 Y108.453 E1.27606
G1 X98.323 Y110.326 E1.41903
G1 X98.840 Y110.326 E1.44689
G1 X96.450 Y107.936 E1.62927
G1 X96.450 Y107.420 E1.65713
G1 X99.356 Y110.326 E1.87892
G1 X99.873 Y110.326 E1.90678
G1 X96.450 Y106.903 E2.16797
G1 X96.450 Y106.387 E2.19584
G1 X100.389 Y110.326 E2.49643
G1 X100.905 Y110.326 E2.52430
G1 X96.450 Y105.871 E2.86431
G1 X96.450 Y105.354 E2.89217
G1 X101.422 Y110.326 E3.27158
G1 X101.938 Y110.326 E3.29945
G1 X96.450 Y104.838 E3.71827
G1 X96.450 Y104.321 E3.74613
G1 X102.455 Y110.326 E4.20436
G1 X102.971 Y110.326 E4.23223
G1 X96.450 Y103.805 E4.72986
G1 X96.450 Y103.289 E4.75773
G1 X103.487 Y110.326 E5.29477
G1 X104.004 Y110.326 E5.32263
G1 X96.450 Y102.772 E5.89908
G1 X96.450 Y102.256 E5.92695
G1 X104.520 Y110.326 E6.54280
G1 X105.037 Y110.326 E6.57067
G1 X96.450 Y101.739 E7.22593
G1 X96.450 Y101.223 E7.25380
G1 X105.553 Y110.326 E7.94847
G1 X106.069 Y110.326 E7.97633
G1 X96.450 Y100.707 E8.71041
G1 X96.450 Y100.190 E8.73828
G1 X106.586 Y110.326 E9.51176
G1 X107.102 Y110.326 E9.53963
G1 X96.450 Y99.674 E10.35252
G1 X96.450 Y99.157 E10.38039
G1 X107.619 Y110.326 E11.23269
G1 X108.135 Y110.326 E11.26055
G1 X96.450 Y98.641 E12.15226
G1 X96.450 Y98.125 E12.18013
G1 X108.651 Y110.326 E13.11124
G1 X109.168 Y110.326 E13.13911
G1 X96.450 Y97.608 E14.10963
G1 X96.450 Y97.092 E14.13749
G1 X109.684 Y110.326 E15.14742
G1 X110.200 Y110.326 E15.17529
G1 X96.450 Y96.576 E16.22463
G1 X96.450 Y96.059 E16.25249
G1 X110.717 Y110.326 E17.34124
G1 X111.233 Y110.326 E17.36910
G1 X96.450 Y95.543 E18.49725
G1 X96.450 Y95.026 E18.52512
G1 X111.750 Y110.326 E19.69268
G1 X112.266 Y110.326 E19.72054
G1 X96.450 Y94.510 E20.92751
G1 X96.450 Y93.994 E20.95538
G1 X112.782 Y110.326 E22.20175
G1 X112.848 Y109.875 E22.22633
G1 X96.450 Y93.477 E23.47771
G1 X96.450 Y92.961 E23.50557
G1 X112.848 Y109.359 E24.75695
G1 X112.848 Y108.842 E24.78482
G1 X96.450 Y92.444 E26.03619
G1 X96.450 Y91.928 E26.06406
G1 X112.848 Y108.326 E27.31544
G1 X112.848 Y107.810 E27.34330
G1 X96.450 Y91.412 E28.59468
G1 X96.450 Y90.895 E28.62254
G1 X112.848 Y107.293 E29.87392
G1 X112.848 Y106.777 E29.90179
G1 X96.450 Y90.379 E31.15316
G1 X96.516 Y89.928 E31.17775
G1 X112.848 Y106.260 E32.42412
G1 X112.848 Y105.744 E32.45198
G1 X97.032 Y89.928 E33.65895
G1 X97.548 Y89.928 E33.68682
G1 X112.848 Y105.228 E34.85438
G1 X112.848 Y104.711 E34.88224
G1 X98.065 Y89.928 E36.01039
G1 X98.581 Y89.928 E36.03826
G1 X112.848 Y104.195 E37.12700
G1 X112.848 Y103.678 E37.15487
G1 X99.098 Y89.928 E38.20421
G1 X99.614 Y89.928 E38.23207
G1 X112.848 Y103.162 E39.24200
G1 X112.848 Y102.646 E39.26987
G1 X100.130 Y89.928 E40.24039
G1 X100.647 Y89.928 E40.26825
G1 X112.848 Y102.129 E41.19937
G1 X112.848 Y101.613 E41.22723
G1 X101.163 Y89.928 E42.11894
G1 X101.679 Y89.928 E42.14681
G1 X112.848 Y101.097 E42.99911
G1 X112.848 Y100.580 E43.02697
G1 X102.196 Y89.928 E43.83987
G1 X102.712 Y89.928 E43.86773
G1 X112.848 Y100.064 E44.64122
G1 X112.848 Y99.547 E44.66908
G1 X103.229 Y89.928 E45.40316
G1 X103.745 Y89.928 E45.43103
G1 X112.848 Y99.031 E46.12570
G1 X112.848 Y98.515 E46.15356
G1 X104.261 Y89.928 E46.80883
G1 X104.778 Y89.928 E46.83669
G1 X112.848 Y97.998 E47.45255
G1 X112.848 Y97.482 E47.48041
G1 X105.294 Y89.928 E48.05686
G1 X105.811 Y89.928 E48.08473
G1 X112.848 Y96.965 E48.62177
G1 X112.848 Y96.449 E48.64964
G1 X106.327 Y89.928 E49.14727
G1 X106.843 Y89.928 E49.17514
G1 X112.848 Y95.933 E49.63336
G1 X112.848 Y95.416 E49.66123
G1 X107.360 Y89.928 E50.08005
G1 X107.876 Y89.928 E50.10791
G1 X112.848 Y94.900 E50.48733
G1 X112.848 Y94.383 E50.51519
G1 X108.393 Y89.928 E50.85520
G1 X108.909 Y89.928 E50.88306
G1 X112.848 Y93.867 E51.18366
G1 X112.848 Y93.351 E51.21153
G1 X109.425 Y89.928 E51.47272
G1 X109.942 Y89.928 E51.50058
G1 X112.848 Y92.834 E51.72237
G1 X112.848 Y92.318 E51.75023
G1 X110.458 Y89.928 E51.93261
G1 X110.975 Y89.928 E51.96047
G1 X112.848 Y91.801 E52.10344
G1 X112.848 Y91.285 E52.13131
G1 X111.491 Y89.928 E52.23487
G1 X112.007 Y89.928 E52.26273
G1 X112.848 Y90.769 E52.32689
G1 X112.848 Y90.252 E52.35475
G1 X112.524 Y89.928 E52.37950
G1 F1800.000 E51.37950
G92 E0
G1 X87.848 Y107.326 F9000.000
G1 F1800.000 E1.00000
G1 X87.450 Y106.928 F3600.000 E1.03706
G1 F1800.000 E0.03706
G92 E0
G1 X87.848 Y93.126 F9000.000
G1 F1800.000 E1.00000
G1 X87.450 Y92.728 F3600.000 E1.03706
G1 F1800.000 E0.03706
G92 E0
G1 Z0.700 F9000.000
G1 X96.193 Y89.671
G1 F1800.000 E1.00000
G1 X113.105 Y89.671 F1800.000 E1.89511
G1 X113.105 Y110.583 E3.00193
G1 X96.193 Y110.583 E3.89703
G1 X96.193 Y89.727 E5.00094
G1 X95.833 Y89.311 F9000.000
G1 X113.465 Y89.311 F1800.000 E5.93422
G1 X113.465 Y110.943 E7.07922
G1 X95.833 Y110.943 E8.01250
G1 X95.833 Y89.366 E9.15458
G1 F1800.000 E8.15458
G92 E0
G1 X88.105 Y106.671 F9000.000
G1 F1800.000 E1.00000
G1 X88.105 Y107.583 F1800.000 E1.04823
G1 X87.193 Y107.583 E1.09646
G1 X87.193 Y106.671 E1.14470
G1 X88.049 Y106.671 E1.19001
G1 X88.465 Y106.311 F9000.000
G1 X88.465 Y107.943 F1800.000 E1.27642
G1 X86.833 Y107.943 E1.36282
G1 X86.833 Y106.311 E1.44923
G1 X88.410 Y106.311 E1.53272
G1 F1800.000 E0.53272
G92 E0
G1 X88.105 Y93.383 F9000.000
G1 F1800.000 E1.00000
G1 X87.193 Y93.383 F1800.000 E1.04823
G1 X87.193 Y92.471 E1.09646
G1 X88.105 Y92.471 E1.14470
G1 X88.105 Y93.327 E1.19001
G1 X88.465 Y93.743 F9000.000
G1 X86.833 Y93.743 F1800.000 E1.27642
G1 X86.833 Y92.111 E1.36282
G1 X88.465 Y92.111 E1.44923
G1 X88.465 Y93.688 E1.53272
G1 F1800.000 E0.53272
G92 E0
G1 X96.450 Y90.252 F9000.000
G1 F1800.000 E1.00000
G1 X96.774 Y89.928 F3600.000 E1.02475
G1 X97.291 Y89.928 E1.05261
G1 X96.450 Y90.769 E1.11677
G1 X96.450 Y91.285 E1.14463
G1 X97.807 Y89.928 E1.24819
G1 X98.323 Y89.928 E1.27606
G1 X96.450 Y91.801 E1.41903
G1 X96.450 Y92.318 E1.44689
G1 X98.840 Y89.928 E1.62927
G1 X99.356 Y89.928 E1.65713
G1 X96.450 Y92.834 E1.87892
G1 X96.450 Y93.351 E1.90678
G1 X99.873 Y89.928 E2.16797
G1 X100.389 Y89.928 E2.19584
G1 X96.450 Y93.867 E2.49644
G1 X96.450 Y94.383 E2.52430
G1 X100.905 Y89.928 E2.86431
G1 X101.422 Y89.928 E2.89217
G1 X96.450 Y94.900 E3.27158
G1 X96.450 Y95.416 E3.29945
G1 X101.938 Y89.928 E3.71827
G1 X102.455 Y89.928 E3.74613
G1 X96.450 Y95.933 E4.20436
G1 X96.450 Y96.449 E4.23223
G1 X102.971 Y89.928 E4.72986
G1 X103.487 Y89.928 E4.75773
G1 X96.450 Y96.965 E5.29477
G1 X96.450 Y97.482 E5.32263
G1 X104.004 Y89.928 E5.89908
G1 X104.520 Y89.928 E5.92695
G1 X96.450 Y97.998 E6.54281
G1 X96.450 Y98.515 E6.57067
G1 X105.037 Y89.928 E7.22593
G1 X105.553 Y89.928 E7.25380
G1 X96.450 Y99.031 E7.94847
G1 X96.450 Y99.547 E7.97634
G1 X106.069 Y89.928 E8.71041
G1 X106.586 Y89.928 E8.73828
G1 X96.450 Y100.064 E9.51177
G1 X96.450 Y100.580 E9.53963
G1 X107.102 Y89.928 E10.35252
G1 X107.619 Y89.928 E10.38039
G1 X96.450 Y101.097 E11.23269
G1 X96.450 Y101.613 E11.26056
G1 X108.135 Y89.928 E12.15226
G1 X108.651 Y89.928 E12.18013
G1 X96.450 Y102.129 E13.11124
G1 X96.450 Y102.646 E13.13911
G1 X109.168 Y89.928 E14.10963
G1 X109.684 Y89.928 E14.13750
G1 X96.450 Y103.162 E15.14743
G1 X96.450 Y103.678 E15.17529
G1 X110.200 Y89.928 E16.22463
G1 X110.717 Y89.928 E16.25249
G1 X96.450 Y104.195 E17.34124
G1 X96.450 Y104.711 E17.36910
G1 X111.233 Y89.928 E18.49726
G1 X111.750 Y89.928 E18.52512
G1 X96.450 Y105.228 E19.69268
G1 X96.450 Y105.744 E19.72055
G1 X112.266 Y89.928 E20.92751
G1 X112.782 Y89.928 E20.95538
G1 X96.450 Y106.260 E22.20175
G1 X96.450 Y106.777 E22.22962
G1 X112.848 Y90.379 E23.48099
G1 X112.848 Y90.895 E23.50886
G1 X96.450 Y107.293 E24.76024
G1 X96.450 Y107.810 E24.78810
G1 X112.848 Y91.412 E26.03948
G1 X112.848 Y91.928 E26.06734
G1 X96.450 Y108.326 E27.31872
G1 X96.450 Y108.842 E27.34659
G1 X112.848 Y92.444 E28.59796
G1 X112.848 Y92.961 E28.62583
G1 X96.450 Y109.359 E29.87720
G1 X96.450 Y109.875 E29.90507
G1 X112.848 Y93.477 E31.15645
G1 X112.848 Y93.994 E31.18431
G1 X96.516 Y110.326 E32.43069
G1 X97.032 Y110.326 E32.45855
G1 X112.848 Y94.510 E33.66552
G1 X112.848 Y95.026 E33.69338
G1 X97.548 Y110.326 E34.86094
G1 X98.065 Y110.326 E34.88881
G1 X112.848 Y95.543 E36.01696
G1 X112.848 Y96.059 E36.04482
G1 X98.581 Y110.326 E37.13357
G1 X99.098 Y110.326 E37.16143
G1 X112.848 Y96.576 E38.21077
G1 X112.848 Y97.092 E38.23864
G1 X99.614 Y110.326 E39.24857
G1 X100.130 Y110.326 E39.27643
G1 X112.848 Y97.608 E40.24695
G1 X112.848 Y98.125 E40.27482
G1 X100.647 Y110.326 E41.20593
G1 X101.163 Y110.326 E41.23380
G1 X112.848 Y98.641 E42.12551
G1 X112.848 Y99.157 E42.15337
G1 X101.679 Y110.326 E43.00567
G1 X102.196 Y110.326 E43.03354
G1 X112.848 Y99.674 E43.84643
G1 X112.848 Y100.190 E43.87430
G1 X102.712 Y110.326 E44.64778
G1 X103.229 Y110.326 E44.67565
G1 X112.848 Y100.707 E45.40973
G1 X112.848 Y101.223 E45.43759
G1 X103.745 Y110.326 E46.13226
G1 X104.261 Y110.326 E46.16013
G1 X112.848 Y101.739 E46.81539
G1 X112.848 Y102.256 E46.84326
G1 X104.778 Y110.326 E47.45911
G1 X105.294 Y110.326 E47.48698
G1 X112.848 Y102.772 E48.06343
G1 X112.848 Y103.289 E48.09129
G1 X105.811 Y110.326 E48.62834
G1 X106.327 Y110.326 E48.65620
G1 X112.848 Y103.805 E49.15384
G1 X112.848 Y104.321 E49.18170
G1 X106.843 Y110.326 E49.63993
G1 X107.360 Y110.326 E49.66779
G1 X112.848 Y104.838 E50.08661
G1 X112.848 Y105.354 E50.11448
G1 X107.876 Y110.326 E50.49389
