; generated by Slic3r 0.7.1 on 2012-05-12 at 12:33:37

; layer_height = .35
; perimeters = 1
; solid_layers = 1
; fill_density = .25
; nozzle_diameter = .35
; filament_diameter = 1.75
; extrusion_multiplier = 1
; perimeter_speed = 30
; infill_speed = 60
; travel_speed = 150
; extrusion_width_ratio = 0
; scale = 1
; single wall width = 0.37mm

M190 S80 ; set bed temperature
M104 S185 ; set temperature

M109 S185 ; wait for temperature to be reached
G90 ; use absolute coordinates
G21 ; set units to millimeters
G92 E0 ; reset extrusion distance
M82 ; use absolute distances for extrusion
G1 Z0.350 F9000.000
G1 X68.250 Y97.434
G1 F1800.000 E1.00000
G1 X95.480 Y87.334 F1800.000 E2.53722
G1 X95.500 Y87.324 E2.53841
G1 X95.800 Y87.214 E2.55532
G1 X96.820 Y86.934 E2.61130
G1 X97.750 Y86.784 E2.66116
G1 X129.920 Y83.994 E4.37030
G1 X130.190 Y83.994 E4.38459
G1 X131.160 Y84.064 E4.43607
G1 X131.420 Y84.104 E4.44999
G1 X132.140 Y84.264 E4.48903
G1 X132.850 Y84.504 E4.52870
G1 X133.830 Y84.944 E4.58556
G1 X134.060 Y85.074 E4.59954
G1 X134.780 Y85.554 E4.64534
G1 X135.210 Y85.884 E4.67403
G1 X135.420 Y86.064 E4.68867
G1 X135.990 Y86.654 E4.73209
G1 X136.160 Y86.854 E4.74599
G1 X136.680 Y87.564 E4.79257
G1 X137.060 Y88.184 E4.83106
G1 X137.460 Y89.084 E4.88319
G1 X137.730 Y89.964 E4.93191
G1 X137.850 Y90.454 E4.95861
G1 X137.930 Y90.954 E4.98541
G1 X137.980 Y91.724 E5.02625
G1 X137.940 Y92.694 E5.07764
G1 X137.910 Y92.954 E5.09149
G1 X137.720 Y93.944 E5.14485
G1 X137.500 Y94.654 E5.18419
G1 X137.090 Y95.554 E5.23654
G1 X136.580 Y96.414 E5.28946
G1 X136.430 Y96.624 E5.30312
G1 X135.750 Y97.424 E5.35869
G1 X135.210 Y97.934 E5.39801
G1 X134.840 Y98.234 E5.42322
G1 X134.010 Y98.784 E5.47592
G1 X110.170 Y112.474 E6.93101
G1 X107.590 Y113.624 E7.08052
G1 X105.580 Y114.304 E7.19284
G1 X103.570 Y114.824 E7.30273
G1 X101.460 Y115.204 E7.41621
G1 X99.360 Y115.424 E7.52797
G1 X97.720 Y115.484 E7.61483
G1 X70.780 Y115.464 E9.04075
G1 X70.290 Y115.424 E9.06677
G1 X69.270 Y115.254 E9.12151
G1 X68.790 Y115.134 E9.14769
G1 X67.750 Y114.774 E9.20595
G1 X67.300 Y114.574 E9.23201
G1 X66.380 Y114.074 E9.28743
G1 X65.770 Y113.674 E9.32604
G1 X65.210 Y113.224 E9.36407
G1 X64.690 Y112.714 E9.40262
G1 X64.080 Y112.034 E9.45097
G1 X63.520 Y111.284 E9.50051
G1 X63.180 Y110.714 E9.53564
G1 X62.950 Y110.274 E9.56192
G1 X62.540 Y109.294 E9.61815
G1 X62.390 Y108.834 E9.64376
G1 X62.140 Y107.764 E9.70192
G1 X62.070 Y107.274 E9.72812
G1 X62.010 Y106.244 E9.78273
G1 X62.030 Y105.524 E9.82085
G1 X62.070 Y105.054 E9.84582
G1 X62.250 Y104.104 E9.89699
G1 X62.510 Y103.204 E9.94658
G1 X62.680 Y102.744 E9.97254
G1 X63.130 Y101.784 E10.02865
G1 X63.610 Y100.974 E10.07849
G1 X64.020 Y100.424 E10.11480
G1 X64.340 Y100.044 E10.14109
G1 X65.050 Y99.334 E10.19424
G1 X65.770 Y98.734 E10.24385
G1 X66.330 Y98.354 E10.27967
G1 X66.750 Y98.104 E10.30554
G1 X67.680 Y97.654 E10.36022
G1 X68.198 Y97.453 E10.38964
G1 X68.370 Y97.764 F9000.000
G1 X95.600 Y87.664 F1800.000 E11.92687
G1 X95.620 Y87.664 E11.92793
G1 X95.920 Y87.554 E11.94484
G1 X96.880 Y87.284 E11.99762
G1 X97.790 Y87.144 E12.04635
G1 X129.920 Y84.354 E13.75338
G1 X130.190 Y84.354 E13.76767
G1 X131.100 Y84.424 E13.81598
G1 X132.040 Y84.604 E13.86664
G1 X132.730 Y84.834 E13.90514
G1 X133.650 Y85.264 E13.95889
G1 X133.880 Y85.394 E13.97287
G1 X134.570 Y85.844 E14.01647
G1 X134.980 Y86.164 E14.04400
G1 X135.540 Y86.694 E14.08481
G1 X135.880 Y87.084 E14.11220
G1 X136.370 Y87.754 E14.15613
G1 X136.740 Y88.354 E14.19344
G1 X136.840 Y88.554 E14.20528
G1 X137.120 Y89.214 E14.24323
G1 X137.380 Y90.044 E14.28926
G1 X137.500 Y90.524 E14.31545
G1 X137.570 Y90.994 E14.34060
G1 X137.620 Y91.744 E14.38039
G1 X137.580 Y92.654 E14.42860
G1 X137.550 Y92.914 E14.44245
G1 X137.370 Y93.844 E14.49259
G1 X137.080 Y94.744 E14.54264
G1 X136.770 Y95.394 E14.58076
G1 X136.280 Y96.204 E14.63086
G1 X136.130 Y96.414 E14.64452
G1 X135.490 Y97.164 E14.69671
G1 X135.140 Y97.514 E14.72291
G1 X134.620 Y97.944 E14.75862
G1 X134.220 Y98.224 E14.78447
G1 X109.420 Y112.444 E16.29759
G1 X107.470 Y113.284 E16.40997
G1 X105.490 Y113.954 E16.52061
G1 X103.500 Y114.464 E16.62935
G1 X101.420 Y114.844 E16.74126
G1 X99.350 Y115.064 E16.85144
G1 X97.710 Y115.124 E16.93831
G1 X70.810 Y115.104 E18.36211
G1 X70.320 Y115.064 E18.38813
G1 X69.350 Y114.904 E18.44017
G1 X68.870 Y114.784 E18.46636
G1 X67.890 Y114.444 E18.52126
G1 X67.440 Y114.244 E18.54733
G1 X66.580 Y113.774 E18.59920
G1 X65.800 Y113.244 E18.64911
G1 X65.450 Y112.954 E18.67317
G1 X64.940 Y112.454 E18.71098
G1 X64.360 Y111.814 E18.75669
G1 X63.820 Y111.084 E18.80475
G1 X63.500 Y110.544 E18.83798
G1 X63.270 Y110.104 E18.86425
G1 X62.890 Y109.184 E18.91694
G1 X62.740 Y108.724 E18.94255
G1 X62.500 Y107.714 E18.99750
G1 X62.430 Y107.224 E19.02370
G1 X62.370 Y106.254 E19.07514
G1 X62.390 Y105.544 E19.11273
G1 X62.460 Y104.874 E19.14839
G1 X62.610 Y104.184 E19.18576
G1 X62.850 Y103.324 E19.23302
G1 X63.020 Y102.864 E19.25898
G1 X63.440 Y101.964 E19.31155
G1 X63.910 Y101.174 E19.36020
G1 X64.160 Y100.824 E19.38297
G1 X64.620 Y100.284 E19.42051
G1 X65.290 Y99.604 E19.47104
G1 X65.980 Y99.024 E19.51875
G1 X66.510 Y98.664 E19.55266
G1 X66.930 Y98.414 E19.57853
G1 X67.810 Y97.984 E19.63037
G1 X68.318 Y97.785 E19.65930
G1 F1800.000 E18.65930
G92 E0
G1 X70.463 Y103.395 F9000.000
G1 F1800.000 E1.00000
G1 X70.943 Y103.295 F1800.000 E1.02598
G1 X71.434 Y103.276 E1.05196
G1 X71.921 Y103.340 E1.07794
G1 X72.390 Y103.483 E1.10391
G1 X72.827 Y103.703 E1.12982
G1 X73.989 Y104.583 E1.20698
G1 X74.817 Y105.076 E1.25800
G1 X75.699 Y105.468 E1.30907
G1 X76.621 Y105.752 E1.36013
G1 X77.571 Y105.924 E1.41120
G1 X78.528 Y105.981 E1.46198
G1 X86.764 Y105.981 E1.89788
G1 X87.762 Y105.926 E1.95078
G1 X88.752 Y105.760 E2.00395
G1 X89.719 Y105.486 E2.05712
G1 X90.649 Y105.106 E2.11028
G1 X91.531 Y104.626 E2.16345
G1 X92.356 Y104.052 E2.21662
G1 X93.111 Y103.391 E2.26977
G1 X93.896 Y102.541 E2.33101
G1 X94.591 Y101.616 E2.39223
G1 X95.190 Y100.626 E2.45346
G1 X95.685 Y99.581 E2.51468
G1 X96.073 Y98.492 E2.57590
G1 X96.349 Y97.368 E2.63712
G1 X96.510 Y96.224 E2.69831
G1 X96.578 Y94.748 E2.77651
G1 X96.653 Y94.441 E2.79322
G1 X96.777 Y94.148 E2.81005
G1 X96.949 Y93.881 E2.82688
G1 X97.162 Y93.645 E2.84371
G1 X97.412 Y93.448 E2.86054
G1 X97.690 Y93.295 E2.87736
G1 X97.990 Y93.190 E2.89419
G1 X98.311 Y93.134 E2.91143
G1 X129.923 Y90.359 E4.59106
G1 X130.195 Y90.358 E4.60544
G1 X130.455 Y90.401 E4.61940
G1 X130.704 Y90.488 E4.63336
G1 X130.935 Y90.616 E4.64732
G1 X131.141 Y90.780 E4.66128
G1 X131.317 Y90.977 E4.67524
G1 X131.457 Y91.201 E4.68920
G1 X131.557 Y91.444 E4.70317
G1 X131.615 Y91.702 E4.71713
G1 X131.628 Y91.965 E4.73109
G1 X131.598 Y92.227 E4.74505
G1 X131.523 Y92.480 E4.75901
G1 X131.407 Y92.717 E4.77297
G1 X131.253 Y92.931 E4.78693
G1 X131.065 Y93.116 E4.80089
G1 X130.842 Y93.271 E4.81526
G1 X107.003 Y106.963 E6.27036
G1 X105.504 Y107.617 E6.35694
G1 X103.957 Y108.159 E6.44369
G1 X102.374 Y108.583 E6.53045
G1 X100.763 Y108.888 E6.61720
G1 X99.135 Y109.071 E6.70395
G1 X97.493 Y109.133 E6.79088
G1 X71.308 Y109.133 E8.17685
G1 X70.811 Y109.091 E8.20324
G1 X70.336 Y108.969 E8.22922
G1 X69.888 Y108.769 E8.25520
G1 X69.479 Y108.497 E8.28118
G1 X69.121 Y108.161 E8.30716
G1 X68.825 Y107.769 E8.33313
G1 X68.598 Y107.334 E8.35911
G1 X68.447 Y106.867 E8.38509
G1 X68.376 Y106.381 E8.41107
G1 X68.388 Y105.891 E8.43705
G1 X68.481 Y105.409 E8.46303
G1 X68.653 Y104.949 E8.48901
G1 X68.899 Y104.525 E8.51498
G1 X69.213 Y104.147 E8.54096
G1 X69.585 Y103.828 E8.56694
G1 X70.006 Y103.575 E8.59292
G1 X70.412 Y103.416 E8.61598
G1 F1800.000 E7.61598
G92 E0
G1 X70.330 Y108.629 F9000.000
G1 F1800.000 E1.00000
G1 X68.868 Y107.167 F3600.000 E1.11030
G1 X68.662 Y106.448 E1.15020
G1 X71.059 Y108.845 E1.33105
G1 X71.602 Y108.876 E1.36010
G1 X68.641 Y105.915 E1.58351
G1 X68.712 Y105.473 E1.60741
G1 X72.115 Y108.876 E1.86421
G1 X72.628 Y108.876 E1.89156
G1 X68.842 Y105.090 E2.17720
G1 X69.019 Y104.754 E2.19745
G1 X73.140 Y108.876 E2.50845
G1 X73.653 Y108.876 E2.53580
G1 X69.234 Y104.457 E2.86921
G1 X69.485 Y104.196 E2.88856
G1 X74.165 Y108.876 E3.24169
G1 X74.678 Y108.876 E3.26904
G1 X69.772 Y103.970 E3.63923
G1 X70.097 Y103.782 E3.65924
G1 X75.191 Y108.876 E4.04361
G1 X75.703 Y108.876 E4.07096
G1 X70.465 Y103.638 E4.46620
G1 X70.890 Y103.550 E4.48935
G1 X76.216 Y108.876 E4.89120
G1 X76.729 Y108.876 E4.91855
G1 X71.397 Y103.545 E5.32081
G1 X72.049 Y103.684 E5.35638
G1 X77.241 Y108.876 E5.74812
G1 X77.754 Y108.876 E5.77547
G1 X73.572 Y104.694 E6.09101
G1 X74.793 Y105.402 E6.16633
G1 X78.266 Y108.876 E6.42842
G1 X78.779 Y108.876 E6.45577
G1 X75.667 Y105.763 E6.69061
G1 X76.407 Y105.991 E6.73195
G1 X79.292 Y108.876 E6.94960
G1 X79.804 Y108.876 E6.97695
G1 X77.037 Y106.109 E7.18575
G1 X77.632 Y106.191 E7.21781
G1 X80.317 Y108.876 E7.42039
G1 X80.830 Y108.876 E7.44774
G1 X78.177 Y106.224 E7.64786
G1 X78.704 Y106.238 E7.67598
G1 X81.342 Y108.876 E7.87503
G1 X81.855 Y108.876 E7.90238
G1 X79.217 Y106.238 E8.10144
G1 X79.729 Y106.238 E8.12879
G1 X82.367 Y108.876 E8.32785
G1 X82.880 Y108.876 E8.35520
G1 X80.242 Y106.238 E8.55426
G1 X80.755 Y106.238 E8.58161
G1 X83.393 Y108.876 E8.78066
G1 X83.905 Y108.876 E8.80801
G1 X81.267 Y106.238 E9.00707
G1 X81.780 Y106.238 E9.03442
G1 X84.418 Y108.876 E9.23348
G1 X84.931 Y108.876 E9.26083
G1 X82.292 Y106.238 E9.45989
G1 X82.805 Y106.238 E9.48724
G1 X85.443 Y108.876 E9.68629
G1 X85.956 Y108.876 E9.71365
G1 X83.318 Y106.238 E9.91270
G1 X83.830 Y106.238 E9.94005
G1 X86.469 Y108.876 E10.13911
G1 X86.981 Y108.876 E10.16646
G1 X84.343 Y106.238 E10.36552
G1 X84.856 Y106.238 E10.39287
G1 X87.494 Y108.876 E10.59193
G1 X88.006 Y108.876 E10.61928
G1 X85.368 Y106.238 E10.81833
G1 X85.881 Y106.238 E10.84568
G1 X88.519 Y108.876 E11.04474
G1 X89.032 Y108.876 E11.07209
G1 X86.393 Y106.238 E11.27115
G1 X86.894 Y106.225 E11.29784
G1 X89.544 Y108.876 E11.49784
G1 X90.057 Y108.876 E11.52519
G1 X87.379 Y106.198 E11.72721
G1 X87.849 Y106.155 E11.75237
G1 X90.570 Y108.876 E11.95764
G1 X91.082 Y108.876 E11.98499
G1 X88.288 Y106.082 E12.19580
G1 X88.727 Y106.008 E12.21956
G1 X91.595 Y108.876 E12.43592
G1 X92.107 Y108.876 E12.46327
G1 X89.127 Y105.895 E12.68819
G1 X89.526 Y105.782 E12.71033
G1 X92.620 Y108.876 E12.94380
G1 X93.133 Y108.876 E12.97115
G1 X89.908 Y105.651 E13.21445
G1 X90.272 Y105.503 E13.23543
G1 X93.645 Y108.876 E13.48994
G1 X94.158 Y108.876 E13.51729
G1 X90.636 Y105.354 E13.78300
G1 X90.974 Y105.179 E13.80329
G1 X94.671 Y108.876 E14.08220
G1 X95.183 Y108.876 E14.10955
G1 X91.306 Y104.999 E14.40209
G1 X91.636 Y104.816 E14.42222
G1 X95.696 Y108.876 E14.72851
G1 X96.208 Y108.876 E14.75586
G1 X91.938 Y104.606 E15.07805
G1 X92.241 Y104.395 E15.09769
G1 X96.721 Y108.876 E15.43576
G1 X97.234 Y108.876 E15.46311
G1 X92.536 Y104.178 E15.81755
G1 X92.809 Y103.939 E15.83693
G1 X97.741 Y108.870 E16.20901
G1 X98.235 Y108.852 E16.23539
G1 X93.083 Y103.700 E16.62413
G1 X93.346 Y103.451 E16.64348
G1 X98.729 Y108.833 E17.04961
G1 X99.222 Y108.814 E17.07595
G1 X93.593 Y103.184 E17.50073
G1 X93.839 Y102.918 E17.52009
G1 X99.683 Y108.762 E17.96106
G1 X100.144 Y108.710 E17.98579
G1 X94.083 Y102.650 E18.44308
G1 X94.303 Y102.357 E18.46261
G1 X100.604 Y108.658 E18.93805
G1 X101.049 Y108.590 E18.96205
G1 X94.523 Y102.065 E19.45443
G1 X94.743 Y101.772 E19.47396
G1 X101.480 Y108.509 E19.98227
G1 X101.911 Y108.427 E20.00567
G1 X94.942 Y101.458 E20.53153
G1 X95.135 Y101.138 E20.55145
G1 X102.342 Y108.346 E21.09526
G1 X102.750 Y108.241 E21.11772
G1 X95.328 Y100.819 E21.67772
G1 X95.504 Y100.482 E21.69799
G1 X103.154 Y108.132 E22.27522
G1 X103.558 Y108.024 E22.29755
G1 X95.669 Y100.134 E22.89284
G1 X95.834 Y99.787 E22.91338
G1 X103.962 Y107.915 E23.52670
G1 X104.342 Y107.782 E23.54816
G1 X95.983 Y99.423 E24.17885
G1 X96.118 Y99.045 E24.20027
G1 X104.722 Y107.649 E24.84946
G1 X105.102 Y107.516 E24.87093
G1 X96.252 Y98.667 E25.53863
G1 X96.369 Y98.271 E25.56066
G1 X105.481 Y107.383 E26.24819
G1 X105.838 Y107.228 E26.26896
G1 X96.470 Y97.860 E26.97580
G1 X96.571 Y97.448 E26.99841
G1 X106.195 Y107.072 E27.72455
G1 X106.552 Y106.916 E27.74533
G1 X96.645 Y97.009 E28.49283
G1 X96.708 Y96.560 E28.51704
G1 X106.909 Y106.760 E29.28670
G1 X107.237 Y106.577 E29.30680
G1 X96.767 Y96.107 E30.09678
G1 X96.790 Y95.617 E30.12294
G1 X107.563 Y106.390 E30.93578
G1 X107.889 Y106.203 E30.95581
G1 X96.813 Y95.127 E31.79150
G1 X96.845 Y94.646 E31.81721
G1 X108.214 Y106.016 E32.67506
G1 X108.540 Y105.828 E32.69509
G1 X96.973 Y94.262 E33.56785
G1 X97.174 Y93.950 E33.58763
G1 X108.865 Y105.641 E34.46976
G1 X109.191 Y105.454 E34.48980
G1 X97.438 Y93.701 E35.37663
G1 X97.761 Y93.512 E35.39662
G1 X109.517 Y105.267 E36.28363
G1 X109.842 Y105.080 E36.30366
G1 X98.165 Y93.403 E37.18473
G1 X98.630 Y93.355 E37.20963
G1 X110.168 Y104.893 E38.08023
G1 X110.493 Y104.706 E38.10026
G1 X99.101 Y93.314 E38.95986
G1 X99.572 Y93.272 E38.98510
G1 X110.819 Y104.519 E39.83372
G1 X111.145 Y104.332 E39.85375
G1 X100.043 Y93.231 E40.69138
G1 X100.515 Y93.190 E40.71662
G1 X111.470 Y104.145 E41.54325
G1 X111.796 Y103.958 E41.56329
G1 X100.986 Y93.148 E42.37893
G1 X101.457 Y93.107 E42.40417
G1 X112.121 Y103.771 E43.20883
G1 X112.447 Y103.584 E43.22886
G1 X101.928 Y93.066 E44.02253
G1 X102.400 Y93.024 E44.04777
G1 X112.773 Y103.397 E44.83045
G1 X113.098 Y103.210 E44.85049
G1 X102.871 Y92.983 E45.62218
G1 X103.342 Y92.941 E45.64742
G1 X113.424 Y103.023 E46.40812
G1 X113.750 Y102.836 E46.42815
G1 X103.813 Y92.900 E47.17787
G1 X104.285 Y92.859 E47.20310
G1 X114.075 Y102.649 E47.94183
G1 X114.401 Y102.462 E47.96186
G1 X104.756 Y92.817 E48.68960
G1 X105.227 Y92.776 E48.71484
G1 X114.726 Y102.275 E49.43158
G1 X115.052 Y102.088 E49.45162
G1 X105.698 Y92.735 E50.15737
G1 X106.170 Y92.693 E50.18261
G1 X115.378 Y101.901 E50.87738
G1 X115.703 Y101.714 E50.89742
G1 X106.641 Y92.652 E51.58120
G1 X107.112 Y92.610 E51.60643
G1 X116.029 Y101.527 E52.27922
G1 X116.354 Y101.340 E52.29926
G1 X107.583 Y92.569 E52.96106
G1 X108.055 Y92.528 E52.98630
G1 X116.680 Y101.153 E53.63711
G1 X117.006 Y100.966 E53.65715
G1 X108.526 Y92.486 E54.29697
G1 X108.997 Y92.445 E54.32221
G1 X117.331 Y100.779 E54.95104
G1 X117.657 Y100.592 E54.97108
G1 X109.468 Y92.404 E55.58892
G1 X109.940 Y92.362 E55.61416
G1 X117.982 Y100.405 E56.22102
G1 X118.308 Y100.218 E56.24105
G1 X110.411 Y92.321 E56.83692
G1 X110.882 Y92.279 E56.86216
G1 X118.634 Y100.031 E57.44704
G1 X118.959 Y99.844 E57.46707
G1 X111.353 Y92.238 E58.04096
G1 X111.825 Y92.197 E58.06620
G1 X119.285 Y99.657 E58.62910
G1 X119.611 Y99.470 E58.64913
G1 X112.296 Y92.155 E59.20104
G1 X112.767 Y92.114 E59.22628
G1 X119.936 Y99.283 E59.76721
G1 X120.262 Y99.096 E59.78724
G1 X113.238 Y92.073 E60.31717
G1 X113.710 Y92.031 E60.34241
G1 X120.587 Y98.909 E60.86136
G1 X120.913 Y98.722 E60.88139
G1 X114.181 Y91.990 E61.38935
G1 X114.652 Y91.948 E61.41459
G1 X121.239 Y98.535 E61.91155
G1 X121.564 Y98.348 E61.93159
G1 X115.123 Y91.907 E62.41756
G1 X115.595 Y91.866 E62.44280
G1 X121.890 Y98.161 E62.91779
G1 X122.215 Y97.974 E62.93782
G1 X116.066 Y91.824 E63.40182
G1 X116.537 Y91.783 E63.42706
G1 X122.541 Y97.787 E63.88007
G1 X122.867 Y97.600 E63.90011
G1 X117.008 Y91.742 E64.34213
G1 X117.480 Y91.700 E64.36737
G1 X123.192 Y97.413 E64.79840
G1 X123.518 Y97.226 E64.81844
G1 X117.951 Y91.659 E65.23848
G1 X118.422 Y91.617 E65.26372
G1 X123.843 Y97.039 E65.67277
G1 X124.169 Y96.852 E65.69281
G1 X118.893 Y91.576 E66.09087
G1 X119.365 Y91.535 E66.11611
G1 X124.495 Y96.665 E66.50319
G1 X124.820 Y96.478 E66.52322
G1 X119.836 Y91.493 E66.89931
G1 X120.307 Y91.452 E66.92455
