; generated by Slic3r 0.7.1 on 2012-05-11 at 21:03:20

; layer_height = .35
; perimeters = 1
; solid_layers = 1
; fill_density = .25
; nozzle_diameter = .35
; filament_diameter = 1.75
; extrusion_multiplier = 1
; perimeter_speed = 30
; infill_speed = 60
; travel_speed = 150
; extrusion_width_ratio = 0
; scale = 1
; single wall width = 0.37mm

M190 S80 ; set bed temperature
M104 S185 ; set temperature

M109 S185 ; wait for temperature to be reached
G90 ; use absolute coordinates
G21 ; set units to millimeters
G92 E0 ; reset extrusion distance
M82 ; use absolute distances for extrusion
G1 Z0.350 F9000.000
G1 X70.100 Y70.470
G1 F1800.000 E1.00000
G1 X70.280 Y70.280 F1800.000 E1.01385
G1 X70.470 Y70.100 E1.02771
G1 X70.870 Y69.760 E1.05549
G1 X71.080 Y69.600 E1.06947
G1 X71.750 Y69.190 E1.11104
G1 X72.470 Y68.850 E1.15319
G1 X72.710 Y68.760 E1.16675
G1 X73.470 Y68.550 E1.20849
G1 X74.250 Y68.440 E1.25018
G1 X74.520 Y68.420 E1.26451
G1 X125.470 Y68.420 E3.96127
G1 X126.000 Y68.470 E3.98945
G1 X126.520 Y68.550 E4.01730
G1 X127.280 Y68.760 E4.05903
G1 X127.520 Y68.850 E4.07260
G1 X128.240 Y69.190 E4.11474
G1 X128.910 Y69.600 E4.15632
G1 X129.120 Y69.760 E4.17029
G1 X129.520 Y70.100 E4.19808
G1 X129.710 Y70.280 E4.21193
G1 X129.890 Y70.470 E4.22579
G1 X130.230 Y70.870 E4.25357
G1 X130.390 Y71.080 E4.26755
G1 X130.800 Y71.750 E4.30912
G1 X131.140 Y72.470 E4.35127
G1 X131.230 Y72.710 E4.36483
G1 X131.440 Y73.470 E4.40657
G1 X131.550 Y74.250 E4.44826
G1 X131.570 Y74.520 E4.46259
G1 X131.570 Y125.470 E7.15935
G1 X131.520 Y126.000 E7.18753
G1 X131.440 Y126.520 E7.21538
G1 X131.230 Y127.280 E7.25711
G1 X131.140 Y127.520 E7.27068
G1 X130.800 Y128.240 E7.31282
G1 X130.390 Y128.910 E7.35440
G1 X130.230 Y129.120 E7.36837
G1 X129.890 Y129.520 E7.39616
G1 X129.710 Y129.710 E7.41001
G1 X129.520 Y129.890 E7.42387
G1 X129.120 Y130.230 E7.45165
G1 X128.910 Y130.390 E7.46563
G1 X128.240 Y130.800 E7.50720
G1 X127.520 Y131.140 E7.54935
G1 X127.280 Y131.230 E7.56291
G1 X126.520 Y131.440 E7.60465
G1 X125.740 Y131.550 E7.64634
G1 X125.470 Y131.570 E7.66067
G1 X74.520 Y131.570 E10.35743
G1 X73.990 Y131.520 E10.38561
G1 X73.470 Y131.440 E10.41346
G1 X72.710 Y131.230 E10.45519
G1 X72.470 Y131.140 E10.46876
G1 X71.750 Y130.800 E10.51090
G1 X71.080 Y130.390 E10.55248
G1 X70.870 Y130.230 E10.56645
G1 X70.470 Y129.890 E10.59424
G1 X70.280 Y129.710 E10.60809
G1 X70.100 Y129.520 E10.62195
G1 X69.760 Y129.120 E10.64973
G1 X69.600 Y128.910 E10.66371
G1 X69.190 Y128.240 E10.70528
G1 X68.850 Y127.520 E10.74743
G1 X68.760 Y127.280 E10.76099
G1 X68.550 Y126.520 E10.80273
G1 X68.440 Y125.740 E10.84442
G1 X68.420 Y125.470 E10.85875
G1 X68.420 Y74.520 E13.55551
G1 X68.470 Y73.990 E13.58369
G1 X68.550 Y73.470 E13.61154
G1 X68.760 Y72.710 E13.65327
G1 X68.850 Y72.470 E13.66684
G1 X69.190 Y71.750 E13.70898
G1 X69.600 Y71.080 E13.75056
G1 X69.760 Y70.870 E13.76453
G1 X70.064 Y70.512 E13.78940
G1 X70.450 Y70.630 F9000.000
G1 X70.630 Y70.450 F1800.000 E13.80288
G1 X71.010 Y70.110 E13.82987
G1 X71.630 Y69.670 E13.87011
G1 X71.850 Y69.540 E13.88363
G1 X72.310 Y69.310 E13.91085
G1 X72.780 Y69.120 E13.93769
G1 X73.270 Y68.970 E13.96481
G1 X73.520 Y68.910 E13.97842
G1 X74.270 Y68.800 E14.01854
G1 X74.780 Y68.780 E14.04555
G1 X125.720 Y68.800 E16.74179
G1 X126.470 Y68.910 E16.78191
G1 X126.970 Y69.040 E16.80925
G1 X127.450 Y69.210 E16.83621
G1 X127.910 Y69.420 E16.86297
G1 X128.140 Y69.540 E16.87670
G1 X128.360 Y69.670 E16.89023
G1 X128.980 Y70.110 E16.93047
G1 X129.360 Y70.450 E16.95746
G1 X129.540 Y70.630 E16.97093
G1 X129.880 Y71.010 E16.99792
G1 X130.320 Y71.630 E17.03816
G1 X130.450 Y71.850 E17.05169
G1 X130.680 Y72.310 E17.07891
G1 X130.870 Y72.780 E17.10574
G1 X131.020 Y73.270 E17.13286
G1 X131.080 Y73.520 E17.14647
G1 X131.190 Y74.270 E17.18659
G1 X131.190 Y125.720 E19.90982
G1 X131.080 Y126.470 E19.94994
G1 X130.950 Y126.970 E19.97729
G1 X130.780 Y127.450 E20.00424
G1 X130.570 Y127.910 E20.03100
G1 X130.450 Y128.140 E20.04474
G1 X130.320 Y128.360 E20.05826
G1 X129.880 Y128.980 E20.09850
G1 X129.540 Y129.360 E20.12549
G1 X129.360 Y129.540 E20.13896
G1 X128.980 Y129.880 E20.16595
G1 X128.360 Y130.320 E20.20619
G1 X128.140 Y130.450 E20.21972
G1 X127.680 Y130.680 E20.24694
G1 X127.210 Y130.870 E20.27377
G1 X126.720 Y131.020 E20.30090
G1 X126.470 Y131.080 E20.31450
G1 X125.720 Y131.190 E20.35463
G1 X125.210 Y131.210 E20.38164
G1 X74.270 Y131.190 E23.07787
G1 X73.520 Y131.080 E23.11800
G1 X73.020 Y130.950 E23.14534
G1 X72.540 Y130.780 E23.17229
G1 X72.080 Y130.570 E23.19906
G1 X71.850 Y130.450 E23.21279
G1 X71.630 Y130.320 E23.22632
G1 X71.010 Y129.880 E23.26656
G1 X70.630 Y129.540 E23.29354
G1 X70.450 Y129.360 E23.30702
G1 X70.110 Y128.980 E23.33401
G1 X69.670 Y128.360 E23.37425
G1 X69.540 Y128.140 E23.38777
G1 X69.310 Y127.680 E23.41499
G1 X69.120 Y127.210 E23.44183
G1 X68.970 Y126.720 E23.46895
G1 X68.910 Y126.470 E23.48256
G1 X68.800 Y125.720 E23.52268
G1 X68.800 Y74.270 E26.24591
G1 X68.910 Y73.520 E26.28603
G1 X69.040 Y73.020 E26.31337
G1 X69.210 Y72.540 E26.34033
G1 X69.420 Y72.080 E26.36709
G1 X69.540 Y71.850 E26.38082
G1 X69.670 Y71.630 E26.39435
G1 X70.110 Y71.010 E26.43459
G1 X70.413 Y70.671 E26.45866
G1 F1800.000 E25.45866
G92 E0
G1 X74.784 Y74.784 F9000.000
G1 F1800.000 E1.00000
G1 X125.216 Y74.784 F1800.000 E3.66937
G1 X125.216 Y125.216 E6.33874
G1 X74.784 Y125.216 E9.00811
G1 X74.784 Y74.839 E11.67457
G1 F1800.000 E10.67457
G92 E0
G1 X124.640 Y75.040 F9000.000
G1 F1800.000 E1.00000
G1 X124.960 Y75.360 F3600.000 E1.02399
G1 X124.960 Y75.871 E1.05117
G1 X124.129 Y75.040 E1.11359
G1 X123.618 Y75.040 E1.14077
G1 X124.960 Y76.382 E1.24162
G1 X124.960 Y76.894 E1.26880
G1 X123.106 Y75.040 E1.40809
G1 X122.595 Y75.040 E1.43526
G1 X124.960 Y77.405 E1.61298
G1 X124.960 Y77.916 E1.64016
G1 X122.084 Y75.040 E1.85631
G1 X121.572 Y75.040 E1.88349
G1 X124.960 Y78.428 E2.13807
G1 X124.960 Y78.939 E2.16524
G1 X121.061 Y75.040 E2.45826
G1 X120.550 Y75.040 E2.48543
G1 X124.960 Y79.450 E2.81688
G1 X124.960 Y79.962 E2.84406
G1 X120.038 Y75.040 E3.21393
G1 X119.527 Y75.040 E3.24111
G1 X124.960 Y80.473 E3.64942
G1 X124.960 Y80.984 E3.67659
G1 X119.016 Y75.040 E4.12334
G1 X118.504 Y75.040 E4.15051
G1 X124.960 Y81.496 E4.63569
G1 X124.960 Y82.007 E4.66286
G1 X117.993 Y75.040 E5.18647
G1 X117.482 Y75.040 E5.21364
G1 X124.960 Y82.518 E5.77568
G1 X124.960 Y83.030 E5.80285
G1 X116.970 Y75.040 E6.40332
G1 X116.459 Y75.040 E6.43050
G1 X124.960 Y83.541 E7.06940
G1 X124.960 Y84.052 E7.09657
G1 X115.948 Y75.040 E7.77390
G1 X115.436 Y75.040 E7.80108
G1 X124.960 Y84.564 E8.51684
G1 X124.960 Y85.075 E8.54402
G1 X114.925 Y75.040 E9.29821
G1 X114.414 Y75.040 E9.32539
G1 X124.960 Y85.586 E10.11802
G1 X124.960 Y86.098 E10.14519
G1 X113.902 Y75.040 E10.97625
G1 X113.391 Y75.040 E11.00343
G1 X124.960 Y86.609 E11.87292
G1 X124.960 Y87.120 E11.90009
G1 X112.880 Y75.040 E12.80801
G1 X112.368 Y75.040 E12.83519
G1 X124.960 Y87.632 E13.78154
G1 X124.960 Y88.143 E13.80872
G1 X111.857 Y75.040 E14.79350
G1 X111.346 Y75.040 E14.82068
G1 X124.960 Y88.654 E15.84390
G1 X124.960 Y89.166 E15.87107
G1 X110.834 Y75.040 E16.93272
G1 X110.323 Y75.040 E16.95990
G1 X124.960 Y89.677 E18.05998
G1 X124.960 Y90.188 E18.08715
G1 X109.812 Y75.040 E19.22567
G1 X109.300 Y75.040 E19.25284
G1 X124.960 Y90.700 E20.42978
G1 X124.960 Y91.211 E20.45696
G1 X108.789 Y75.040 E21.67234
G1 X108.277 Y75.040 E21.69951
G1 X124.960 Y91.723 E22.95332
G1 X124.960 Y92.234 E22.98049
G1 X107.766 Y75.040 E24.27273
G1 X107.255 Y75.040 E24.29991
G1 X124.960 Y92.745 E25.63058
G1 X124.960 Y93.257 E25.65776
G1 X106.743 Y75.040 E27.02686
G1 X106.232 Y75.040 E27.05403
G1 X124.960 Y93.768 E28.46157
G1 X124.960 Y94.279 E28.48874
G1 X105.721 Y75.040 E29.93471
G1 X105.209 Y75.040 E29.96188
G1 X124.960 Y94.791 E31.44628
G1 X124.960 Y95.302 E31.47346
G1 X104.698 Y75.040 E32.99629
G1 X104.187 Y75.040 E33.02346
G1 X124.960 Y95.813 E34.58472
G1 X124.960 Y96.325 E34.61190
G1 X103.675 Y75.040 E36.21159
G1 X103.164 Y75.040 E36.23877
G1 X124.960 Y96.836 E37.87689
G1 X124.960 Y97.347 E37.90407
G1 X102.653 Y75.040 E39.58062
G1 X102.141 Y75.040 E39.60780
G1 X124.960 Y97.859 E41.32279
G1 X124.960 Y98.370 E41.34996
G1 X101.630 Y75.040 E43.10338
G1 X101.119 Y75.040 E43.13056
G1 X124.960 Y98.881 E44.92241
G1 X124.960 Y99.393 E44.94958
G1 X100.607 Y75.040 E46.77987
G1 X100.096 Y75.040 E46.80704
G1 X124.960 Y99.904 E48.67576
G1 X124.960 Y100.415 E48.70293
G1 X99.585 Y75.040 E50.61008
G1 X99.073 Y75.040 E50.63725
G1 X124.960 Y100.927 E52.58283
G1 X124.960 Y101.438 E52.61001
G1 X98.562 Y75.040 E54.59402
G1 X98.051 Y75.040 E54.62119
G1 X124.960 Y101.949 E56.64364
G1 X124.960 Y102.461 E56.67081
G1 X97.539 Y75.040 E58.73168
G1 X97.028 Y75.040 E58.75886
G1 X124.960 Y102.972 E60.85816
G1 X124.960 Y103.483 E60.88534
G1 X96.517 Y75.040 E63.02308
G1 X96.005 Y75.040 E63.05025
G1 X124.960 Y103.995 E65.22642
G1 X124.960 Y104.506 E65.25360
G1 X95.494 Y75.040 E67.46820
G1 X94.983 Y75.040 E67.49537
G1 X124.960 Y105.017 E69.74840
G1 X124.960 Y105.529 E69.77558
G1 X94.471 Y75.040 E72.06704
G1 X93.960 Y75.040 E72.09422
G1 X124.960 Y106.040 E74.42411
G1 X124.960 Y106.551 E74.45129
G1 X93.449 Y75.040 E76.81962
G1 X92.937 Y75.040 E76.84679
G1 X124.960 Y107.063 E79.25355
G1 X124.960 Y107.574 E79.28073
G1 X92.426 Y75.040 E81.72592
G1 X91.915 Y75.040 E81.75309
G1 X124.960 Y108.085 E84.23671
G1 X124.960 Y108.597 E84.26389
G1 X91.403 Y75.040 E86.78594
G1 X90.892 Y75.040 E86.81312
G1 X124.960 Y109.108 E89.37360
G1 X124.960 Y109.619 E89.40078
G1 X90.381 Y75.040 E91.99970
G1 X89.869 Y75.040 E92.02687
G1 X124.960 Y110.131 E94.66422
G1 X124.960 Y110.642 E94.69140
G1 X89.358 Y75.040 E97.36718
G1 X88.847 Y75.040 E97.39435
G1 X124.960 Y111.153 E100.10856
G1 X124.960 Y111.665 E100.13574
G1 X88.335 Y75.040 E102.88838
G1 X87.824 Y75.040 E102.91556
G1 X124.960 Y112.176 E105.70664
G1 X124.960 Y112.687 E105.73381
G1 X87.313 Y75.040 E108.56332
G1 X86.801 Y75.040 E108.59049
G1 X124.960 Y113.199 E111.45843
G1 X124.960 Y113.710 E111.48561
G1 X86.290 Y75.040 E114.39198
G1 X85.779 Y75.040 E114.41915
G1 X124.960 Y114.221 E117.36396
G1 X124.960 Y114.733 E117.39113
G1 X85.267 Y75.040 E120.37437
G1 X84.756 Y75.040 E120.40154
G1 X124.960 Y115.244 E123.42321
G1 X124.960 Y115.755 E123.45038
G1 X84.245 Y75.040 E126.51048
G1 X83.733 Y75.040 E126.53766
G1 X124.960 Y116.267 E129.63619
G1 X124.960 Y116.778 E129.66336
G1 X83.222 Y75.040 E132.80032
G1 X82.711 Y75.040 E132.82750
G1 X124.960 Y117.289 E136.00289
G1 X124.960 Y117.801 E136.03007
G1 X82.199 Y75.040 E139.24389
G1 X81.688 Y75.040 E139.27107
G1 X124.960 Y118.312 E142.52332
G1 X124.960 Y118.824 E142.55050
G1 X81.176 Y75.040 E145.84119
G1 X80.665 Y75.040 E145.86836
G1 X124.960 Y119.335 E149.19748
G1 X124.960 Y119.846 E149.22466
G1 X80.154 Y75.040 E152.59221
G1 X79.642 Y75.040 E152.61938
G1 X124.960 Y120.358 E156.02537
G1 X124.960 Y120.869 E156.05254
G1 X79.131 Y75.040 E159.49696
G1 X78.620 Y75.040 E159.52413
G1 X124.960 Y121.380 E163.00698
G1 X124.960 Y121.892 E163.03415
G1 X78.108 Y75.040 E166.55543
G1 X77.597 Y75.040 E166.58261
G1 X124.960 Y122.403 E170.14232
G1 X124.960 Y122.914 E170.16949
G1 X77.086 Y75.040 E173.76764
G1 X76.574 Y75.040 E173.79481
G1 X124.960 Y123.426 E177.43138
G1 X124.960 Y123.937 E177.45856
G1 X76.063 Y75.040 E181.13356
G1 X75.552 Y75.040 E181.16074
G1 X124.960 Y124.448 E184.87418
G1 X124.960 Y124.960 E184.90135
G1 X75.040 Y75.040 E188.65322
G1 X75.040 Y75.552 E188.68040
G1 X124.448 Y124.960 E192.39383
G1 X123.937 Y124.960 E192.42101
G1 X75.040 Y76.063 E196.09601
G1 X75.040 Y76.574 E196.12319
G1 X123.426 Y124.960 E199.75976
G1 X122.914 Y124.960 E199.78694
G1 X75.040 Y77.086 E203.38508
G1 X75.040 Y77.597 E203.41225
G1 X122.403 Y124.960 E206.97196
G1 X121.892 Y124.960 E206.99914
G1 X75.040 Y78.108 E210.52042
G1 X75.040 Y78.620 E210.54759
G1 X121.380 Y124.960 E214.03044
G1 X120.869 Y124.960 E214.05761
G1 X75.040 Y79.131 E217.50203
G1 X75.040 Y79.642 E217.52920
G1 X120.358 Y124.960 E220.93519
G1 X119.846 Y124.960 E220.96236
G1 X75.040 Y80.154 E224.32991
G1 X75.040 Y80.665 E224.35709
G1 X119.335 Y124.960 E227.68621
G1 X118.824 Y124.960 E227.71338
G1 X75.040 Y81.176 E231.00407
G1 X75.040 Y81.688 E231.03125
G1 X118.312 Y124.960 E234.28350
G1 X117.801 Y124.960 E234.31068
G1 X75.040 Y82.199 E237.52450
G1 X75.040 Y82.711 E237.55168
G1 X117.289 Y124.960 E240.72707
G1 X116.778 Y124.960 E240.75425
G1 X75.040 Y83.222 E243.89121
G1 X75.040 Y83.733 E243.91838
G1 X116.267 Y124.960 E247.01691
G1 X115.755 Y124.960 E247.04409
G1 X75.040 Y84.245 E250.10418
G1 X75.040 Y84.756 E250.13136
G1 X115.244 Y124.960 E253.15303
G1 X114.733 Y124.960 E253.18020
G1 X75.040 Y85.267 E256.16344
G1 X75.040 Y85.779 E256.19061
G1 X114.221 Y124.960 E259.13541
G1 X113.710 Y124.960 E259.16259
G1 X75.040 Y86.290 E262.06896
G1 X75.040 Y86.801 E262.09613
G1 X113.199 Y124.960 E264.96407
G1 X112.687 Y124.960 E264.99125
G1 X75.040 Y87.313 E267.82076
G1 X75.040 Y87.824 E267.84793
G1 X112.176 Y124.960 E270.63901
G1 X111.665 Y124.960 E270.66618
G1 X75.040 Y88.335 E273.41883
G1 X75.040 Y88.847 E273.44600
G1 X111.153 Y124.960 E276.16021
G1 X110.642 Y124.960 E276.18739
G1 X75.040 Y89.358 E278.86317
G1 X75.040 Y89.869 E278.89035
G1 X110.131 Y124.960 E281.52769
G1 X109.619 Y124.960 E281.55487
G1 X75.040 Y90.381 E284.15379
G1 X75.040 Y90.892 E284.18096
G1 X109.108 Y124.960 E286.74145
G1 X108.597 Y124.960 E286.76862
G1 X75.040 Y91.403 E289.29068
G1 X75.040 Y91.915 E289.31785
G1 X108.085 Y124.960 E291.80147
G1 X107.574 Y124.960 E291.82865
G1 X75.040 Y92.426 E294.27384
G1 X75.040 Y92.937 E294.30102
G1 X107.063 Y124.960 E296.70777
G1 X106.551 Y124.960 E296.73495
G1 X75.040 Y93.449 E299.10328
G1 X75.040 Y93.960 E299.13045
G1 X106.040 Y124.960 E301.46035
G1 X105.529 Y124.960 E301.48752
G1 X75.040 Y94.471 E303.77899
G1 X75.040 Y94.983 E303.80616
G1 X105.017 Y124.960 E306.05919
G1 X104.506 Y124.960 E306.08637
G1 X75.040 Y95.494 E308.30097
G1 X75.040 Y96.005 E308.32814
G1 X103.995 Y124.960 E310.50431
G1 X103.483 Y124.960 E310.53149
G1 X75.040 Y96.517 E312.66922
G1 X75.040 Y97.028 E312.69640
G1 X102.972 Y124.960 E314.79570
G1 X102.461 Y124.960 E314.82288
G1 X75.040 Y97.539 E316.88375
G1 X75.040 Y98.051 E316.91093
G1 X101.949 Y124.960 E318.93337
G1 X101.438 Y124.960 E318.96054
G1 X75.040 Y98.562 E320.94455
G1 X75.040 Y99.073 E320.97173
G1 X100.927 Y124.960 E322.91731
G1 X100.415 Y124.960 E322.94448
G1 X75.040 Y99.585 E324.85163
G1 X75.040 Y100.096 E324.87881
G1 X99.904 Y124.960 E326.74752
G1 X99.393 Y124.960 E326.77470
G1 X75.040 Y100.607 E328.60498
G1 X75.040 Y101.119 E328.63215
G1 X98.881 Y124.960 E330.42400
G1 X98.370 Y124.960 E330.45118
G1 X75.040 Y101.630 E332.20460
G1 X75.040 Y102.141 E332.23178
G1 X97.859 Y124.960 E333.94676
G1 X97.347 Y124.960 E333.97394
G1 X75.040 Y102.653 E335.65049
G1 X75.040 Y103.164 E335.67767
G1 X96.836 Y124.960 E337.31579
G1 X96.325 Y124.960 E337.34297
G1 X75.040 Y103.675 E338.94266
G1 X75.040 Y104.187 E338.96984
G1 X95.813 Y124.960 E340.53110
G1 X95.302 Y124.960 E340.55827
G1 X75.040 Y104.698 E342.08110
G1 X75.040 Y105.209 E342.10828
G1 X94.791 Y124.960 E343.59268
G1 X94.279 Y124.960 E343.61985
G1 X75.040 Y105.721 E345.06582
G1 X75.040 Y106.232 E345.09299
G1 X93.768 Y124.960 E346.50053
G1 X93.257 Y124.960 E346.52770
G1 X75.040 Y106.743 E347.89680
G1 X75.040 Y107.255 E347.92398
G1 X92.745 Y124.960 E349.25465
G1 X92.234 Y124.960 E349.28183
G1 X75.040 Y107.766 E350.57407
G1 X75.040 Y108.277 E350.60124
G1 X91.723 Y124.960 E351.85505
G1 X91.211 Y124.960 E351.88222
G1 X75.040 Y108.789 E353.09760
G1 X75.040 Y109.300 E353.12477
G1 X90.700 Y124.960 E354.30172
