; generated by Slic3r 0.7.1 on 2012-07-11 at 14:57:02

; layer_height = .35
; perimeters = 2
; solid_layers = 2
; fill_density = .25
; nozzle_diameter = .35
; filament_diameter = 1.75
; extrusion_multiplier = 1
; perimeter_speed = 30
; infill_speed = 60
; travel_speed = 150
; extrusion_width_ratio = 0
; scale = 1
; single wall width = 0.37mm

M190 S80 ; set bed temperature
M104 S185 ; set temperature

M109 S185 ; wait for temperature to be reached
G90 ; use absolute coordinates
G21 ; set units to millimeters
G92 E0 ; reset extrusion distance
M82 ; use absolute distances for extrusion
G1 Z0.350 F9000.000
G1 X-33.939 Y-18.302
G1 F1200.000 E1.00000
G1 X-33.759 Y-18.483 F1800.000 E1.01347
G1 X-33.379 Y-18.822 E1.04046
G1 X-32.759 Y-19.262 E1.08070
G1 X-32.539 Y-19.392 E1.09423
G1 X-32.079 Y-19.622 E1.12145
G1 X-31.609 Y-19.813 E1.14828
G1 X-31.119 Y-19.962 E1.17541
G1 X-30.869 Y-20.023 E1.18901
G1 X-30.119 Y-20.133 E1.22914
G1 X-29.609 Y-20.153 E1.25615
G1 X30.111 Y-20.133 E4.41711
G1 X30.861 Y-20.023 E4.45723
G1 X31.361 Y-19.892 E4.48457
G1 X31.841 Y-19.723 E4.51152
G1 X32.301 Y-19.512 E4.53829
G1 X32.531 Y-19.392 E4.55202
G1 X32.751 Y-19.262 E4.56555
G1 X33.371 Y-18.822 E4.60579
G1 X33.751 Y-18.483 E4.63278
G1 X33.931 Y-18.302 E4.64625
G1 X34.271 Y-17.922 E4.67324
G1 X34.711 Y-17.302 E4.71348
G1 X34.841 Y-17.083 E4.72700
G1 X35.071 Y-16.622 E4.75423
G1 X35.261 Y-16.153 E4.78106
G1 X35.411 Y-15.663 E4.80818
G1 X35.471 Y-15.413 E4.82179
G1 X35.581 Y-14.663 E4.86191
G1 X35.581 Y14.658 E6.41381
G1 X35.471 Y15.408 E6.45393
G1 X35.341 Y15.908 E6.48127
G1 X35.171 Y16.388 E6.50823
G1 X34.961 Y16.848 E6.53499
G1 X34.841 Y17.078 E6.54872
G1 X34.711 Y17.297 E6.56225
G1 X34.271 Y17.918 E6.60249
G1 X33.931 Y18.298 E6.62948
G1 X33.751 Y18.478 E6.64295
G1 X33.371 Y18.817 E6.66994
G1 X32.751 Y19.258 E6.71018
G1 X32.531 Y19.387 E6.72371
G1 X32.071 Y19.618 E6.75093
G1 X31.601 Y19.808 E6.77776
G1 X31.111 Y19.958 E6.80488
G1 X30.861 Y20.018 E6.81849
G1 X30.111 Y20.128 E6.85861
G1 X29.601 Y20.148 E6.88563
G1 X-30.119 Y20.128 E10.04658
G1 X-30.869 Y20.018 E10.08671
G1 X-31.369 Y19.887 E10.11405
G1 X-31.849 Y19.718 E10.14100
G1 X-32.309 Y19.508 E10.16777
G1 X-32.539 Y19.387 E10.18150
G1 X-32.759 Y19.258 E10.19502
G1 X-33.379 Y18.817 E10.23526
G1 X-33.759 Y18.478 E10.26225
G1 X-33.939 Y18.298 E10.27573
G1 X-34.279 Y17.918 E10.30272
G1 X-34.719 Y17.297 E10.34296
G1 X-34.849 Y17.078 E10.35648
G1 X-35.079 Y16.618 E10.38370
G1 X-35.269 Y16.148 E10.41054
G1 X-35.419 Y15.658 E10.43766
G1 X-35.479 Y15.408 E10.45127
G1 X-35.589 Y14.658 E10.49139
G1 X-35.589 Y-14.663 E12.04328
G1 X-35.479 Y-15.413 E12.08341
G1 X-35.349 Y-15.913 E12.11075
G1 X-35.179 Y-16.392 E12.13770
G1 X-34.969 Y-16.852 E12.16447
G1 X-34.849 Y-17.083 E12.17820
G1 X-34.719 Y-17.302 E12.19173
G1 X-34.279 Y-17.922 E12.23197
G1 X-33.976 Y-18.261 E12.25604
G1 F1200.000 E11.25604
G92 E0
G1 X-29.245 Y-13.788 F9000.000
G1 F1200.000 E1.00000
G1 X29.245 Y-13.788 F1800.000 E4.09580
G1 X29.245 Y13.788 E5.55540
G1 X-29.245 Y13.788 E8.65120
G1 X-29.245 Y-13.733 E10.10788
G1 X-29.605 Y-14.149 F9000.000
G1 X29.605 Y-14.149 F1800.000 E13.24185
G1 X29.605 Y14.149 E14.73963
G1 X-29.605 Y14.149 E17.87361
G1 X-29.605 Y-14.094 E19.36846
G1 F1200.000 E18.36846
G92 E0
G1 X-28.668 Y13.531 F9000.000
G1 F1200.000 E1.00000
G1 X-28.988 Y13.212 F3600.000 E1.02402
G1 X-28.988 Y12.701 E1.05122
G1 X-28.157 Y13.531 E1.11370
G1 X-27.645 Y13.531 E1.14090
G1 X-28.988 Y12.189 E1.24185
G1 X-28.988 Y11.678 E1.26905
G1 X-27.134 Y13.531 E1.40846
G1 X-26.622 Y13.531 E1.43566
G1 X-28.988 Y11.166 E1.61354
G1 X-28.988 Y10.654 E1.64074
G1 X-26.111 Y13.531 E1.85708
G1 X-25.599 Y13.531 E1.88428
G1 X-28.988 Y10.143 E2.13909
G1 X-28.988 Y9.631 E2.16629
G1 X-25.088 Y13.531 E2.45957
G1 X-24.576 Y13.531 E2.48677
G1 X-28.988 Y9.120 E2.81851
G1 X-28.988 Y8.608 E2.84571
G1 X-24.065 Y13.531 E3.21591
G1 X-23.553 Y13.531 E3.24311
G1 X-28.988 Y8.097 E3.65178
G1 X-28.988 Y7.585 E3.67898
G1 X-23.042 Y13.531 E4.12612
G1 X-22.530 Y13.531 E4.15331
G1 X-28.988 Y7.074 E4.63892
G1 X-28.988 Y6.562 E4.66611
G1 X-22.019 Y13.531 E5.19018
G1 X-21.507 Y13.531 E5.21738
G1 X-28.988 Y6.051 E5.77991
G1 X-28.988 Y5.539 E5.80711
G1 X-20.996 Y13.531 E6.40811
G1 X-20.484 Y13.531 E6.43531
G1 X-28.988 Y5.028 E7.07477
G1 X-28.988 Y4.516 E7.10197
G1 X-19.973 Y13.531 E7.77989
G1 X-19.461 Y13.531 E7.80709
G1 X-28.988 Y4.005 E8.52348
G1 X-28.988 Y3.493 E8.55068
G1 X-18.950 Y13.531 E9.30554
G1 X-18.438 Y13.531 E9.33274
G1 X-28.988 Y2.982 E10.12606
G1 X-28.988 Y2.470 E10.15326
G1 X-17.927 Y13.531 E10.98505
G1 X-17.415 Y13.531 E11.01225
G1 X-28.988 Y1.959 E11.88250
G1 X-28.988 Y1.447 E11.90970
G1 X-16.904 Y13.531 E12.81842
G1 X-16.392 Y13.531 E12.84562
G1 X-28.988 Y0.936 E13.79280
G1 X-28.988 Y0.424 E13.82000
G1 X-15.881 Y13.531 E14.80565
G1 X-15.369 Y13.531 E14.83285
G1 X-28.988 Y-0.087 E15.85696
G1 X-28.988 Y-0.599 E15.88416
G1 X-14.858 Y13.531 E16.94674
G1 X-14.346 Y13.531 E16.97394
G1 X-28.988 Y-1.110 E18.07498
G1 X-28.988 Y-1.622 E18.10218
G1 X-13.835 Y13.531 E19.24169
G1 X-13.323 Y13.531 E19.26889
G1 X-28.988 Y-2.133 E20.44686
G1 X-28.988 Y-2.645 E20.47406
G1 X-12.812 Y13.531 E21.69050
G1 X-12.300 Y13.531 E21.71770
G1 X-28.988 Y-3.156 E22.97261
G1 X-28.988 Y-3.668 E22.99981
G1 X-11.788 Y13.531 E24.29318
G1 X-11.277 Y13.531 E24.32037
G1 X-28.988 Y-4.179 E25.65221
G1 X-28.988 Y-4.691 E25.67941
G1 X-10.765 Y13.531 E27.04971
G1 X-10.254 Y13.531 E27.07691
G1 X-28.988 Y-5.202 E28.48567
G1 X-28.988 Y-5.714 E28.51287
G1 X-9.742 Y13.531 E29.96010
G1 X-9.231 Y13.531 E29.98730
G1 X-28.988 Y-6.225 E31.47300
G1 X-28.988 Y-6.737 E31.50020
G1 X-8.719 Y13.531 E33.02436
G1 X-8.208 Y13.531 E33.05156
G1 X-28.988 Y-7.249 E34.61418
G1 X-28.988 Y-7.760 E34.64138
G1 X-7.696 Y13.531 E36.24247
G1 X-7.185 Y13.531 E36.26967
G1 X-28.988 Y-8.272 E37.90923
G1 X-28.988 Y-8.783 E37.93643
G1 X-6.673 Y13.531 E39.61445
G1 X-6.162 Y13.531 E39.64165
G1 X-28.988 Y-9.295 E41.35814
G1 X-28.988 Y-9.806 E41.38534
G1 X-5.650 Y13.531 E43.14029
G1 X-5.139 Y13.531 E43.16749
G1 X-28.988 Y-10.318 E44.96091
G1 X-28.988 Y-10.829 E44.98811
G1 X-4.627 Y13.531 E46.81999
G1 X-4.116 Y13.531 E46.84719
G1 X-28.988 Y-11.341 E48.71753
G1 X-28.988 Y-11.852 E48.74473
G1 X-3.604 Y13.531 E50.65355
G1 X-3.093 Y13.531 E50.68075
G1 X-28.988 Y-12.364 E52.62802
G1 X-28.988 Y-12.875 E52.65522
G1 X-2.581 Y13.531 E54.64097
G1 X-2.070 Y13.531 E54.66817
G1 X-28.988 Y-13.387 E56.69237
G1 X-28.621 Y-13.531 E56.71334
G1 X-1.558 Y13.531 E58.74844
G1 X-1.047 Y13.531 E58.77564
G1 X-28.110 Y-13.531 E60.81073
G1 X-27.598 Y-13.531 E60.83793
G1 X-0.535 Y13.531 E62.87303
G1 X-0.024 Y13.531 E62.90023
G1 X-27.087 Y-13.531 E64.93532
G1 X-26.575 Y-13.531 E64.96252
G1 X0.488 Y13.531 E66.99762
G1 X0.999 Y13.531 E67.02482
G1 X-26.064 Y-13.531 E69.05991
G1 X-25.552 Y-13.531 E69.08711
G1 X1.511 Y13.531 E71.12221
G1 X2.022 Y13.531 E71.14941
G1 X-25.041 Y-13.531 E73.18451
G1 X-24.529 Y-13.531 E73.21171
G1 X2.534 Y13.531 E75.24680
G1 X3.045 Y13.531 E75.27400
G1 X-24.017 Y-13.531 E77.30910
G1 X-23.506 Y-13.531 E77.33630
G1 X3.557 Y13.531 E79.37139
G1 X4.068 Y13.531 E79.39859
G1 X-22.994 Y-13.531 E81.43369
G1 X-22.483 Y-13.531 E81.46089
G1 X4.580 Y13.531 E83.49598
G1 X5.091 Y13.531 E83.52318
G1 X-21.971 Y-13.531 E85.55828
G1 X-21.460 Y-13.531 E85.58548
G1 X5.603 Y13.531 E87.62058
G1 X6.115 Y13.531 E87.64777
G1 X-20.948 Y-13.531 E89.68287
G1 X-20.437 Y-13.531 E89.71007
G1 X6.626 Y13.531 E91.74517
G1 X7.138 Y13.531 E91.77237
G1 X-19.925 Y-13.531 E93.80746
G1 X-19.414 Y-13.531 E93.83466
G1 X7.649 Y13.531 E95.86976
G1 X8.161 Y13.531 E95.89696
G1 X-18.902 Y-13.531 E97.93205
G1 X-18.391 Y-13.531 E97.95925
G1 X8.672 Y13.531 E99.99435
G1 X9.184 Y13.531 E100.02155
G1 X-17.879 Y-13.531 E102.05665
G1 X-17.368 Y-13.531 E102.08384
G1 X9.695 Y13.531 E104.11894
G1 X10.207 Y13.531 E104.14614
G1 X-16.856 Y-13.531 E106.18124
G1 X-16.345 Y-13.531 E106.20844
G1 X10.718 Y13.531 E108.24353
G1 X11.230 Y13.531 E108.27073
G1 X-15.833 Y-13.531 E110.30583
G1 X-15.322 Y-13.531 E110.33303
G1 X11.741 Y13.531 E112.36812
G1 X12.253 Y13.531 E112.39532
G1 X-14.810 Y-13.531 E114.43042
G1 X-14.299 Y-13.531 E114.45762
G1 X12.764 Y13.531 E116.49272
G1 X13.276 Y13.531 E116.51991
G1 X-13.787 Y-13.531 E118.55501
G1 X-13.276 Y-13.531 E118.58221
G1 X13.787 Y13.531 E120.61731
G1 X14.299 Y13.531 E120.64451
G1 X-12.764 Y-13.531 E122.67960
G1 X-12.253 Y-13.531 E122.70680
G1 X14.810 Y13.531 E124.74190
G1 X15.322 Y13.531 E124.76910
G1 X-11.741 Y-13.531 E126.80419
G1 X-11.230 Y-13.531 E126.83139
G1 X15.833 Y13.531 E128.86649
G1 X16.345 Y13.531 E128.89369
G1 X-10.718 Y-13.531 E130.92878
G1 X-10.207 Y-13.531 E130.95598
G1 X16.856 Y13.531 E132.99108
G1 X17.368 Y13.531 E133.01828
G1 X-9.695 Y-13.531 E135.05338
G1 X-9.184 Y-13.531 E135.08058
G1 X17.879 Y13.531 E137.11567
G1 X18.391 Y13.531 E137.14287
G1 X-8.672 Y-13.531 E139.17797
G1 X-8.161 Y-13.531 E139.20517
G1 X18.902 Y13.531 E141.24026
G1 X19.414 Y13.531 E141.26746
G1 X-7.649 Y-13.531 E143.30256
G1 X-7.138 Y-13.531 E143.32976
G1 X19.925 Y13.531 E145.36485
G1 X20.437 Y13.531 E145.39205
G1 X-6.626 Y-13.531 E147.42715
G1 X-6.115 Y-13.531 E147.45435
G1 X20.948 Y13.531 E149.48945
G1 X21.460 Y13.531 E149.51664
G1 X-5.603 Y-13.531 E151.55174
G1 X-5.091 Y-13.531 E151.57894
G1 X21.971 Y13.531 E153.61404
G1 X22.483 Y13.531 E153.64124
G1 X-4.580 Y-13.531 E155.67633
G1 X-4.068 Y-13.531 E155.70353
G1 X22.994 Y13.531 E157.73863
G1 X23.506 Y13.531 E157.76583
G1 X-3.557 Y-13.531 E159.80092
G1 X-3.045 Y-13.531 E159.82812
G1 X24.017 Y13.531 E161.86322
G1 X24.529 Y13.531 E161.89042
G1 X-2.534 Y-13.531 E163.92552
G1 X-2.022 Y-13.531 E163.95271
G1 X25.041 Y13.531 E165.98781
G1 X25.552 Y13.531 E166.01501
G1 X-1.511 Y-13.531 E168.05011
G1 X-0.999 Y-13.531 E168.07731
G1 X26.064 Y13.531 E170.11240
G1 X26.575 Y13.531 E170.13960
G1 X-0.488 Y-13.531 E172.17470
G1 X0.024 Y-13.531 E172.20190
G1 X27.087 Y13.531 E174.23699
G1 X27.598 Y13.531 E174.26419
G1 X0.535 Y-13.531 E176.29929
G1 X1.047 Y-13.531 E176.32649
G1 X28.110 Y13.531 E178.36159
G1 X28.621 Y13.531 E178.38878
G1 X1.558 Y-13.531 E180.42388
G1 X2.070 Y-13.531 E180.45108
G1 X28.988 Y13.387 E182.47529
G1 X28.988 Y12.875 E182.50249
G1 X2.581 Y-13.531 E184.48823
G1 X3.093 Y-13.531 E184.51543
G1 X28.988 Y12.364 E186.46271
G1 X28.988 Y11.852 E186.48991
G1 X3.604 Y-13.531 E188.39872
G1 X4.116 Y-13.531 E188.42592
G1 X28.988 Y11.341 E190.29627
G1 X28.988 Y10.829 E190.32347
G1 X4.627 Y-13.531 E192.15535
G1 X5.139 Y-13.531 E192.18255
G1 X28.988 Y10.318 E193.97597
G1 X28.988 Y9.806 E194.00317
G1 X5.650 Y-13.531 E195.75812
G1 X6.162 Y-13.531 E195.78532
G1 X28.988 Y9.295 E197.50181
G1 X28.988 Y8.783 E197.52901
G1 X6.673 Y-13.531 E199.20703
G1 X7.185 Y-13.531 E199.23423
G1 X28.988 Y8.272 E200.87378
G1 X28.988 Y7.760 E200.90098
G1 X7.696 Y-13.531 E202.50207
G1 X8.208 Y-13.531 E202.52927
G1 X28.988 Y7.249 E204.09190
G1 X28.988 Y6.737 E204.11910
G1 X8.719 Y-13.531 E205.64326
G1 X9.231 Y-13.531 E205.67046
G1 X28.988 Y6.225 E207.15616
G1 X28.988 Y5.714 E207.18335
G1 X9.742 Y-13.531 E208.63059
G1 X10.254 Y-13.531 E208.65778
G1 X28.988 Y5.202 E210.06655
G1 X28.988 Y4.691 E210.09375
G1 X10.765 Y-13.531 E211.46405
G1 X11.277 Y-13.531 E211.49125
G1 X28.988 Y4.179 E212.82308
G1 X28.988 Y3.668 E212.85028
G1 X11.788 Y-13.531 E214.14365
G1 X12.300 Y-13.531 E214.17085
G1 X28.988 Y3.156 E215.42576
G1 X28.988 Y2.645 E215.45296
G1 X12.812 Y-13.531 E216.66940
G1 X13.323 Y-13.531 E216.69660
G1 X28.988 Y2.133 E217.87457
G1 X28.988 Y1.622 E217.90177
G1 X13.835 Y-13.531 E219.04128
G1 X14.346 Y-13.531 E219.06848
G1 X28.988 Y1.110 E220.16952
G1 X28.988 Y0.599 E220.19672
G1 X14.858 Y-13.531 E221.25930
G1 X15.369 Y-13.531 E221.28650
G1 X28.988 Y0.087 E222.31061
G1 X28.988 Y-0.424 E222.33781
G1 X15.881 Y-13.531 E223.32346
G1 X16.392 Y-13.531 E223.35066
G1 X28.988 Y-0.936 E224.29784
G1 X28.988 Y-1.447 E224.32504
G1 X16.904 Y-13.531 E225.23376
G1 X17.415 Y-13.531 E225.26096
G1 X28.988 Y-1.959 E226.13121
G1 X28.988 Y-2.470 E226.15841
G1 X17.927 Y-13.531 E226.99020
G1 X18.438 Y-13.531 E227.01740
G1 X28.988 Y-2.982 E227.81072
G1 X28.988 Y-3.493 E227.83792
G1 X18.950 Y-13.531 E228.59278
G1 X19.461 Y-13.531 E228.61998
G1 X28.988 Y-4.005 E229.33637
G1 X28.988 Y-4.516 E229.36357
G1 X19.973 Y-13.531 E230.04150
G1 X20.484 Y-13.531 E230.06870
G1 X28.988 Y-5.028 E230.70816
G1 X28.988 Y-5.539 E230.73536
G1 X20.996 Y-13.531 E231.33635
G1 X21.507 Y-13.531 E231.36355
G1 X28.988 Y-6.051 E231.92608
G1 X28.988 Y-6.562 E231.95328
G1 X22.019 Y-13.531 E232.47735
G1 X22.530 Y-13.531 E232.50455
G1 X28.988 Y-7.074 E232.99015
G1 X28.988 Y-7.585 E233.01735
G1 X23.042 Y-13.531 E233.46448
G1 X23.553 Y-13.531 E233.49168
G1 X28.988 Y-8.097 E233.90035
G1 X28.988 Y-8.608 E233.92755
G1 X24.065 Y-13.531 E234.29776
G1 X24.576 Y-13.531 E234.32496
G1 X28.988 Y-9.120 E234.65670
G1 X28.988 Y-9.631 E234.68390
G1 X25.088 Y-13.531 E234.97717
G1 X25.599 Y-13.531 E235.00437
G1 X28.988 Y-10.143 E235.25918
G1 X28.988 Y-10.654 E235.28638
G1 X26.111 Y-13.531 E235.50273
G1 X26.622 Y-13.531 E235.52992
G1 X28.988 Y-11.166 E235.70780
G1 X28.988 Y-11.678 E235.73500
G1 X27.134 Y-13.531 E235.87442
G1 X27.645 Y-13.531 E235.90162
G1 X28.988 Y-12.189 E236.00257
G1 X28.988 Y-12.701 E236.02976
G1 X28.157 Y-13.531 E236.09225
G1 X28.668 Y-13.531 E236.11945
G1 X28.988 Y-13.212 E236.14347
G1 F1200.000 E235.14347
G92 E0
G1 Z0.700 F9000.000
G1 X29.245 Y-13.788
G1 F1200.000 E1.00000
G1 X29.245 Y13.788 F1800.000 E2.45960
G1 X-29.245 Y13.788 E5.55540
G1 X-29.245 Y-13.788 E7.01500
G1 X29.189 Y-13.788 E10.10788
G1 X29.605 Y-14.149 F9000.000
G1 X29.605 Y14.149 F1800.000 E11.60565
G1 X-29.605 Y14.149 E14.73963
G1 X-29.605 Y-14.149 E16.23740
G1 X29.550 Y-14.149 E19.36846
G1 F1200.000 E18.36846
G92 E0
G1 X28.988 Y13.212 F9000.000
G1 F1200.000 E1.00000
G1 X28.668 Y13.531 F3600.000 E1.02402
G1 X28.157 Y13.531 E1.05122
G1 X28.988 Y12.701 E1.11370
G1 X28.988 Y12.189 E1.14090
G1 X27.645 Y13.531 E1.24185
G1 X27.134 Y13.531 E1.26905
G1 X28.988 Y11.678 E1.40846
G1 X28.988 Y11.166 E1.43566
G1 X26.622 Y13.531 E1.61354
G1 X26.111 Y13.531 E1.64074
G1 X28.988 Y10.654 E1.85708
G1 X28.988 Y10.143 E1.88428
G1 X25.599 Y13.531 E2.13909
G1 X25.088 Y13.531 E2.16629
G1 X28.988 Y9.631 E2.45957
G1 X28.988 Y9.120 E2.48677
G1 X24.576 Y13.531 E2.81851
G1 X24.065 Y13.531 E2.84571
G1 X28.988 Y8.608 E3.21591
G1 X28.988 Y8.097 E3.24311
G1 X23.553 Y13.531 E3.65178
G1 X23.042 Y13.531 E3.67898
G1 X28.988 Y7.585 E4.12612
G1 X28.988 Y7.074 E4.15331
G1 X22.530 Y13.531 E4.63892
G1 X22.019 Y13.531 E4.66611
G1 X28.988 Y6.562 E5.19018
G1 X28.988 Y6.051 E5.21738
G1 X21.507 Y13.531 E5.77991
G1 X20.996 Y13.531 E5.80711
G1 X28.988 Y5.539 E6.40811
G1 X28.988 Y5.028 E6.43531
G1 X20.484 Y13.531 E7.07477
G1 X19.973 Y13.531 E7.10197
G1 X28.988 Y4.516 E7.77989
G1 X28.988 Y4.005 E7.80709
G1 X19.461 Y13.531 E8.52348
G1 X18.950 Y13.531 E8.55068
G1 X28.988 Y3.493 E9.30554
G1 X28.988 Y2.982 E9.33274
G1 X18.438 Y13.531 E10.12606
G1 X17.927 Y13.531 E10.15326
G1 X28.988 Y2.470 E10.98505
G1 X28.988 Y1.959 E11.01225
G1 X17.415 Y13.531 E11.88250
G1 X16.904 Y13.531 E11.90970
G1 X28.988 Y1.447 E12.81842
G1 X28.988 Y0.936 E12.84562
G1 X16.392 Y13.531 E13.79280
G1 X15.881 Y13.531 E13.82000
G1 X28.988 Y0.424 E14.80565
G1 X28.988 Y-0.087 E14.83285
G1 X15.369 Y13.531 E15.85696
G1 X14.858 Y13.531 E15.88416
G1 X28.988 Y-0.599 E16.94674
G1 X28.988 Y-1.110 E16.97394
G1 X14.346 Y13.531 E18.07498
G1 X13.835 Y13.531 E18.10218
G1 X28.988 Y-1.622 E19.24169
G1 X28.988 Y-2.133 E19.26889
G1 X13.323 Y13.531 E20.44686
G1 X12.812 Y13.531 E20.47406
G1 X28.988 Y-2.645 E21.69050
