; generated by Slic3r 0.7.1 on 2012-05-14 at 20:41:58

; layer_height = .35
; perimeters = 1
; solid_layers = 1
; fill_density = .25
; nozzle_diameter = .35
; filament_diameter = 1.75
; extrusion_multiplier = 1
; perimeter_speed = 30
; infill_speed = 60
; travel_speed = 150
; extrusion_width_ratio = 0
; scale = 1
; single wall width = 0.37mm

M190 S80 ; set bed temperature
M104 S185 ; set temperature

M109 S185 ; wait for temperature to be reached
G90 ; use absolute coordinates
G21 ; set units to millimeters
G92 E0 ; reset extrusion distance
M82 ; use absolute distances for extrusion
G1 Z0.350 F9000.000
G1 X82.800 Y83.179
G1 F1800.000 E1.00000
G1 X82.980 Y82.989 F1800.000 E1.01385
G1 X83.170 Y82.809 E1.02771
G1 X83.570 Y82.469 E1.05549
G1 X83.780 Y82.309 E1.06947
G1 X84.450 Y81.899 E1.11104
G1 X85.170 Y81.559 E1.15319
G1 X85.410 Y81.469 E1.16675
G1 X86.170 Y81.259 E1.20849
G1 X86.950 Y81.149 E1.25018
G1 X87.220 Y81.129 E1.26451
G1 X112.770 Y81.129 E2.61686
G1 X113.300 Y81.179 E2.64504
G1 X113.820 Y81.259 E2.67289
G1 X114.580 Y81.469 E2.71462
G1 X114.820 Y81.559 E2.72819
G1 X115.540 Y81.899 E2.77033
G1 X116.210 Y82.309 E2.81191
G1 X116.420 Y82.469 E2.82588
G1 X116.820 Y82.809 E2.85367
G1 X117.010 Y82.989 E2.86752
G1 X117.190 Y83.179 E2.88137
G1 X117.530 Y83.579 E2.90916
G1 X117.690 Y83.789 E2.92314
G1 X118.100 Y84.459 E2.96471
G1 X118.440 Y85.179 E3.00686
G1 X118.530 Y85.419 E3.02042
G1 X118.740 Y86.179 E3.06216
G1 X118.850 Y86.959 E3.10385
G1 X118.870 Y87.229 E3.11818
G1 X118.790 Y101.689 E3.88355
G1 X118.720 Y102.389 E3.92079
G1 X118.500 Y103.729 E3.99266
G1 X117.990 Y105.699 E4.10037
G1 X117.760 Y106.389 E4.13887
G1 X117.250 Y107.649 E4.21082
G1 X116.350 Y109.419 E4.31592
G1 X115.220 Y111.149 E4.42529
G1 X114.800 Y111.709 E4.46234
G1 X113.920 Y112.739 E4.53405
G1 X112.480 Y114.149 E4.64072
G1 X111.950 Y114.609 E4.67786
G1 X110.870 Y115.429 E4.74964
G1 X110.310 Y115.809 E4.78546
G1 X109.150 Y116.509 E4.85717
G1 X107.300 Y117.399 E4.96583
G1 X106.640 Y117.659 E5.00338
G1 X104.750 Y118.259 E5.10833
G1 X102.680 Y118.689 E5.22024
G1 X101.330 Y118.829 E5.29208
G1 X100.670 Y118.859 E5.32704
G1 X98.660 Y118.829 E5.43345
G1 X97.310 Y118.689 E5.50528
G1 X95.240 Y118.259 E5.61719
G1 X93.350 Y117.659 E5.72214
G1 X92.690 Y117.399 E5.75969
G1 X90.840 Y116.509 E5.86835
G1 X89.680 Y115.809 E5.94006
G1 X89.120 Y115.429 E5.97588
G1 X88.040 Y114.609 E6.04766
G1 X86.530 Y113.219 E6.15629
G1 X86.070 Y112.739 E6.19148
G1 X85.190 Y111.709 E6.26318
G1 X84.010 Y110.029 E6.37185
G1 X83.640 Y109.419 E6.40961
G1 X82.740 Y107.649 E6.51471
G1 X82.230 Y106.389 E6.58666
G1 X81.640 Y104.399 E6.69652
G1 X81.490 Y103.729 E6.73286
G1 X81.270 Y102.389 E6.80473
G1 X81.120 Y99.999 E6.93149
G1 X81.120 Y87.229 E7.60740
G1 X81.170 Y86.699 E7.63557
G1 X81.250 Y86.179 E7.66342
G1 X81.460 Y85.419 E7.70515
G1 X81.550 Y85.179 E7.71872
G1 X81.890 Y84.459 E7.76087
G1 X82.300 Y83.789 E7.80244
G1 X82.460 Y83.579 E7.81642
G1 X82.764 Y83.221 E7.84128
G1 X83.150 Y83.339 F9000.000
G1 X83.330 Y83.159 F1800.000 E7.85476
G1 X83.710 Y82.819 E7.88175
G1 X84.330 Y82.379 E7.92199
G1 X84.550 Y82.249 E7.93551
G1 X85.010 Y82.019 E7.96273
G1 X85.480 Y81.829 E7.98957
G1 X85.970 Y81.679 E8.01669
G1 X86.220 Y81.619 E8.03030
G1 X86.970 Y81.509 E8.07042
G1 X87.480 Y81.489 E8.09744
G1 X113.020 Y81.509 E9.44926
G1 X113.770 Y81.619 E9.48938
G1 X114.270 Y81.749 E9.51672
G1 X114.750 Y81.919 E9.54368
G1 X115.210 Y82.129 E9.57044
G1 X115.440 Y82.249 E9.58417
G1 X115.660 Y82.379 E9.59770
G1 X116.280 Y82.819 E9.63794
G1 X116.660 Y83.159 E9.66493
G1 X116.840 Y83.339 E9.67840
G1 X117.180 Y83.719 E9.70539
G1 X117.620 Y84.339 E9.74563
G1 X117.750 Y84.559 E9.75916
G1 X117.980 Y85.019 E9.78638
G1 X118.170 Y85.489 E9.81321
G1 X118.320 Y85.979 E9.84033
G1 X118.380 Y86.229 E9.85394
G1 X118.490 Y86.979 E9.89406
G1 X118.430 Y101.669 E10.67161
G1 X118.360 Y102.329 E10.70674
G1 X118.140 Y103.669 E10.77861
G1 X117.640 Y105.599 E10.88414
G1 X117.420 Y106.249 E10.92046
G1 X116.660 Y108.049 E11.02388
G1 X116.030 Y109.249 E11.09561
G1 X115.680 Y109.829 E11.13147
G1 X114.520 Y111.479 E11.23822
G1 X113.640 Y112.509 E11.30993
G1 X112.230 Y113.889 E11.41436
G1 X111.730 Y114.319 E11.44926
G1 X110.650 Y115.139 E11.52104
G1 X110.120 Y115.499 E11.55495
G1 X108.960 Y116.199 E11.62666
G1 X107.150 Y117.069 E11.73295
G1 X106.530 Y117.319 E11.76834
G1 X104.670 Y117.909 E11.87162
G1 X103.350 Y118.209 E11.94327
G1 X102.640 Y118.329 E11.98138
G1 X101.290 Y118.469 E12.05322
G1 X100.670 Y118.499 E12.08608
G1 X98.700 Y118.469 E12.19036
G1 X97.350 Y118.329 E12.26220
G1 X96.640 Y118.209 E12.30031
G1 X94.750 Y117.749 E12.40327
G1 X93.460 Y117.319 E12.47524
G1 X91.610 Y116.499 E12.58235
G1 X91.030 Y116.199 E12.61691
G1 X89.870 Y115.499 E12.68862
G1 X89.340 Y115.139 E12.72253
G1 X88.260 Y114.319 E12.79431
G1 X86.780 Y112.959 E12.90069
G1 X86.350 Y112.509 E12.93364
G1 X85.470 Y111.479 E13.00534
G1 X84.310 Y109.829 E13.11210
G1 X83.960 Y109.249 E13.14796
G1 X83.080 Y107.509 E13.25116
G1 X82.570 Y106.249 E13.32311
G1 X82.350 Y105.599 E13.35943
G1 X81.850 Y103.669 E13.46496
G1 X81.630 Y102.329 E13.53683
G1 X81.560 Y101.669 E13.57196
G1 X81.500 Y86.979 E14.34950
G1 X81.610 Y86.229 E14.38963
G1 X81.740 Y85.729 E14.41697
G1 X81.910 Y85.249 E14.44392
G1 X82.120 Y84.789 E14.47069
G1 X82.240 Y84.559 E14.48442
G1 X82.370 Y84.339 E14.49794
G1 X82.810 Y83.719 E14.53819
G1 X83.113 Y83.380 E14.56226
G1 F1800.000 E13.56226
G92 E0
G1 X93.241 Y93.039 F9000.000
G1 F1800.000 E1.00000
G1 X94.149 Y92.261 F1800.000 E1.06327
G1 X95.145 Y91.601 E1.12654
G1 X96.216 Y91.068 E1.18982
G1 X97.343 Y90.671 E1.25309
G1 X98.511 Y90.415 E1.31636
G1 X99.701 Y90.305 E1.37963
G1 X100.896 Y90.342 E1.44291
G1 X102.077 Y90.525 E1.50618
G1 X103.227 Y90.852 E1.56945
G1 X104.328 Y91.318 E1.63272
G1 X105.363 Y91.916 E1.69599
G1 X106.317 Y92.636 E1.75927
G1 X107.175 Y93.468 E1.82254
G1 X107.925 Y94.400 E1.88581
G1 X108.554 Y95.416 E1.94908
G1 X109.053 Y96.502 E2.01235
G1 X109.416 Y97.641 E2.07563
G1 X109.636 Y98.816 E2.13890
G1 X109.709 Y100.009 E2.20217
G1 X109.636 Y101.202 E2.26544
G1 X109.416 Y102.377 E2.32871
G1 X109.053 Y103.517 E2.39199
G1 X108.554 Y104.603 E2.45526
G1 X107.925 Y105.619 E2.51853
G1 X107.175 Y106.550 E2.58180
G1 X106.317 Y107.382 E2.64508
G1 X105.363 Y108.103 E2.70835
G1 X104.328 Y108.701 E2.77162
G1 X103.227 Y109.166 E2.83489
G1 X102.077 Y109.494 E2.89816
G1 X100.896 Y109.677 E2.96144
G1 X99.701 Y109.714 E3.02471
G1 X98.511 Y109.604 E3.08798
G1 X97.343 Y109.348 E3.15125
G1 X96.216 Y108.950 E3.21452
G1 X95.145 Y108.418 E3.27780
G1 X94.149 Y107.757 E3.34107
G1 X93.241 Y106.980 E3.40434
G1 X92.436 Y106.096 E3.46761
G1 X91.745 Y105.120 E3.53089
G1 X91.180 Y104.067 E3.59416
G1 X90.748 Y102.953 E3.65743
G1 X90.456 Y101.793 E3.72070
G1 X90.309 Y100.607 E3.78397
G1 X90.309 Y99.412 E3.84725
G1 X90.456 Y98.225 E3.91052
G1 X90.748 Y97.066 E3.97379
G1 X91.180 Y95.951 E4.03706
G1 X91.745 Y94.898 E4.10033
G1 X92.436 Y93.922 E4.16361
G1 X93.204 Y93.080 E4.22396
G1 F1800.000 E3.22396
G92 E0
G1 X87.484 Y87.493 F9000.000
G1 F1800.000 E1.00000
G1 X112.516 Y87.493 F1800.000 E2.32496
G1 X112.516 Y100.004 E2.98718
G1 X112.443 Y101.363 E3.05917
G1 X112.223 Y102.700 E3.13090
G1 X111.861 Y104.006 E3.20263
G1 X111.359 Y105.265 E3.27436
G1 X110.724 Y106.462 E3.34609
G1 X109.964 Y107.584 E3.41782
G1 X109.087 Y108.617 E3.48955
G1 X108.103 Y109.549 E3.56128
G1 X107.024 Y110.369 E3.63301
G1 X105.863 Y111.067 E3.70474
G1 X104.633 Y111.636 E3.77647
G1 X103.348 Y112.069 E3.84820
G1 X102.025 Y112.360 E3.91993
G1 X100.678 Y112.507 E3.99167
G1 X99.322 Y112.507 E4.06339
G1 X97.975 Y112.360 E4.13513
G1 X96.652 Y112.069 E4.20686
G1 X95.367 Y111.636 E4.27859
G1 X94.137 Y111.067 E4.35032
G1 X92.976 Y110.369 E4.42205
G1 X91.897 Y109.549 E4.49378
G1 X90.913 Y108.617 E4.56551
G1 X90.036 Y107.584 E4.63724
G1 X89.276 Y106.462 E4.70897
G1 X88.641 Y105.265 E4.78070
G1 X88.139 Y104.006 E4.85243
G1 X87.777 Y102.700 E4.92416
G1 X87.557 Y101.363 E4.99589
G1 X87.484 Y100.004 E5.06788
G1 X87.484 Y87.548 E5.72718
G1 X87.762 Y87.750 F9000.000
G1 X92.999 Y92.987 F3600.000 E6.12442
G1 X93.264 Y92.737 F9000.000
G1 X88.277 Y87.750 F3600.000 E6.50273
G1 X88.791 Y87.750 F9000.000
G1 X93.541 Y92.500 F3600.000 E6.86303
G1 X93.818 Y92.263 F9000.000
G1 X89.305 Y87.750 F3600.000 E7.20534
G1 X89.820 Y87.750 F9000.000
G1 X94.102 Y92.032 F3600.000 E7.53018
G1 X94.412 Y91.827 F9000.000
G1 X90.334 Y87.750 F3600.000 E7.83947
G1 X90.848 Y87.750 F9000.000
G1 X94.721 Y91.622 F3600.000 E8.13321
G1 X95.031 Y91.417 F9000.000
G1 X91.363 Y87.750 F3600.000 E8.41140
G1 X91.877 Y87.750 F9000.000
G1 X95.370 Y91.242 F3600.000 E8.67630
G1 X95.713 Y91.071 F9000.000
G1 X92.392 Y87.750 F3600.000 E8.92823
G1 X92.906 Y87.750 F9000.000
G1 X96.056 Y90.900 F3600.000 E9.16720
G1 X96.424 Y90.753 F9000.000
G1 X93.420 Y87.750 F3600.000 E9.39500
G1 X93.935 Y87.750 F9000.000
G1 X96.804 Y90.619 F3600.000 E9.61263
G1 X97.184 Y90.485 F9000.000
G1 X94.449 Y87.750 F3600.000 E9.82010
G1 X94.963 Y87.750 F9000.000
G1 X97.588 Y90.375 F3600.000 E10.01920
G1 X98.010 Y90.282 F9000.000
G1 X95.478 Y87.750 F3600.000 E10.21130
G1 X95.992 Y87.750 F9000.000
G1 X98.432 Y90.190 F3600.000 E10.39638
G1 X98.888 Y90.132 F9000.000
G1 X96.506 Y87.750 F3600.000 E10.57704
G1 X97.021 Y87.750 F9000.000
G1 X99.359 Y90.088 F3600.000 E10.75439
G1 X99.834 Y90.049 F9000.000
G1 X97.535 Y87.750 F3600.000 E10.92878
G1 X98.050 Y87.750 F9000.000
G1 X100.365 Y90.065 F3600.000 E11.10441
G1 X100.896 Y90.082 F9000.000
G1 X98.564 Y87.750 F3600.000 E11.28128
G1 X99.078 Y87.750 F9000.000
G1 X101.484 Y90.156 F3600.000 E11.46379
G1 X102.093 Y90.250 F9000.000
G1 X99.593 Y87.750 F3600.000 E11.65347
G1 X100.107 Y87.750 F9000.000
G1 X102.782 Y90.425 F3600.000 E11.85639
G1 X103.513 Y90.642 F9000.000
G1 X100.621 Y87.750 F3600.000 E12.07576
G1 X101.136 Y87.750 F9000.000
G1 X104.405 Y91.019 F3600.000 E12.32375
G1 X105.554 Y91.654 F9000.000
G1 X101.650 Y87.750 F3600.000 E12.61986
G1 X102.164 Y87.750 F9000.000
G1 X112.260 Y97.845 F3600.000 E13.38557
G1 X112.260 Y97.330 E13.41316
G1 X102.679 Y87.750 E14.13986
G1 X103.193 Y87.750 E14.16745
G1 X112.260 Y96.816 E14.85513
G1 X112.260 Y96.302 E14.88272
G1 X103.708 Y87.750 E15.53139
G1 X104.222 Y87.750 E15.55897
G1 X112.260 Y95.787 E16.16863
G1 X112.260 Y95.273 E16.19622
G1 X104.736 Y87.750 E16.76686
G1 X105.251 Y87.750 E16.79444
G1 X112.260 Y94.759 E17.32607
G1 X112.260 Y94.244 E17.35366
G1 X105.765 Y87.750 E17.84627
G1 X106.279 Y87.750 E17.87386
G1 X112.260 Y93.730 E18.32746
G1 X112.260 Y93.216 E18.35504
G1 X106.794 Y87.750 E18.76963
G1 X107.308 Y87.750 E18.79722
G1 X112.260 Y92.701 E19.17279
G1 X112.260 Y92.187 E19.20037
G1 X107.822 Y87.750 E19.53693
G1 X108.337 Y87.750 E19.56452
G1 X112.260 Y91.673 E19.86206
G1 X112.260 Y91.158 E19.88965
G1 X108.851 Y87.750 E20.14817
G1 X109.366 Y87.750 E20.17576
G1 X112.260 Y90.644 E20.39527
G1 X112.260 Y90.129 E20.42286
G1 X109.880 Y87.750 E20.60336
G1 X110.394 Y87.750 E20.63095
G1 X112.260 Y89.615 E20.77243
G1 X112.260 Y89.101 E20.80002
G1 X110.909 Y87.750 E20.90249
G1 X111.423 Y87.750 E20.93008
G1 X112.260 Y88.586 E20.99353
G1 X112.260 Y88.072 E21.02112
G1 X111.937 Y87.750 E21.04556
G1 F1800.000 E20.04556
G92 E0
G1 X108.324 Y94.423 F9000.000
G1 F1800.000 E1.00000
G1 X112.260 Y98.359 F3600.000 E1.29852
G1 X112.260 Y98.874 E1.32611
G1 X108.974 Y95.588 E1.57535
G1 X109.355 Y96.483 E1.62758
G1 X112.260 Y99.388 E1.84788
G1 X112.260 Y99.902 E1.87547
G1 X109.595 Y97.238 E2.07757
G1 X109.747 Y97.905 E2.11425
G1 X112.243 Y100.400 E2.30355
G1 X112.217 Y100.888 E2.32976
G1 X109.866 Y98.537 E2.50809
G1 X109.917 Y99.103 E2.53855
G1 X112.190 Y101.376 E2.71098
G1 X112.123 Y101.823 E2.73522
G1 X109.951 Y99.651 E2.89996
G1 X109.950 Y100.165 E2.92753
G1 X112.050 Y102.265 E3.08680
G1 X111.978 Y102.707 E3.11082
G1 X109.921 Y100.649 E3.26686
G1 X109.891 Y101.134 E3.29289
G1 X111.868 Y103.111 E3.44286
G1 X111.756 Y103.514 E3.46526
G1 X109.811 Y101.568 E3.61282
G1 X109.730 Y102.002 E3.63647
G1 X111.644 Y103.916 E3.78169
G1 X111.504 Y104.291 E3.80313
G1 X109.641 Y102.428 E3.94445
G1 X109.517 Y102.818 E3.96641
G1 X111.358 Y104.659 E4.10603
G1 X111.211 Y105.026 E4.12726
G1 X109.393 Y103.208 E4.26518
G1 X109.264 Y103.593 E4.28696
G1 X111.050 Y105.379 E4.42242
G1 X110.871 Y105.715 E4.44283
G1 X109.101 Y103.945 E4.57707
G1 X108.939 Y104.298 E4.59787
G1 X110.693 Y106.051 E4.73088
G1 X110.514 Y106.387 E4.75127
G1 X108.777 Y104.650 E4.88302
G1 X108.583 Y104.969 E4.90309
G1 X110.306 Y106.693 E5.03384
G1 X110.099 Y107.000 E5.05370
G1 X108.386 Y105.287 E5.18361
G1 X108.189 Y105.605 E5.20365
G1 X109.891 Y107.306 E5.33271
G1 X109.670 Y107.599 E5.35240
G1 X107.972 Y105.902 E5.48116
G1 X107.743 Y106.187 E5.50078
G1 X109.433 Y107.878 E5.62901
G1 X109.197 Y108.156 E5.64858
G1 X107.513 Y106.472 E5.77629
G1 X107.277 Y106.750 E5.79586
G1 X108.961 Y108.434 E5.92361
G1 X108.701 Y108.688 E5.94312
G1 X107.015 Y107.003 E6.07094
G1 X106.754 Y107.256 E6.09045
G1 X108.436 Y108.938 E6.21804
G1 X108.172 Y109.188 E6.23755
G1 X106.493 Y107.509 E6.36491
G1 X106.206 Y107.736 E6.38456
G1 X107.901 Y109.432 E6.51317
G1 X107.609 Y109.654 E6.53286
G1 X105.912 Y107.957 E6.66154
G1 X105.619 Y108.179 E6.68123
G1 X107.317 Y109.876 E6.80998
G1 X107.025 Y110.098 E6.82966
G1 X105.311 Y108.385 E6.95960
G1 X104.985 Y108.573 E6.97980
G1 X106.713 Y110.301 E7.11085
G1 X106.392 Y110.494 E7.13095
G1 X104.659 Y108.762 E7.26239
G1 X104.328 Y108.944 E7.28270
G1 X106.071 Y110.688 E7.41493
G1 X105.745 Y110.876 E7.43512
G1 X103.966 Y109.097 E7.57006
G1 X103.605 Y109.250 E7.59111
G1 X105.394 Y111.039 E7.72679
G1 X105.042 Y111.202 E7.74757
G1 X103.243 Y109.403 E7.88399
G1 X102.843 Y109.517 E7.90632
G1 X104.690 Y111.364 E8.04644
G1 X104.314 Y111.502 E8.06794
G1 X102.443 Y109.631 E8.20987
G1 X102.041 Y109.744 E8.23223
G1 X103.929 Y111.632 E8.37543
G1 X103.544 Y111.762 E8.39720
G1 X101.596 Y109.813 E8.54498
G1 X101.151 Y109.882 E8.56915
G1 X103.141 Y111.872 E8.72009
G1 X102.719 Y111.965 E8.74325
G1 X100.691 Y109.937 E8.89709
G1 X100.192 Y109.952 E8.92386
G1 X102.298 Y112.058 E9.08357
G1 X101.857 Y112.131 E9.10755
G1 X99.693 Y109.968 E9.27166
G1 X99.141 Y109.930 E9.30135
G1 X101.393 Y112.182 E9.47216
G1 X100.929 Y112.232 E9.49719
G1 X98.574 Y109.877 E9.67581
G1 X97.951 Y109.769 E9.70970
G1 X100.433 Y112.250 E9.89791
G1 X99.918 Y112.250 E9.92550
G1 X97.293 Y109.625 E10.12465
G1 X96.530 Y109.376 E10.16767
G1 X99.399 Y112.245 E10.38528
G1 X98.822 Y112.182 E10.41642
G1 X95.667 Y109.028 E10.65566
G1 X94.536 Y108.412 E10.72474
G1 X98.244 Y112.120 E11.00599
G1 X97.600 Y111.990 E11.04124
G1 X88.005 Y102.395 E11.76903
G1 X88.183 Y103.087 E11.80738
G1 X96.941 Y111.845 E12.47162
G1 X96.180 Y111.599 E12.51447
G1 X88.384 Y103.802 E13.10586
G1 X88.724 Y104.657 E13.15522
G1 X95.358 Y111.290 E13.65838
G1 X94.397 Y110.844 E13.71519
G1 X89.206 Y105.653 E14.10894
G1 X90.051 Y107.012 E14.19478
G1 X92.989 Y109.950 E14.41763
G1 F1800.000 E13.41763
G92 E0
G1 X91.548 Y105.423 F9000.000
G1 F1800.000 E1.00000
G1 X87.904 Y101.779 F3600.000 E1.27637
G1 X87.810 Y101.171 F9000.000
G1 X90.951 Y104.312 F3600.000 E1.51466
G1 X90.626 Y103.473 F9000.000
G1 X87.780 Y100.627 F3600.000 E1.73052
G1 X87.751 Y100.083 F9000.000
G1 X90.398 Y102.730 F3600.000 E1.93128
G1 X90.225 Y102.043 F9000.000
G1 X87.740 Y99.558 F3600.000 E2.11973
G1 X87.740 Y99.044 F9000.000
G1 X90.141 Y101.444 F3600.000 E2.30179
G1 X90.068 Y100.857 F9000.000
G1 X87.740 Y98.529 F3600.000 E2.47833
G1 X87.740 Y98.015 F9000.000
G1 X90.053 Y100.327 F3600.000 E2.65371
G1 X90.053 Y99.813 F9000.000
G1 X87.740 Y97.501 F3600.000 E2.82910
