; generated by Slic3r 0.7.1 on 2012-04-07 at 15:57:45

; layer_height = .35
; perimeters = 2
; solid_layers = 2
; fill_density = .25
; nozzle_diameter = .35
; filament_diameter = 1.75
; extrusion_multiplier = 1
; perimeter_speed = 60
; infill_speed = 80
; travel_speed = 150
; extrusion_width_ratio = 0
; scale = 1
; single wall width = 0.37mm

M190 S80 ; set bed temperature
M104 S170 ; set temperature

M109 S170 ; wait for temperature to be reached
G90 ; use absolute coordinates
G21 ; set units to millimeters
G92 E0 ; reset extrusion distance
M82 ; use absolute distances for extrusion
G1 Z0.350 F9000.000
G1 X-19.159 Y-20.026
G1 F1800.000 E1.00000
G1 X-18.829 Y-20.426 F3600.000 E1.02745
G1 X-18.649 Y-20.616 E1.04130
G1 X-18.459 Y-20.796 E1.05515
G1 X-18.059 Y-21.136 E1.08294
G1 X-17.629 Y-21.436 E1.11069
G1 X-14.469 Y-23.266 E1.30397
G1 X-13.749 Y-23.586 E1.34567
G1 X-12.999 Y-23.806 E1.38704
G1 X-12.479 Y-23.896 E1.41498
G1 X-12.219 Y-23.926 E1.42883
G1 X-11.699 Y-23.946 E1.45637
G1 X-11.169 Y-23.926 E1.48445
G1 X-10.649 Y-23.856 E1.51222
G1 X-10.139 Y-23.746 E1.53983
G1 X-9.639 Y-23.586 E1.56762
G1 X-9.159 Y-23.386 E1.59514
G1 X20.121 Y-6.496 E3.38428
G1 X20.541 Y-6.176 E3.41223
G1 X20.921 Y-5.816 E3.43993
G1 X21.281 Y-5.436 E3.46764
G1 X21.741 Y-4.796 E3.50936
G1 X21.881 Y-4.576 E3.52316
G1 X22.121 Y-4.116 E3.55062
G1 X22.321 Y-3.626 E3.57863
G1 X22.481 Y-3.126 E3.60642
G1 X22.591 Y-2.616 E3.63404
G1 X22.661 Y-2.096 E3.66181
G1 X22.661 Y2.084 E3.88305
G1 X22.591 Y2.604 E3.91083
G1 X22.481 Y3.114 E3.93844
G1 X22.321 Y3.614 E3.96623
G1 X22.121 Y4.104 E3.99424
G1 X21.881 Y4.564 E4.02170
G1 X21.441 Y5.214 E4.06325
G1 X21.281 Y5.424 E4.07722
G1 X20.921 Y5.804 E4.10493
G1 X20.541 Y6.164 E4.13263
G1 X20.121 Y6.484 E4.16058
G1 X-9.149 Y23.374 E5.94926
G1 X-9.639 Y23.574 E5.97727
G1 X-10.139 Y23.734 E6.00506
G1 X-10.649 Y23.844 E6.03267
G1 X-11.159 Y23.914 E6.05992
G1 X-11.689 Y23.934 E6.08799
G1 X-12.209 Y23.914 E6.11554
G1 X-12.729 Y23.844 E6.14331
G1 X-13.239 Y23.734 E6.17092
G1 X-13.979 Y23.484 E6.21227
G1 X-14.449 Y23.264 E6.23973
G1 X-17.839 Y21.294 E6.44726
G1 X-18.449 Y20.804 E6.48868
G1 X-18.639 Y20.624 E6.50253
G1 X-18.819 Y20.434 E6.51638
G1 X-19.159 Y20.034 E6.54417
G1 X-19.459 Y19.604 E6.57192
G1 X-19.839 Y18.914 E6.61361
G1 X-20.039 Y18.424 E6.64163
G1 X-20.199 Y17.924 E6.66941
G1 X-20.309 Y17.414 E6.69703
G1 X-20.379 Y16.894 E6.72480
G1 X-20.379 Y-16.896 E8.51329
G1 X-20.309 Y-17.416 E8.54106
G1 X-20.199 Y-17.926 E8.56868
G1 X-20.039 Y-18.426 E8.59646
G1 X-19.839 Y-18.906 E8.62399
G1 X-19.599 Y-19.376 E8.65192
G1 X-19.319 Y-19.816 E8.67953
G1 X-19.192 Y-19.982 E8.69058
G1 F1800.000 E7.69058
G92 E0
G1 X-11.943 Y12.851 F9000.000
G1 F1800.000 E1.00000
G1 X-9.855 Y14.057 F3000.000 E1.12763
G1 X-11.812 Y17.448 E1.33488
G1 X-13.901 Y16.243 E1.46251
G1 X-11.970 Y12.899 E1.66684
G1 X-12.075 Y12.359 F9000.000
G1 X-9.362 Y13.925 F3000.000 E1.83264
G1 X-11.680 Y17.941 E2.07807
G1 X-14.393 Y16.375 E2.24387
G1 X-12.102 Y12.407 E2.48639
G1 F1800.000 E1.48639
G92 E0
G1 X-7.036 Y5.834 F9000.000
G1 F1800.000 E1.00000
G1 X-7.577 Y5.432 F3600.000 E1.03567
G1 X-8.111 Y4.947 E1.07385
G1 X-8.563 Y4.447 E1.10954
G1 X-8.965 Y3.905 E1.14526
G1 X-9.312 Y3.327 E1.18094
G1 X-9.621 Y2.675 E1.21912
G1 X-9.848 Y2.040 E1.25479
G1 X-10.012 Y1.387 E1.29048
G1 X-10.118 Y0.676 E1.32848
G1 X-10.151 Y-0.000 E1.36433
G1 X-10.118 Y-0.676 E1.40018
G1 X-10.012 Y-1.387 E1.43818
G1 X-9.848 Y-2.040 E1.47387
G1 X-9.621 Y-2.675 E1.50955
G1 X-9.312 Y-3.327 E1.54772
G1 X-8.965 Y-3.905 E1.58341
G1 X-8.563 Y-4.446 E1.61908
G1 X-8.078 Y-4.980 E1.65725
G1 X-7.578 Y-5.432 E1.69294
G1 X-7.036 Y-5.834 E1.72866
G1 X-6.458 Y-6.181 E1.76435
G1 X-5.806 Y-6.490 E1.80252
G1 X-5.171 Y-6.717 E1.83820
G1 X-4.518 Y-6.882 E1.87388
G1 X-3.804 Y-6.987 E1.91206
G1 X-3.131 Y-7.020 E1.94774
G1 X-2.458 Y-6.987 E1.98342
G1 X-1.744 Y-6.882 E2.02159
G1 X-1.090 Y-6.717 E2.05727
G1 X-0.456 Y-6.490 E2.09295
G1 X0.196 Y-6.181 E2.13112
G1 X0.774 Y-5.834 E2.16681
G1 X1.315 Y-5.432 E2.20248
G1 X1.849 Y-4.947 E2.24066
G1 X2.301 Y-4.447 E2.27635
G1 X2.703 Y-3.905 E2.31207
G1 X3.050 Y-3.327 E2.34775
G1 X3.359 Y-2.675 E2.38593
G1 X3.586 Y-2.040 E2.42161
G1 X3.751 Y-1.387 E2.45729
G1 X3.856 Y-0.676 E2.49530
G1 X3.890 Y0.006 E2.53148
G1 X3.857 Y0.671 E2.56670
G1 X3.751 Y1.387 E2.60500
G1 X3.586 Y2.040 E2.64068
G1 X3.359 Y2.675 E2.67636
G1 X3.050 Y3.327 E2.71453
G1 X2.703 Y3.905 E2.75022
G1 X2.301 Y4.446 E2.78589
G1 X1.816 Y4.980 E2.82407
G1 X1.316 Y5.432 E2.85976
G1 X0.774 Y5.834 E2.89548
G1 X0.196 Y6.181 E2.93116
G1 X-0.456 Y6.490 E2.96934
G1 X-1.090 Y6.717 E3.00501
G1 X-1.744 Y6.882 E3.04070
G1 X-2.458 Y6.987 E3.07887
G1 X-3.131 Y7.020 E3.11455
G1 X-3.804 Y6.987 E3.15023
G1 X-4.518 Y6.882 E3.18841
G1 X-5.171 Y6.717 E3.22409
G1 X-5.806 Y6.490 E3.25977
G1 X-6.458 Y6.181 E3.29794
G1 X-6.988 Y5.862 E3.33071
G1 X-7.237 Y6.134 F9000.000
G1 X-7.806 Y5.711 F3600.000 E3.36826
G1 X-8.367 Y5.202 E3.40832
G1 X-8.842 Y4.676 E3.44588
G1 X-9.265 Y4.106 E3.48344
G1 X-9.630 Y3.497 E3.52100
G1 X-9.955 Y2.814 E3.56106
G1 X-10.193 Y2.145 E3.59861
G1 X-10.367 Y1.457 E3.63617
G1 X-10.477 Y0.712 E3.67606
G1 X-10.512 Y-0.000 E3.71378
G1 X-10.477 Y-0.712 E3.75151
G1 X-10.367 Y-1.457 E3.79140
G1 X-10.193 Y-2.145 E3.82895
G1 X-9.955 Y-2.814 E3.86650
G1 X-9.630 Y-3.497 E3.90657
G1 X-9.265 Y-4.106 E3.94412
G1 X-8.842 Y-4.675 E3.98167
G1 X-8.333 Y-5.236 E4.02174
G1 X-7.806 Y-5.711 E4.05929
G1 X-7.237 Y-6.134 E4.09686
G1 X-6.628 Y-6.499 E4.13441
G1 X-5.944 Y-6.824 E4.17448
G1 X-5.276 Y-7.062 E4.21203
G1 X-4.588 Y-7.236 E4.24958
G1 X-3.840 Y-7.347 E4.28965
G1 X-3.131 Y-7.381 E4.32720
G1 X-2.422 Y-7.347 E4.36475
G1 X-1.674 Y-7.236 E4.40481
G1 X-0.986 Y-7.062 E4.44237
G1 X-0.317 Y-6.824 E4.47992
G1 X0.367 Y-6.499 E4.51998
G1 X0.975 Y-6.134 E4.55754
G1 X1.544 Y-5.711 E4.59509
G1 X2.105 Y-5.202 E4.63515
G1 X2.580 Y-4.676 E4.67271
G1 X3.003 Y-4.106 E4.71027
G1 X3.368 Y-3.497 E4.74782
G1 X3.693 Y-2.814 E4.78789
G1 X3.931 Y-2.145 E4.82544
G1 X4.105 Y-1.457 E4.86299
G1 X4.215 Y-0.712 E4.90289
G1 X4.250 Y0.002 E4.94072
G1 X4.216 Y0.710 E4.97823
G1 X4.105 Y1.457 E5.01823
G1 X3.931 Y2.145 E5.05578
G1 X3.693 Y2.814 E5.09333
G1 X3.368 Y3.497 E5.13340
G1 X3.003 Y4.106 E5.17095
G1 X2.580 Y4.675 E5.20850
G1 X2.071 Y5.236 E5.24857
G1 X1.545 Y5.711 E5.28612
G1 X0.975 Y6.134 E5.32369
G1 X0.367 Y6.499 E5.36124
G1 X-0.317 Y6.824 E5.40130
G1 X-0.986 Y7.062 E5.43886
G1 X-1.674 Y7.236 E5.47641
G1 X-2.422 Y7.347 E5.51647
G1 X-3.131 Y7.381 E5.55402
G1 X-3.840 Y7.347 E5.59158
G1 X-4.588 Y7.236 E5.63164
G1 X-5.276 Y7.062 E5.66919
G1 X-5.944 Y6.824 E5.70675
G1 X-6.628 Y6.499 E5.74681
G1 X-7.189 Y6.162 E5.78145
G1 F1800.000 E4.78145
G92 E0
G1 X12.405 Y1.206 F9000.000
G1 F1800.000 E1.00000
G1 X12.405 Y-1.206 F3000.000 E1.12763
G1 X16.320 Y-1.206 E1.33488
G1 X16.320 Y1.206 E1.46251
G1 X12.460 Y1.206 E1.66684
G1 X12.044 Y1.566 F9000.000
G1 X12.044 Y-1.566 F3000.000 E1.83264
G1 X16.681 Y-1.566 E2.07807
G1 X16.681 Y1.566 E2.24387
G1 X12.099 Y1.566 E2.48639
G1 F1800.000 E1.48639
G92 E0
G1 X-9.855 Y-14.057 F9000.000
G1 F1800.000 E1.00000
G1 X-11.943 Y-12.851 F3000.000 E1.12763
G1 X-13.901 Y-16.243 E1.33488
G1 X-11.812 Y-17.448 E1.46251
G1 X-9.882 Y-14.105 E1.66684
G1 X-9.362 Y-13.925 F9000.000
G1 X-12.075 Y-12.359 F3000.000 E1.83264
G1 X-14.393 Y-16.375 E2.07807
G1 X-11.680 Y-17.941 E2.24387
G1 X-9.390 Y-13.973 E2.48639
G1 F1800.000 E1.48639
G92 E0
G1 X-10.305 Y14.400 F9000.000
G1 F1800.000 E1.00000
G1 X-10.852 Y13.854 F4200.000 E1.04168
G1 X-11.939 Y13.282 E1.10784
G1 X-10.494 Y14.728 E1.21796
G1 X-10.683 Y15.055 E1.23832
G1 X-12.128 Y13.610 E1.34844
G1 X-12.317 Y13.937 E1.36879
G1 X-10.872 Y15.382 E1.47891
G1 X-11.061 Y15.709 E1.49926
G1 X-12.506 Y14.264 E1.60938
G1 X-12.695 Y14.591 E1.62974
G1 X-11.250 Y16.036 E1.73986
G1 X-11.438 Y16.363 E1.76021
G1 X-12.883 Y14.918 E1.87033
G1 X-13.072 Y15.245 E1.89068
G1 X-11.627 Y16.690 E2.00081
G1 X-11.816 Y17.017 E2.02116
G1 X-13.261 Y15.572 E2.13128
G1 X-13.450 Y15.899 E2.15163
G1 X-12.903 Y16.446 E2.19331
G1 F1800.000 E1.19331
G92 E0
G1 X-6.609 Y5.711 F9000.000
G1 F1800.000 E1.00000
G1 X-8.842 Y3.479 F4200.000 E1.16735
G1 X-9.400 Y2.410 E1.23126
G1 X-5.541 Y6.269 E1.52057
G1 X-4.777 Y6.522 E1.56322
G1 X-9.653 Y1.646 E1.92875
G1 X-9.795 Y0.994 E1.96414
G1 X-4.125 Y6.664 E2.38921
G1 X-3.540 Y6.738 E2.42046
G1 X-9.869 Y0.409 E2.89493
G1 X-9.893 Y-0.125 E2.92330
G1 X-3.006 Y6.762 E3.43964
G1 X-2.519 Y6.738 E3.46548
G1 X-9.869 Y-0.612 E4.01654
G1 X-9.815 Y-1.068 E4.04088
G1 X-2.063 Y6.684 E4.62203
G1 X-1.626 Y6.610 E4.64552
G1 X-9.741 Y-1.505 E5.25390
G1 X-9.638 Y-1.913 E5.27619
G1 X-1.218 Y6.507 E5.90744
G1 X-0.832 Y6.383 E5.92894
G1 X-9.514 Y-2.299 E6.57980
G1 X-9.377 Y-2.672 E6.60090
G1 X-0.459 Y6.246 E7.26949
G1 X-0.112 Y6.082 E7.28981
G1 X-9.212 Y-3.018 E7.97204
G1 X-9.040 Y-3.356 E7.99216
G1 X0.226 Y5.909 E8.68681
G1 X0.544 Y5.717 E8.70653
G1 X-8.848 Y-3.675 E9.41072
G1 X-8.642 Y-3.979 E9.43020
G1 X0.848 Y5.511 E10.14167
G1 X1.141 Y5.293 E10.16102
G1 X-8.424 Y-4.272 E10.87816
G1 X-8.185 Y-4.544 E10.89734
G1 X1.414 Y5.055 E11.61701
G1 X1.681 Y4.812 E11.63617
G1 X-7.942 Y-4.812 E12.35762
G1 X-7.676 Y-5.055 E12.37678
G1 X1.924 Y4.544 E13.09645
G1 X2.162 Y4.272 E13.11563
G1 X-7.403 Y-5.293 E13.83277
G1 X-7.110 Y-5.511 E13.85212
G1 X2.380 Y3.979 E14.56359
G1 X2.587 Y3.675 E14.58307
G1 X-6.806 Y-5.717 E15.28726
G1 X-6.487 Y-5.909 E15.30698
G1 X2.778 Y3.356 E16.00163
G1 X2.951 Y3.018 E16.02174
G1 X-6.149 Y-6.082 E16.70398
G1 X-5.803 Y-6.246 E16.72430
G1 X3.115 Y2.672 E17.39289
G1 X3.252 Y2.299 E17.41399
G1 X-5.430 Y-6.383 E18.06484
G1 X-5.044 Y-6.507 E18.08635
G1 X3.376 Y1.913 E18.71760
G1 X3.479 Y1.505 E18.73989
G1 X-4.636 Y-6.610 E19.34827
G1 X-4.199 Y-6.684 E19.37176
G1 X3.553 Y1.068 E19.95290
G1 X3.610 Y0.615 E19.97710
G1 X-3.743 Y-6.738 E20.52840
G1 X-3.256 Y-6.762 E20.55424
G1 X3.632 Y0.127 E21.07069
G1 X3.607 Y-0.409 E21.09913
G1 X-2.722 Y-6.738 E21.57360
G1 X-2.137 Y-6.664 E21.60485
G1 X3.533 Y-0.994 E22.02992
G1 X3.391 Y-1.646 E22.06531
G1 X-1.485 Y-6.522 E22.43085
G1 X-0.721 Y-6.269 E22.47349
G1 X3.138 Y-2.410 E22.76280
G1 X2.580 Y-3.479 E22.82671
G1 X0.348 Y-5.711 E22.99406
G1 F1800.000 E21.99406
G92 E0
G1 X12.986 Y0.949 F9000.000
G1 F1800.000 E1.00000
G1 X12.661 Y0.624 F4200.000 E1.02480
G1 X12.661 Y0.108 E1.05272
G1 X13.503 Y0.949 E1.11701
G1 X14.020 Y0.949 E1.14492
G1 X12.661 Y-0.409 E1.24869
G1 X12.661 Y-0.926 E1.27661
G1 X14.536 Y0.949 E1.41985
G1 X15.053 Y0.949 E1.44777
G1 X13.155 Y-0.949 E1.59277
G1 X13.672 Y-0.949 E1.62069
G1 X15.570 Y0.949 E1.76569
G1 X16.064 Y0.926 E1.79240
G1 X14.189 Y-0.949 E1.93564
G1 X14.706 Y-0.949 E1.96356
G1 X16.064 Y0.409 E2.06733
G1 X16.064 Y-0.108 E2.09524
G1 X15.222 Y-0.949 E2.15953
G1 X15.739 Y-0.949 E2.18745
G1 X16.064 Y-0.624 E2.21225
G1 F1800.000 E1.21225
G92 E0
G1 X-11.596 Y-13.304 F9000.000
G1 F1800.000 E1.00000
G1 X-12.154 Y-13.862 F4200.000 E1.04319
G1 X-11.265 Y-13.495 E1.09582
G1 X-12.866 Y-15.095 E1.21976
G1 X-13.481 Y-16.232 E1.29055
G1 X-10.935 Y-13.686 E1.48775
G1 X-10.604 Y-13.877 E1.50865
G1 X-13.151 Y-16.423 E1.70585
G1 X-12.820 Y-16.614 E1.72675
G1 X-10.274 Y-14.067 E1.92395
G1 X-10.889 Y-15.204 E1.99474
G1 X-12.490 Y-16.805 E2.11869
G1 X-12.159 Y-16.995 E2.13958
G1 X-11.602 Y-16.438 E2.18278
G1 F1800.000 E1.18278
G92 E0
G1 Z0.700 F9000.000
G1 X-11.934 Y12.836
G1 F1800.000 E1.00000
G1 X-9.846 Y14.042 F3000.000 E1.12763
G1 X-11.808 Y17.441 E1.33535
G1 X-13.896 Y16.235 E1.46297
G1 X-11.962 Y12.884 E1.66777
G1 X-12.066 Y12.344 F9000.000
G1 X-9.353 Y13.910 F3000.000 E1.83358
G1 X-11.676 Y17.933 E2.07947
G1 X-14.389 Y16.367 E2.24527
G1 X-12.094 Y12.391 E2.48825
G1 F1800.000 E1.48825
G92 E0
G1 X-7.336 Y5.782 F9000.000
G1 F1800.000 E1.00000
G1 X-7.644 Y5.546 F3600.000 E1.02051
G1 X-8.143 Y5.099 E1.05597
G1 X-8.411 Y4.821 E1.07640
G1 X-8.840 Y4.304 E1.11195
G1 X-9.064 Y3.990 E1.13238
G1 X-9.411 Y3.417 E1.16784
G1 X-9.588 Y3.072 E1.18835
G1 X-9.846 Y2.455 E1.22374
G1 X-9.970 Y2.088 E1.24425
G1 X-10.135 Y1.439 E1.27972
G1 X-10.203 Y1.060 E1.30009
G1 X-10.270 Y0.394 E1.33554
G1 X-10.282 Y0.005 E1.35613
G1 X-10.250 Y-0.667 E1.39173
G1 X-10.204 Y-1.050 E1.41215
G1 X-10.076 Y-1.698 E1.44707
G1 X-9.843 Y-2.463 E1.48941
G1 X-9.590 Y-3.068 E1.52415
G1 X-9.279 Y-3.651 E1.55913
G1 X-8.913 Y-4.206 E1.59429
G1 X-8.677 Y-4.513 E1.61480
G1 X-8.230 Y-5.012 E1.65027
G1 X-7.952 Y-5.280 E1.67069
G1 X-7.435 Y-5.709 E1.70624
G1 X-7.121 Y-5.934 E1.72667
G1 X-6.548 Y-6.280 E1.76213
G1 X-6.203 Y-6.457 E1.78264
G1 X-5.586 Y-6.715 E1.81803
G1 X-5.219 Y-6.839 E1.83854
G1 X-4.570 Y-7.004 E1.87401
G1 X-4.190 Y-7.072 E1.89444
G1 X-3.522 Y-7.139 E1.92998
G1 X-3.136 Y-7.151 E1.95041
G1 X-2.466 Y-7.119 E1.98588
G1 X-2.082 Y-7.073 E2.00639
G1 X-1.433 Y-6.945 E2.04137
G1 X-0.668 Y-6.712 E2.08370
G1 X-0.063 Y-6.459 E2.11844
G1 X0.520 Y-6.148 E2.15342
G1 X1.075 Y-5.782 E2.18858
G1 X1.382 Y-5.546 E2.20909
G1 X1.881 Y-5.099 E2.24456
G1 X2.150 Y-4.821 E2.26498
G1 X2.578 Y-4.304 E2.30053
G1 X2.803 Y-3.990 E2.32096
G1 X3.149 Y-3.417 E2.35642
G1 X3.326 Y-3.072 E2.37693
G1 X3.584 Y-2.455 E2.41232
G1 X3.708 Y-2.088 E2.43283
G1 X3.873 Y-1.439 E2.46830
G1 X3.941 Y-1.060 E2.48868
G1 X4.008 Y-0.393 E2.52413
G1 X4.020 Y0.001 E2.54503
G1 X3.988 Y0.663 E2.58010
G1 X3.942 Y1.050 E2.60073
G1 X3.815 Y1.698 E2.63566
G1 X3.581 Y2.463 E2.67800
G1 X3.328 Y3.068 E2.71273
G1 X3.017 Y3.651 E2.74771
G1 X2.651 Y4.206 E2.78288
G1 X2.415 Y4.513 E2.80338
G1 X1.968 Y5.012 E2.83885
G1 X1.690 Y5.280 E2.85928
G1 X1.173 Y5.709 E2.89482
G1 X0.860 Y5.934 E2.91525
G1 X0.286 Y6.280 E2.95072
G1 X-0.059 Y6.457 E2.97123
G1 X-0.675 Y6.715 E3.00662
G1 X-1.043 Y6.839 E3.02713
G1 X-1.692 Y7.004 E3.06259
G1 X-2.072 Y7.072 E3.08302
G1 X-2.740 Y7.139 E3.11857
G1 X-3.126 Y7.151 E3.13900
G1 X-3.795 Y7.119 E3.17446
G1 X-4.180 Y7.073 E3.19497
G1 X-4.828 Y6.945 E3.22995
G1 X-5.594 Y6.712 E3.27229
G1 X-6.199 Y6.459 E3.30702
G1 X-6.782 Y6.148 E3.34200
G1 X-7.290 Y5.812 E3.37425
G1 X-7.546 Y6.076 F9000.000
G1 X-7.874 Y5.824 F3600.000 E3.39616
G1 X-8.393 Y5.359 E3.43304
G1 X-8.680 Y5.062 E3.45488
G1 X-9.126 Y4.525 E3.49184
G1 X-9.366 Y4.189 E3.51368
G1 X-9.726 Y3.593 E3.55056
G1 X-9.915 Y3.224 E3.57248
G1 X-10.184 Y2.583 E3.60929
G1 X-10.316 Y2.190 E3.63120
G1 X-10.488 Y1.515 E3.66808
G1 X-10.560 Y1.110 E3.68987
G1 X-10.630 Y0.417 E3.72672
G1 X-10.642 Y0.002 E3.74873
G1 X-10.609 Y-0.697 E3.78575
G1 X-10.560 Y-1.107 E3.80758
G1 X-10.427 Y-1.785 E3.84419
G1 X-10.183 Y-2.585 E3.88846
G1 X-9.916 Y-3.223 E3.92504
G1 X-9.589 Y-3.836 E3.96181
G1 X-9.207 Y-4.415 E3.99854
G1 X-8.955 Y-4.744 E4.02045
G1 X-8.490 Y-5.262 E4.05733
G1 X-8.193 Y-5.549 E4.07917
G1 X-7.655 Y-5.995 E4.11613
G1 X-7.320 Y-6.235 E4.13797
G1 X-6.724 Y-6.596 E4.17485
G1 X-6.355 Y-6.784 E4.19677
G1 X-5.714 Y-7.053 E4.23358
G1 X-5.321 Y-7.185 E4.25549
G1 X-4.646 Y-7.357 E4.29237
G1 X-4.240 Y-7.429 E4.31422
G1 X-3.545 Y-7.500 E4.35117
G1 X-3.133 Y-7.512 E4.37301
G1 X-2.437 Y-7.479 E4.40990
G1 X-2.025 Y-7.430 E4.43181
G1 X-1.346 Y-7.296 E4.46848
G1 X-0.546 Y-7.052 E4.51275
G1 X0.092 Y-6.785 E4.54933
G1 X0.705 Y-6.458 E4.58610
G1 X1.284 Y-6.076 E4.62283
G1 X1.613 Y-5.824 E4.64474
G1 X2.131 Y-5.359 E4.68162
G1 X2.418 Y-5.062 E4.70347
G1 X2.864 Y-4.525 E4.74042
G1 X3.104 Y-4.189 E4.76226
G1 X3.465 Y-3.593 E4.79914
G1 X3.653 Y-3.224 E4.82106
G1 X3.922 Y-2.583 E4.85787
G1 X4.054 Y-2.190 E4.87978
G1 X4.226 Y-1.515 E4.91666
G1 X4.298 Y-1.110 E4.93845
G1 X4.368 Y-0.417 E4.97531
G1 X4.381 Y0.000 E4.99742
G1 X4.374 Y0.269 E5.01164
G1 X4.348 Y0.696 E5.03427
G1 X4.299 Y1.107 E5.05616
G1 X4.165 Y1.785 E5.09278
G1 X3.921 Y2.585 E5.13705
