; generated by Slic3r 0.7.1 on 2012-06-12 at 13:28:18

; layer_height = .35
; perimeters = 2
; solid_layers = 2
; fill_density = .42
; nozzle_diameter = .35
; filament_diameter = 1.75
; extrusion_multiplier = 1
; perimeter_speed = 30
; infill_speed = 60
; travel_speed = 150
; extrusion_width_ratio = 0
; scale = 1
; single wall width = 0.37mm

M190 S85 ; set bed temperature
M104 S185 ; set temperature

M109 S185 ; wait for temperature to be reached
G90 ; use absolute coordinates
G21 ; set units to millimeters
G92 E0 ; reset extrusion distance
M82 ; use absolute distances for extrusion
G1 Z0.350 F9000.000
G1 X-16.610 Y-5.871
G1 F1800.000 E1.00000
G1 X-6.540 Y-14.281 F1800.000 E1.69443
G1 X-6.000 Y-14.671 E1.72969
G1 X-3.790 Y-15.981 E1.86567
G1 X4.470 Y-20.071 E2.35353
G1 X5.000 Y-20.241 E2.38299
G1 X5.540 Y-20.371 E2.41239
G1 X6.090 Y-20.441 E2.44174
G1 X6.640 Y-20.471 E2.47089
G1 X7.230 Y-20.441 E2.50216
G1 X7.770 Y-20.371 E2.53098
G1 X8.310 Y-20.251 E2.56026
G1 X9.080 Y-19.971 E2.60363
G1 X9.580 Y-19.731 E2.63298
G1 X12.400 Y-17.981 E2.80865
G1 X13.030 Y-17.451 E2.85222
G1 X13.220 Y-17.261 E2.86645
G1 X13.570 Y-16.841 E2.89538
G1 X13.890 Y-16.401 E2.92418
G1 X15.290 Y-14.001 E3.07124
G1 X15.660 Y-13.181 E3.11886
G1 X20.730 Y0.779 E3.90498
G1 X20.800 Y1.029 E3.91872
G1 X20.910 Y1.559 E3.94737
G1 X21.170 Y3.759 E4.06463
G1 X21.210 Y4.429 E4.10015
G1 X21.190 Y5.039 E4.13246
G1 X21.120 Y5.569 E4.16075
G1 X21.000 Y6.089 E4.18900
G1 X20.840 Y6.589 E4.21679
G1 X20.630 Y7.079 E4.24500
G1 X20.080 Y8.049 E4.30402
G1 X18.880 Y9.819 E4.41721
G1 X18.330 Y10.499 E4.46350
G1 X17.910 Y10.949 E4.49608
G1 X17.480 Y11.339 E4.52681
G1 X17.250 Y11.519 E4.54227
G1 X16.810 Y11.819 E4.57046
G1 X15.960 Y12.289 E4.62187
G1 X15.330 Y12.549 E4.65794
G1 X14.800 Y12.729 E4.68757
G1 X14.250 Y12.859 E4.71748
G1 X13.960 Y12.909 E4.73305
G1 X13.740 Y12.929 E4.74475
G1 X13.740 Y12.939 E4.74528
G1 X-11.900 Y14.959 E6.10660
G1 X-12.740 Y14.949 E6.15106
G1 X-13.520 Y14.879 E6.19251
G1 X-13.820 Y14.829 E6.20861
G1 X-14.420 Y14.679 E6.24134
G1 X-15.540 Y14.279 E6.30429
G1 X-16.210 Y13.979 E6.34315
G1 X-17.090 Y13.489 E6.39646
G1 X-17.520 Y13.189 E6.42421
G1 X-18.210 Y12.649 E6.47059
G1 X-18.830 Y12.089 E6.51481
G1 X-19.400 Y11.499 E6.55823
G1 X-19.390 Y11.499 E6.55876
G1 X-19.480 Y11.409 E6.56550
G1 X-19.770 Y11.069 E6.58915
G1 X-20.650 Y9.799 E6.67093
G1 X-21.260 Y8.659 E6.73936
G1 X-21.550 Y7.899 E6.78242
G1 X-21.910 Y6.439 E6.86201
G1 X-21.990 Y5.759 E6.89825
G1 X-22.030 Y4.729 E6.95281
G1 X-21.990 Y4.189 E6.98147
G1 X-21.820 Y3.159 E7.03673
G1 X-21.660 Y2.529 E7.07113
G1 X-21.180 Y1.179 E7.14697
G1 X-20.500 Y-0.311 E7.23366
G1 X-18.520 Y-3.611 E7.43735
G1 X-18.120 Y-4.201 E7.47508
G1 X-17.760 Y-4.661 E7.50600
G1 X-17.150 Y-5.341 E7.55435
G1 X-16.650 Y-5.832 E7.59148
G1 F1800.000 E6.59148
G92 E0
G1 X-12.480 Y-1.013 F9000.000
G1 F1800.000 E1.00000
G1 X-12.157 Y-1.225 F1800.000 E1.02044
G1 X-11.994 Y-1.295 E1.02983
G1 X-11.852 Y-1.381 E1.03861
G1 X-11.443 Y-1.551 E1.06206
G1 X-10.785 Y-1.714 E1.09794
G1 X-10.728 Y-1.732 E1.10110
G1 X-10.306 Y-1.911 E1.12537
G1 X-10.251 Y-1.938 E1.12861
G1 X-10.025 Y-2.099 E1.14331
G1 X-9.714 Y-2.349 E1.16443
G1 X-8.851 Y-3.170 E1.22744
G1 X-7.622 Y-4.189 E1.31196
G1 X-7.388 Y-4.435 E1.32994
G1 X-7.265 Y-4.596 E1.34068
G1 X-6.088 Y-6.396 E1.45448
G1 X-5.836 Y-6.637 E1.47295
G1 X-5.698 Y-6.797 E1.48411
G1 X-5.539 Y-6.883 E1.49368
G1 X-5.359 Y-7.033 E1.50609
G1 X-5.326 Y-7.053 E1.50815
G1 X-5.194 Y-7.109 E1.51573
G1 X-4.968 Y-7.227 E1.52922
G1 X-4.436 Y-7.563 E1.56252
G1 X-4.370 Y-7.619 E1.56709
G1 X-4.308 Y-7.678 E1.57160
G1 X-3.977 Y-8.078 E1.59910
G1 X-3.679 Y-8.402 E1.62239
G1 X-3.661 Y-8.425 E1.62398
G1 X-3.580 Y-8.468 E1.62878
G1 X-3.442 Y-8.584 E1.63833
G1 X-3.221 Y-8.727 E1.65227
G1 X-2.997 Y-8.892 E1.66700
G1 X-2.569 Y-9.304 E1.69841
G1 X-1.689 Y-9.847 E1.75317
G1 X-1.605 Y-9.906 E1.75861
G1 X-0.750 Y-10.381 E1.81036
G1 X-0.486 Y-10.432 E1.82460
G1 X-0.308 Y-10.484 E1.83445
G1 X-0.080 Y-10.565 E1.84725
G1 X0.954 Y-11.083 E1.90841
G1 X1.134 Y-11.157 E1.91875
G1 X1.274 Y-11.227 E1.92700
G1 X1.666 Y-11.386 E1.94941
G1 X1.993 Y-11.475 E1.96737
G1 X2.212 Y-11.503 E1.97903
G1 X2.323 Y-11.527 E1.98503
G1 X2.993 Y-11.591 E2.02066
G1 X3.402 Y-11.693 E2.04300
G1 X3.597 Y-11.756 E2.05383
G1 X3.672 Y-11.790 E2.05819
G1 X3.727 Y-11.824 E2.06164
G1 X3.956 Y-11.940 E2.07521
G1 X4.631 Y-12.488 E2.12120
G1 X4.900 Y-12.733 E2.14047
G1 X5.361 Y-13.231 E2.17640
G1 X5.864 Y-13.655 E2.21122
G1 X5.880 Y-13.663 E2.21217
G1 X6.293 Y-13.810 E2.23534
G1 X6.337 Y-13.817 E2.23774
G1 X6.407 Y-13.851 E2.24184
G1 X6.412 Y-13.777 E2.24580
G1 X6.478 Y-13.451 E2.26341
G1 X6.702 Y-13.187 E2.28172
G1 X6.879 Y-13.062 E2.29321
G1 X7.114 Y-12.991 E2.30619
G1 X7.422 Y-12.961 E2.32259
G1 X7.681 Y-12.984 E2.33634
G1 X8.033 Y-12.973 E2.35499
G1 X8.489 Y-12.868 E2.37977
G1 X8.505 Y-12.868 E2.38058
G1 X8.515 Y-12.711 E2.38887
G1 X8.563 Y-12.449 E2.40300
G1 X8.588 Y-12.351 E2.40832
G1 X8.626 Y-12.256 E2.41375
G1 X8.645 Y-12.221 E2.41586
G1 X8.685 Y-12.090 E2.42313
G1 X8.912 Y-11.658 E2.44895
G1 X9.134 Y-11.529 E2.46257
G1 X9.223 Y-11.444 E2.46903
G1 X9.353 Y-11.337 E2.47794
G1 X9.676 Y-11.014 E2.50215
G1 X9.675 Y-10.987 E2.50361
G1 X9.644 Y-10.918 E2.50758
G1 X9.555 Y-10.753 E2.51752
G1 X9.503 Y-10.672 E2.52260
G1 X9.452 Y-10.605 E2.52708
G1 X9.185 Y-10.368 E2.54597
G1 X9.129 Y-10.328 E2.54959
G1 X8.898 Y-9.994 E2.57109
G1 X8.849 Y-9.852 E2.57903
G1 X8.809 Y-9.474 E2.59917
G1 X8.893 Y-9.185 E2.61509
G1 X9.048 Y-8.962 E2.62948
G1 X9.229 Y-8.787 E2.64282
G1 X9.443 Y-8.675 E2.65556
G1 X9.342 Y-8.580 E2.66290
G1 X9.306 Y-8.524 E2.66643
G1 X9.287 Y-8.515 E2.66754
G1 X9.134 Y-8.410 E2.67739
G1 X9.045 Y-8.390 E2.68219
G1 X8.913 Y-8.337 E2.68971
G1 X8.487 Y-8.220 E2.71312
G1 X7.975 Y-8.124 E2.74066
G1 X6.341 Y-7.697 E2.83009
G1 X6.223 Y-7.683 E2.83635
G1 X5.685 Y-7.529 E2.86596
G1 X5.562 Y-7.457 E2.87351
G1 X5.194 Y-7.200 E2.89728
G1 X5.107 Y-7.109 E2.90394
G1 X4.982 Y-6.937 E2.91518
G1 X4.852 Y-6.792 E2.92551
G1 X4.325 Y-6.072 E2.97274
G1 X4.194 Y-5.845 E2.98662
G1 X4.102 Y-5.566 E3.00214
G1 X4.088 Y-5.387 E3.01165
G1 X4.128 Y-5.120 E3.02593
G1 X4.175 Y-4.956 E3.03498
G1 X4.340 Y-4.701 E3.05105
G1 X4.424 Y-4.625 E3.05704
G1 X4.525 Y-4.507 E3.06528
G1 X5.053 Y-4.067 E3.10162
G1 X5.063 Y-4.060 E3.10231
G1 X5.436 Y-3.708 E3.12939
G1 X5.578 Y-3.592 E3.13915
G1 X5.710 Y-3.448 E3.14950
G1 X5.852 Y-3.161 E3.16639
G1 X5.970 Y-2.977 E3.17801
G1 X6.225 Y-2.770 E3.19538
G1 X6.399 Y-2.659 E3.20631
G1 X6.496 Y-2.629 E3.21168
G1 X6.749 Y-2.536 E3.22593
G1 X6.687 Y-2.314 E3.23813
G1 X6.689 Y-1.956 E3.25709
G1 X6.744 Y-1.785 E3.26659
G1 X6.840 Y-1.285 E3.29355
G1 X6.865 Y-1.202 E3.29812
G1 X6.897 Y-1.129 E3.30236
G1 X6.924 Y-1.086 E3.30505
G1 X7.055 Y-0.806 E3.32141
G1 X7.395 Y-0.506 E3.34538
G1 X7.455 Y-0.414 E3.35119
G1 X7.478 Y-0.346 E3.35500
G1 X7.503 Y0.298 E3.38914
G1 X7.549 Y0.678 E3.40940
G1 X7.659 Y0.906 E3.42277
G1 X7.770 Y1.053 E3.43253
G1 X7.793 Y1.102 E3.43539
G1 X7.908 Y1.219 E3.44409
G1 X8.173 Y1.409 E3.46135
G1 X8.409 Y1.459 E3.47413
G1 X8.805 Y1.410 E3.49522
G1 X9.058 Y1.302 E3.50981
G1 X9.442 Y1.072 E3.53347
G1 X9.460 Y1.054 E3.53482
G1 X9.669 Y0.910 E3.54826
G1 X10.021 Y0.759 E3.56856
G1 X10.101 Y0.714 E3.57341
G1 X10.488 Y0.607 E3.59464
G1 X10.524 Y0.594 E3.59668
G1 X11.510 Y0.394 E3.64990
G1 X11.548 Y0.382 E3.65202
G1 X11.775 Y0.357 E3.66413
G1 X12.027 Y0.352 E3.67744
G1 X12.037 Y0.352 E3.67799
G1 X12.156 Y0.358 E3.68428
G1 X12.198 Y0.374 E3.68665
G1 X12.232 Y0.382 E3.68853
G1 X12.388 Y0.483 E3.69833
G1 X12.503 Y0.547 E3.70533
G1 X12.598 Y0.586 E3.71076
G1 X13.047 Y0.692 E3.73518
G1 X13.122 Y0.696 E3.73915
G1 X13.185 Y0.722 E3.74277
G1 X13.188 Y0.757 E3.74466
G1 X13.122 Y1.124 E3.76437
G1 X13.148 Y1.257 E3.77157
G1 X13.170 Y1.513 E3.78515
G1 X13.381 Y1.840 E3.80576
G1 X13.525 Y1.964 E3.81584
G1 X13.872 Y2.168 E3.83713
G1 X13.910 Y2.198 E3.83967
G1 X14.401 Y2.514 E3.87059
G1 X14.617 Y2.627 E3.88349
G1 X14.497 Y2.836 E3.89623
G1 X14.477 Y2.879 E3.89872
G1 X14.386 Y3.103 E3.91156
G1 X14.373 Y3.245 E3.91909
G1 X14.340 Y3.452 E3.93020
G1 X14.429 Y3.755 E3.94689
G1 X14.447 Y3.839 E3.95146
G1 X14.508 Y3.953 E3.95828
G1 X14.725 Y4.269 E3.97857
G1 X14.761 Y4.300 E3.98106
G1 X14.803 Y4.379 E3.98584
G1 X14.842 Y4.431 E3.98924
G1 X14.822 Y4.465 E3.99133
G1 X14.675 Y4.591 E4.00159
G1 X14.672 Y4.593 E4.00178
G1 X14.524 Y4.642 E4.01007
G1 X14.466 Y4.649 E4.01311
G1 X14.347 Y4.676 E4.01957
G1 X14.066 Y4.787 E4.03560
G1 X13.766 Y5.020 E4.05567
G1 X13.595 Y5.363 E4.07596
G1 X13.557 Y5.602 E4.08878
G1 X13.559 Y5.856 E4.10225
G1 X13.630 Y6.110 E4.11621
G1 X13.638 Y6.164 E4.11910
G1 X13.638 Y6.186 E4.12027
G1 X13.637 Y6.218 E4.12196
G1 X13.628 Y6.236 E4.12301
G1 X13.458 Y6.418 E4.13619
G1 X13.327 Y6.510 E4.14467
G1 X13.320 Y6.514 E4.14505
G1 X13.244 Y6.546 E4.14943
G1 X13.042 Y6.612 E4.16068
G1 X12.476 Y6.622 E4.19064
G1 X12.433 Y6.620 E4.19295
G1 X12.117 Y6.519 E4.21048
G1 X12.042 Y6.485 E4.21485
G1 X11.950 Y6.461 E4.21989
G1 X11.638 Y6.406 E4.23665
G1 X11.195 Y6.422 E4.26014
G1 X10.579 Y6.358 E4.29290
G1 X10.495 Y6.355 E4.29736
G1 X8.806 Y6.497 E4.38708
G1 X8.801 Y6.502 E4.38743
G1 X8.554 Y6.524 E4.40057
G1 X8.535 Y6.524 E4.40157
G1 X8.282 Y6.562 E4.41511
G1 X7.729 Y6.580 E4.44440
G1 X7.200 Y6.684 E4.47294
G1 X6.259 Y6.991 E4.52532
G1 X6.163 Y7.011 E4.53052
G1 X5.985 Y7.085 E4.54071
G1 X5.704 Y7.236 E4.55761
G1 X5.646 Y7.257 E4.56086
G1 X5.576 Y7.271 E4.56462
G1 X5.531 Y7.275 E4.56704
G1 X5.172 Y7.276 E4.58601
G1 X5.097 Y7.281 E4.59003
G1 X4.350 Y7.458 E4.63062
G1 X3.360 Y7.624 E4.68379
G1 X3.121 Y7.683 E4.69681
G1 X3.099 Y7.686 E4.69798
G1 X2.747 Y7.705 E4.71666
G1 X2.739 Y7.707 E4.71708
G1 X2.726 Y7.706 E4.71775
G1 X2.103 Y7.802 E4.75110
G1 X2.017 Y7.781 E4.75580
G1 X1.227 Y7.645 E4.79823
G1 X1.135 Y7.638 E4.80311
G1 X0.692 Y7.564 E4.82689
G1 X0.675 Y7.562 E4.82780
G1 X0.314 Y7.458 E4.84765
G1 X-0.211 Y7.220 E4.87817
G1 X-0.227 Y7.210 E4.87920
G1 X-1.964 Y6.376 E4.98116
G1 X-2.405 Y6.207 E5.00616
G1 X-2.788 Y6.118 E5.02697
G1 X-2.857 Y6.108 E5.03066
G1 X-3.091 Y6.096 E5.04305
G1 X-3.369 Y6.119 E5.05783
G1 X-3.413 Y6.118 E5.06018
G1 X-3.722 Y6.159 E5.07666
G1 X-4.056 Y6.255 E5.09507
G1 X-5.005 Y6.366 E5.14564
G1 X-5.337 Y6.342 E5.16323
G1 X-6.206 Y6.357 E5.20924
G1 X-7.661 Y6.532 E5.28684
G1 X-8.064 Y6.621 E5.30866
G1 X-8.914 Y6.897 E5.35599
G1 X-8.984 Y6.924 E5.35992
G1 X-9.134 Y6.952 E5.36803
G1 X-9.465 Y7.072 E5.38664
G1 X-9.556 Y7.119 E5.39207
G1 X-9.789 Y7.275 E5.40694
G1 X-9.987 Y7.455 E5.42108
G1 X-10.184 Y7.655 E5.43597
G1 X-10.244 Y7.709 E5.44024
G1 X-10.300 Y7.738 E5.44354
G1 X-10.749 Y8.042 E5.47224
G1 X-11.287 Y8.345 E5.50493
G1 X-11.767 Y8.552 E5.53263
G1 X-11.856 Y8.558 E5.53735
G1 X-12.232 Y8.607 E5.55739
G1 X-12.268 Y8.601 E5.55933
G1 X-12.649 Y8.575 E5.57951
G1 X-12.944 Y8.475 E5.59604
G1 X-13.001 Y8.445 E5.59945
G1 X-13.585 Y8.182 E5.63335
G1 X-13.607 Y8.169 E5.63469
G1 X-14.260 Y7.657 E5.67858
G1 X-14.799 Y7.100 E5.71963
G1 X-15.196 Y6.526 E5.75659
G1 X-15.207 Y6.506 E5.75779
G1 X-15.272 Y6.358 E5.76637
G1 X-15.471 Y6.012 E5.78748
G1 X-15.634 Y5.352 E5.82344
G1 X-15.643 Y5.143 E5.83454
G1 X-15.664 Y4.916 E5.84658
G1 X-15.589 Y4.441 E5.87203
G1 X-15.187 Y3.353 E5.93346
G1 X-14.993 Y2.918 E5.95867
G1 X-14.992 Y2.916 E5.95877
G1 X-14.822 Y2.571 E5.97911
G1 X-14.749 Y2.485 E5.98512
G1 X-14.517 Y2.135 E6.00730
G1 X-14.402 Y2.004 E6.01654
G1 X-14.249 Y1.850 E6.02803
G1 X-13.948 Y1.500 E6.05249
G1 X-13.868 Y1.357 E6.06114
G1 X-13.572 Y0.521 E6.10810
G1 X-13.089 Y-0.295 E6.15829
G1 X-12.751 Y-0.725 E6.18722
G1 X-12.518 Y-0.973 E6.20526
G1 X-12.713 Y-1.292 F9000.000
G1 X-12.328 Y-1.544 F1800.000 E6.22966
G1 X-12.159 Y-1.616 E6.23936
G1 X-12.016 Y-1.703 E6.24823
G1 X-11.556 Y-1.895 E6.27459
G1 X-10.883 Y-2.061 E6.31130
G1 X-10.853 Y-2.070 E6.31294
G1 X-10.458 Y-2.238 E6.33567
G1 X-10.438 Y-2.248 E6.33685
G1 X-10.242 Y-2.387 E6.34955
G1 X-9.952 Y-2.621 E6.36930
G1 X-9.091 Y-3.440 E6.43218
G1 X-7.869 Y-4.453 E6.51620
G1 X-7.663 Y-4.670 E6.53203
G1 X-7.560 Y-4.804 E6.54096
G1 X-6.364 Y-6.631 E6.65657
G1 X-6.098 Y-6.886 E6.67606
G1 X-5.928 Y-7.082 E6.68979
G1 X-5.742 Y-7.183 E6.70100
G1 X-5.569 Y-7.327 E6.71291
G1 X-5.492 Y-7.374 E6.71772
G1 X-5.348 Y-7.435 E6.72596
G1 X-5.148 Y-7.540 E6.73792
G1 X-4.649 Y-7.856 E6.76920
G1 X-4.610 Y-7.888 E6.77186
G1 X-4.573 Y-7.923 E6.77458
G1 X-4.249 Y-8.315 E6.80149
G1 X-3.953 Y-8.636 E6.82458
G1 X-3.912 Y-8.689 E6.82814
G1 X-3.887 Y-8.714 E6.82999
G1 X-3.783 Y-8.768 E6.83621
G1 X-3.657 Y-8.874 E6.84489
G1 X-3.427 Y-9.024 E6.85946
G1 X-3.230 Y-9.169 E6.87237
G1 X-2.792 Y-9.590 E6.90457
G1 X-1.888 Y-10.148 E6.96080
G1 X-1.797 Y-10.212 E6.96668
G1 X-0.875 Y-10.724 E7.02248
G1 X-0.572 Y-10.782 E7.03883
G1 X-0.419 Y-10.827 E7.04724
G1 X-0.221 Y-10.898 E7.05836
G1 X0.804 Y-11.411 E7.11905
G1 X0.985 Y-11.485 E7.12939
G1 X1.125 Y-11.555 E7.13768
G1 X1.550 Y-11.729 E7.16198
G1 X1.923 Y-11.830 E7.18243
G1 X2.151 Y-11.859 E7.19461
G1 X2.267 Y-11.884 E7.20090
G1 X2.931 Y-11.948 E7.23622
G1 X3.303 Y-12.040 E7.25649
G1 X3.468 Y-12.094 E7.26568
G1 X3.503 Y-12.109 E7.26772
G1 X3.550 Y-12.138 E7.27062
G1 X3.758 Y-12.244 E7.28299
G1 X4.395 Y-12.761 E7.32642
G1 X4.645 Y-12.990 E7.34434
G1 X5.112 Y-13.493 E7.38064
G1 X5.662 Y-13.957 E7.41876
G1 X5.736 Y-13.995 E7.42316
G1 X6.200 Y-14.159 E7.44923
G1 X6.224 Y-14.164 E7.45052
G1 X6.388 Y-14.243 E7.46013
G1 X6.540 Y-14.375 E7.47079
G1 X6.582 Y-14.428 E7.47436
G1 X6.641 Y-14.465 E7.47803
G1 X6.688 Y-14.465 E7.48056
G1 X6.730 Y-14.422 E7.48373
G1 X6.774 Y-14.221 E7.49459
G1 X6.766 Y-13.890 E7.51215
G1 X6.770 Y-13.825 E7.51558
G1 X6.813 Y-13.613 E7.52701
G1 X6.947 Y-13.455 E7.53799
G1 X7.040 Y-13.390 E7.54398
G1 X7.184 Y-13.346 E7.55195
G1 X7.424 Y-13.323 E7.56470
G1 X7.671 Y-13.345 E7.57782
G1 X8.075 Y-13.333 E7.59924
G1 X8.083 Y-13.332 E7.59969
G1 X8.530 Y-13.228 E7.62395
G1 X8.554 Y-13.228 E7.62523
G1 X8.599 Y-13.228 E7.62761
G1 X8.783 Y-13.179 E7.63770
G1 X8.820 Y-13.159 E7.63993
G1 X8.854 Y-13.137 E7.64207
G1 X8.869 Y-13.094 E7.64449
G1 X8.856 Y-13.013 E7.64879
G1 X8.874 Y-12.756 E7.66243
G1 X8.916 Y-12.526 E7.67481
G1 X8.932 Y-12.463 E7.67824
G1 X8.953 Y-12.410 E7.68129
G1 X8.979 Y-12.361 E7.68422
G1 X9.020 Y-12.227 E7.69163
G1 X9.183 Y-11.918 E7.71015
G1 X9.353 Y-11.819 E7.72054
G1 X9.462 Y-11.714 E7.72854
G1 X9.595 Y-11.605 E7.73767
G1 X9.967 Y-11.234 E7.76546
G1 X10.026 Y-11.130 E7.77177
G1 X10.039 Y-11.044 E7.77639
G1 X10.034 Y-10.924 E7.78276
G1 X10.015 Y-10.863 E7.78613
G1 X9.966 Y-10.758 E7.79227
G1 X9.866 Y-10.569 E7.80359
G1 X9.798 Y-10.466 E7.81011
G1 X9.719 Y-10.359 E7.81714
G1 X9.411 Y-10.086 E7.83895
G1 X9.391 Y-10.072 E7.84024
G1 X9.223 Y-9.829 E7.85589
G1 X9.203 Y-9.772 E7.85904
G1 X9.175 Y-9.507 E7.87318
G1 X9.223 Y-9.343 E7.88220
G1 X9.324 Y-9.197 E7.89163
G1 X9.443 Y-9.082 E7.90036
G1 X9.723 Y-8.936 E7.91712
G1 X9.794 Y-8.907 E7.92115
G1 X9.817 Y-8.883 E7.92290
G1 X9.867 Y-8.824 E7.92697
G1 X9.872 Y-8.772 E7.92978
G1 X9.855 Y-8.665 E7.93549
G1 X9.773 Y-8.492 E7.94565
G1 X9.622 Y-8.348 E7.95667
G1 X9.552 Y-8.240 E7.96351
G1 X9.465 Y-8.200 E7.96856
G1 X9.281 Y-8.073 E7.98041
G1 X9.153 Y-8.044 E7.98736
G1 X9.028 Y-7.995 E7.99445
G1 X8.568 Y-7.868 E8.01971
G1 X8.054 Y-7.772 E8.04738
G1 X6.408 Y-7.342 E8.13741
G1 X6.295 Y-7.328 E8.14344
G1 X5.828 Y-7.195 E8.16918
G1 X5.756 Y-7.153 E8.17355
G1 X5.429 Y-6.925 E8.19466
G1 X5.384 Y-6.878 E8.19811
G1 X5.263 Y-6.710 E8.20904
G1 X5.132 Y-6.564 E8.21943
G1 X4.627 Y-5.875 E8.26466
G1 X4.525 Y-5.697 E8.27554
G1 X4.458 Y-5.495 E8.28677
G1 X4.451 Y-5.400 E8.29180
