; generated by Slic3r 0.7.1 on 2012-04-05 at 16:10:36

; layer_height = .35
; perimeters = 2
; solid_layers = 2
; fill_density = .42
; nozzle_diameter = .35
; filament_diameter = 1.75
; extrusion_multiplier = 1
; perimeter_speed = 30
; infill_speed = 60
; travel_speed = 130
; extrusion_width_ratio = 0
; scale = 1
; single wall width = 0.37mm

M190 S80 ; set bed temperature
M104 S170 ; set temperature

M109 S170 ; wait for temperature to be reached
G90 ; use absolute coordinates
G21 ; set units to millimeters
G92 E0 ; reset extrusion distance
M82 ; use absolute distances for extrusion
G1 Z0.350 F7800.000
G1 X-14.150 Y-13.970
G1 F1800.000 E1.00000
G1 X-13.970 Y-14.150 F1800.000 E1.01347
G1 X-13.590 Y-14.490 E1.04046
G1 X-12.970 Y-14.930 E1.08070
G1 X-12.750 Y-15.060 E1.09423
G1 X-12.290 Y-15.290 E1.12145
G1 X-11.820 Y-15.480 E1.14828
G1 X-11.330 Y-15.630 E1.17541
G1 X-11.080 Y-15.690 E1.18901
G1 X-10.330 Y-15.800 E1.22914
G1 X-9.820 Y-15.820 E1.25615
G1 X10.320 Y-15.800 E2.32215
G1 X11.070 Y-15.690 E2.36228
G1 X11.570 Y-15.560 E2.38962
G1 X12.050 Y-15.390 E2.41657
G1 X12.510 Y-15.180 E2.44334
G1 X12.740 Y-15.060 E2.45707
G1 X12.960 Y-14.930 E2.47059
G1 X13.580 Y-14.490 E2.51083
G1 X13.960 Y-14.150 E2.53782
G1 X14.140 Y-13.970 E2.55130
G1 X14.480 Y-13.590 E2.57829
G1 X14.920 Y-12.970 E2.61853
G1 X15.050 Y-12.750 E2.63205
G1 X15.280 Y-12.290 E2.65927
G1 X15.470 Y-11.820 E2.68611
G1 X15.620 Y-11.330 E2.71323
G1 X15.680 Y-11.080 E2.72684
G1 X15.790 Y-10.330 E2.76696
G1 X15.790 Y10.320 E3.85996
G1 X15.680 Y11.070 E3.90008
G1 X15.550 Y11.570 E3.92742
G1 X15.380 Y12.050 E3.95437
G1 X15.170 Y12.510 E3.98114
G1 X15.050 Y12.740 E3.99487
G1 X14.920 Y12.960 E4.00840
G1 X14.480 Y13.580 E4.04864
G1 X14.140 Y13.960 E4.07563
G1 X13.960 Y14.140 E4.08910
G1 X13.580 Y14.480 E4.11609
G1 X12.960 Y14.920 E4.15633
G1 X12.740 Y15.050 E4.16985
G1 X12.280 Y15.280 E4.19708
G1 X11.810 Y15.470 E4.22391
G1 X11.320 Y15.620 E4.25103
G1 X11.070 Y15.680 E4.26464
G1 X10.320 Y15.790 E4.30476
G1 X9.810 Y15.810 E4.33178
G1 X-10.330 Y15.790 E5.39778
G1 X-11.080 Y15.680 E5.43790
G1 X-11.580 Y15.550 E5.46525
G1 X-12.060 Y15.380 E5.49220
G1 X-12.520 Y15.170 E5.51896
G1 X-12.750 Y15.050 E5.53269
G1 X-12.970 Y14.920 E5.54622
G1 X-13.590 Y14.480 E5.58646
G1 X-13.970 Y14.140 E5.61345
G1 X-14.150 Y13.960 E5.62692
G1 X-14.490 Y13.580 E5.65391
G1 X-14.930 Y12.960 E5.69415
G1 X-15.060 Y12.740 E5.70768
G1 X-15.290 Y12.280 E5.73490
G1 X-15.480 Y11.810 E5.76173
G1 X-15.630 Y11.320 E5.78885
G1 X-15.690 Y11.070 E5.80246
G1 X-15.800 Y10.320 E5.84258
G1 X-15.800 Y-10.330 E6.93558
G1 X-15.690 Y-11.080 E6.97570
G1 X-15.560 Y-11.580 E7.00305
G1 X-15.390 Y-12.060 E7.03000
G1 X-15.180 Y-12.520 E7.05676
G1 X-15.060 Y-12.750 E7.07050
G1 X-14.930 Y-12.970 E7.08402
G1 X-14.490 Y-13.590 E7.12426
G1 X-14.187 Y-13.929 E7.14833
G1 F1800.000 E6.14833
G92 E0
G1 X-4.918 Y-5.237 F7800.000
G1 F1800.000 E1.00000
G1 X-4.223 Y-5.812 F1800.000 E1.04775
G1 X-3.461 Y-6.295 E1.09551
G1 X-2.645 Y-6.680 E1.14326
G1 X-1.787 Y-6.958 E1.19101
G1 X-0.900 Y-7.127 E1.23876
G1 X-0.006 Y-7.184 E1.28621
G1 X7.184 Y-7.184 E1.66675
G1 X7.184 Y7.184 E2.42721
G1 X-0.006 Y7.184 E2.80775
G1 X-0.900 Y7.127 E2.85520
G1 X-1.787 Y6.958 E2.90295
G1 X-2.645 Y6.680 E2.95070
G1 X-3.461 Y6.295 E2.99845
G1 X-4.223 Y5.812 E3.04621
G1 X-4.918 Y5.237 E3.09396
G1 X-5.535 Y4.579 E3.14171
G1 X-6.066 Y3.849 E3.18946
G1 X-6.500 Y3.059 E3.23722
G1 X-6.832 Y2.220 E3.28497
G1 X-7.057 Y1.346 E3.33272
G1 X-7.170 Y0.451 E3.38047
G1 X-7.170 Y-0.451 E3.42823
G1 X-7.057 Y-1.346 E3.47598
G1 X-6.832 Y-2.220 E3.52373
G1 X-6.500 Y-3.059 E3.57148
G1 X-6.066 Y-3.849 E3.61924
G1 X-5.535 Y-4.579 E3.66699
G1 X-4.956 Y-5.197 E3.71182
G1 X-5.165 Y-5.500 F7800.000
G1 X-4.435 Y-6.104 F1800.000 E3.76198
G1 X-3.635 Y-6.612 E3.81213
G1 X-2.778 Y-7.016 E3.86229
G1 X-1.876 Y-7.308 E3.91244
G1 X-0.946 Y-7.486 E3.96260
G1 X-0.017 Y-7.544 E4.01184
G1 X7.544 Y-7.544 E4.41207
G1 X7.544 Y7.544 E5.21071
G1 X-0.017 Y7.544 E5.61094
G1 X-0.946 Y7.486 E5.66018
G1 X-1.876 Y7.308 E5.71034
G1 X-2.778 Y7.016 E5.76049
G1 X-3.635 Y6.612 E5.81065
G1 X-4.435 Y6.104 E5.86080
G1 X-5.165 Y5.500 E5.91095
G1 X-5.814 Y4.810 E5.96111
G1 X-6.371 Y4.043 E6.01126
G1 X-6.827 Y3.213 E6.06142
G1 X-7.176 Y2.332 E6.11157
G1 X-7.412 Y1.414 E6.16173
G1 X-7.531 Y0.474 E6.21188
G1 X-7.531 Y-0.474 E6.26203
G1 X-7.412 Y-1.414 E6.31219
G1 X-7.176 Y-2.332 E6.36234
G1 X-6.827 Y-3.213 E6.41250
G1 X-6.371 Y-4.043 E6.46265
G1 X-5.814 Y-4.810 E6.51281
G1 X-5.203 Y-5.460 E6.56004
G1 F1800.000 E5.56004
G92 E0
G1 X-9.456 Y-9.456 F7800.000
G1 F1800.000 E1.00000
G1 X9.456 Y-9.456 F1800.000 E2.00096
G1 X9.456 Y9.456 E3.00193
G1 X-9.456 Y9.456 E4.00289
G1 X-9.456 Y-9.400 E5.00094
G1 X-9.816 Y-9.816 F7800.000
G1 X9.816 Y-9.816 F1800.000 E6.04008
G1 X9.816 Y9.816 E7.07922
G1 X-9.816 Y9.816 E8.11836
G1 X-9.816 Y-9.761 E9.15458
G1 X-9.199 Y-9.199 F7800.000
G1 X-5.479 Y-5.479 F3600.000 E9.43849
G1 X-5.218 Y-5.735 F7800.000
G1 X-8.683 Y-9.199 F3600.000 E9.70286
G1 X-8.166 Y-9.199 F7800.000
G1 X-4.936 Y-5.968 F3600.000 E9.94939
G1 X-4.653 Y-6.202 F7800.000
G1 X-7.650 Y-9.199 F3600.000 E10.17809
G1 X-7.133 Y-9.199 F7800.000
G1 X-4.350 Y-6.416 F3600.000 E10.39049
G1 X-4.034 Y-6.616 F7800.000
G1 X-6.617 Y-9.199 F3600.000 E10.58760
G1 X-6.101 Y-9.199 F7800.000
G1 X-3.718 Y-6.817 F3600.000 E10.76941
G1 X-3.369 Y-6.983 F7800.000
G1 X-5.584 Y-9.199 F3600.000 E10.93850
G1 X-5.068 Y-9.199 F7800.000
G1 X-3.017 Y-7.148 F3600.000 E11.09498
G1 X-2.651 Y-7.298 F7800.000
G1 X-4.551 Y-9.199 F3600.000 E11.24003
G1 X-4.035 Y-9.199 F7800.000
G1 X-2.261 Y-7.425 F3600.000 E11.37541
G1 X-1.871 Y-7.552 F7800.000
G1 X-3.519 Y-9.199 F3600.000 E11.50113
G1 X-3.002 Y-9.199 F7800.000
G1 X-1.439 Y-7.635 F3600.000 E11.62046
G1 X-1.005 Y-7.718 F7800.000
G1 X-2.486 Y-9.199 F3600.000 E11.73348
G1 X-1.970 Y-9.199 F7800.000
G1 X-0.533 Y-7.763 F3600.000 E11.84308
G1 X-0.047 Y-7.793 F7800.000
G1 X-1.453 Y-9.199 F3600.000 E11.95035
G1 X-0.937 Y-9.199 F7800.000
G1 X0.461 Y-7.801 F3600.000 E12.05703
G1 X0.978 Y-7.801 F7800.000
G1 X-0.420 Y-9.199 F3600.000 E12.16371
G1 X0.096 Y-9.199 F7800.000
G1 X1.494 Y-7.801 F3600.000 E12.27039
G1 X2.010 Y-7.801 F7800.000
G1 X0.612 Y-9.199 F3600.000 E12.37707
G1 X1.129 Y-9.199 F7800.000
G1 X2.527 Y-7.801 F3600.000 E12.48375
G1 X3.043 Y-7.801 F7800.000
G1 X1.645 Y-9.199 F3600.000 E12.59043
G1 X2.162 Y-9.199 F7800.000
G1 X3.560 Y-7.801 F3600.000 E12.69711
G1 X4.076 Y-7.801 F7800.000
G1 X2.678 Y-9.199 F3600.000 E12.80379
G1 X3.194 Y-9.199 F7800.000
G1 X4.592 Y-7.801 F3600.000 E12.91047
G1 X5.109 Y-7.801 F7800.000
G1 X3.711 Y-9.199 F3600.000 E13.01715
G1 X4.227 Y-9.199 F7800.000
G1 X5.625 Y-7.801 F3600.000 E13.12383
G1 X6.141 Y-7.801 F7800.000
G1 X4.744 Y-9.199 F3600.000 E13.23050
G1 X5.260 Y-9.199 F7800.000
G1 X6.658 Y-7.801 F3600.000 E13.33718
G1 X7.174 Y-7.801 F7800.000
G1 X5.776 Y-9.199 F3600.000 E13.44386
G1 X6.293 Y-9.199 F7800.000
G1 X7.691 Y-7.801 F3600.000 E13.55054
G1 X7.326 Y-9.199 F7800.000
G1 X9.199 Y-7.326 F3600.000 E13.69351
G1 X9.199 Y-7.842 E13.72138
G1 X7.842 Y-9.199 E13.82494
G1 X8.358 Y-9.199 E13.85280
G1 X9.199 Y-8.358 E13.91696
G1 X9.199 Y-8.875 E13.94482
G1 X8.875 Y-9.199 E13.96957
G1 X6.809 Y-9.199 F7800.000
G1 X9.199 Y-6.809 F3600.000 E14.15195
G1 X9.199 Y-6.293 E14.17981
G1 X7.801 Y-7.691 E14.28649
G1 X7.801 Y-7.174 E14.31436
G1 X9.199 Y-5.776 E14.42103
G1 X9.199 Y-5.260 E14.44890
G1 X7.801 Y-6.658 E14.55558
G1 X7.801 Y-6.141 E14.58344
G1 X9.199 Y-4.744 E14.69012
G1 X9.199 Y-4.227 E14.71799
G1 X7.801 Y-5.625 E14.82467
G1 X7.801 Y-5.109 E14.85253
G1 X9.199 Y-3.711 E14.95921
G1 X9.199 Y-3.194 E14.98708
G1 X7.801 Y-4.592 E15.09376
G1 X7.801 Y-4.076 E15.12162
G1 X9.199 Y-2.678 E15.22830
G1 X9.199 Y-2.162 E15.25617
G1 X7.801 Y-3.560 E15.36285
G1 X7.801 Y-3.043 E15.39071
G1 X9.199 Y-1.645 E15.49739
G1 X9.199 Y-1.129 E15.52526
G1 X7.801 Y-2.527 E15.63194
G1 X7.801 Y-2.010 E15.65980
G1 X9.199 Y-0.612 E15.76648
G1 X9.199 Y-0.096 E15.79435
G1 X7.801 Y-1.494 E15.90103
G1 X7.801 Y-0.978 E15.92889
G1 X9.199 Y0.420 E16.03557
G1 X9.199 Y0.937 E16.06344
G1 X7.801 Y-0.461 E16.17012
G1 X7.801 Y0.055 E16.19798
G1 X9.199 Y1.453 E16.30466
G1 X9.199 Y1.970 E16.33253
G1 X7.801 Y0.572 E16.43921
G1 X7.801 Y1.088 E16.46707
G1 X9.199 Y2.486 E16.57375
G1 X9.199 Y3.002 E16.60162
G1 X7.801 Y1.604 E16.70829
G1 X7.801 Y2.121 E16.73616
G1 X9.199 Y3.519 E16.84284
G1 X9.199 Y4.035 E16.87070
G1 X7.801 Y2.637 E16.97738
G1 X7.801 Y3.154 E17.00525
G1 X9.199 Y4.551 E17.11193
G1 X9.199 Y5.068 E17.13979
G1 X7.801 Y3.670 E17.24647
G1 X7.801 Y4.186 E17.27434
G1 X9.199 Y5.584 E17.38102
G1 X9.199 Y6.101 E17.40888
G1 X7.801 Y4.703 E17.51556
G1 X7.801 Y5.219 E17.54343
G1 X9.199 Y6.617 E17.65011
G1 X9.199 Y7.133 E17.67797
G1 X7.801 Y5.735 E17.78465
G1 X7.801 Y6.252 E17.81252
G1 X9.199 Y7.650 E17.91920
G1 X9.199 Y8.166 E17.94706
G1 X7.801 Y6.768 E18.05374
G1 X7.801 Y7.285 E18.08161
G1 X9.199 Y8.683 E18.18829
G1 X9.199 Y9.199 E18.21615
G1 X7.801 Y7.801 E18.32283
G1 X7.285 Y7.801 E18.35070
G1 X8.683 Y9.199 E18.45738
G1 X8.166 Y9.199 E18.48524
G1 X6.768 Y7.801 E18.59192
G1 X6.252 Y7.801 E18.61979
G1 X7.650 Y9.199 E18.72647
G1 X7.133 Y9.199 E18.75433
G1 X5.735 Y7.801 E18.86101
G1 X5.219 Y7.801 E18.88887
G1 X6.617 Y9.199 E18.99555
G1 X6.101 Y9.199 E19.02342
G1 X4.703 Y7.801 E19.13010
G1 X4.186 Y7.801 E19.15796
G1 X5.584 Y9.199 E19.26464
G1 X5.068 Y9.199 E19.29251
G1 X3.670 Y7.801 E19.39919
G1 X3.154 Y7.801 E19.42705
G1 X4.551 Y9.199 E19.53373
G1 X4.035 Y9.199 E19.56160
G1 X2.637 Y7.801 E19.66828
G1 X2.121 Y7.801 E19.69614
G1 X3.519 Y9.199 E19.80282
G1 X3.002 Y9.199 E19.83069
G1 X1.604 Y7.801 E19.93737
G1 X1.088 Y7.801 E19.96523
G1 X2.486 Y9.199 E20.07191
G1 X1.970 Y9.199 E20.09978
G1 X0.572 Y7.801 E20.20646
G1 X0.055 Y7.801 E20.23432
G1 X1.453 Y9.199 E20.34100
G1 X0.937 Y9.199 E20.36887
G1 X-0.483 Y7.779 E20.47723
G1 X-1.034 Y7.744 E20.50703
G1 X0.420 Y9.199 E20.61804
G1 X-0.096 Y9.199 E20.64590
G1 X-1.663 Y7.632 E20.76547
G1 X-2.347 Y7.465 E20.80347
G1 X-0.612 Y9.199 E20.93583
G1 X-1.129 Y9.199 E20.96369
G1 X-3.138 Y7.189 E21.11706
G1 X-4.204 Y6.640 E21.18174
G1 X-1.645 Y9.199 E21.37701
G1 X-2.162 Y9.199 E21.40487
G1 X-9.199 Y2.162 E21.94191
G1 X-9.199 Y2.678 E21.96978
G1 X-2.678 Y9.199 E22.46741
G1 X-3.194 Y9.199 E22.49528
G1 X-9.199 Y3.194 E22.95351
G1 X-9.199 Y3.711 E22.98137
G1 X-3.711 Y9.199 E23.40019
G1 X-4.227 Y9.199 E23.42806
G1 X-9.199 Y4.227 E23.80747
G1 X-9.199 Y4.744 E23.83533
G1 X-4.744 Y9.199 E24.17534
G1 X-5.260 Y9.199 E24.20321
G1 X-9.199 Y5.260 E24.50380
G1 X-9.199 Y5.776 E24.53167
G1 X-5.776 Y9.199 E24.79286
G1 X-6.293 Y9.199 E24.82072
G1 X-9.199 Y6.293 E25.04251
G1 X-9.199 Y6.809 E25.07037
G1 X-6.809 Y9.199 E25.25275
G1 X-7.326 Y9.199 E25.28061
G1 X-9.199 Y7.326 E25.42358
G1 X-9.199 Y7.842 E25.45145
G1 X-7.842 Y9.199 E25.55501
G1 X-8.358 Y9.199 E25.58287
G1 X-9.199 Y8.358 E25.64703
G1 X-9.199 Y8.875 E25.67489
G1 X-8.875 Y9.199 E25.69964
G1 F1800.000 E24.69964
G92 E0
G1 X-6.655 Y4.189 F7800.000
G1 F1800.000 E1.00000
G1 X-9.199 Y1.645 F3600.000 E1.19410
G1 X-9.199 Y1.129 F7800.000
G1 X-7.177 Y3.151 F3600.000 E1.34842
G1 X-7.468 Y2.343 F7800.000
G1 X-9.199 Y0.612 F3600.000 E1.48049
G1 X-9.199 Y0.096 F7800.000
G1 X-7.647 Y1.648 F3600.000 E1.59895
G1 X-7.731 Y1.048 F7800.000
G1 X-9.199 Y-0.420 F3600.000 E1.71100
G1 X-9.199 Y-0.937 F7800.000
G1 X-7.787 Y0.475 F3600.000 E1.81874
G1 X-7.787 Y-0.041 F7800.000
G1 X-9.199 Y-1.453 F3600.000 E1.92647
G1 X-9.199 Y-1.970 F7800.000
G1 X-7.769 Y-0.539 F3600.000 E2.03562
G1 X-7.711 Y-0.998 F7800.000
G1 X-9.199 Y-2.486 F3600.000 E2.14919
G1 X-9.199 Y-3.002 F7800.000
G1 X-7.645 Y-1.448 F3600.000 E2.26780
G1 X-7.539 Y-1.859 F7800.000
G1 X-9.199 Y-3.519 F3600.000 E2.39446
G1 X-9.199 Y-4.035 F7800.000
G1 X-7.434 Y-2.270 F3600.000 E2.52917
G1 X-7.294 Y-2.647 F7800.000
G1 X-9.199 Y-4.551 F3600.000 E2.67453
G1 X-9.199 Y-5.068 F7800.000
G1 X-7.148 Y-3.017 F3600.000 E2.83106
G1 X-6.989 Y-3.374 F7800.000
G1 X-9.199 Y-5.584 F3600.000 E2.99972
G1 X-9.199 Y-6.101 F7800.000
G1 X-6.806 Y-3.707 F3600.000 E3.18235
G1 X-6.623 Y-4.041 F7800.000
G1 X-9.199 Y-6.617 F3600.000 E3.37896
G1 X-9.199 Y-7.133 F7800.000
G1 X-6.415 Y-4.349 F3600.000 E3.59143
G1 X-6.197 Y-4.648 F7800.000
G1 X-9.199 Y-7.650 F3600.000 E3.82049
G1 X-9.199 Y-8.166 F7800.000
G1 X-5.979 Y-4.946 F3600.000 E4.06623
G1 X-5.729 Y-5.212 F7800.000
G1 X-9.199 Y-8.683 F3600.000 E4.33105
G1 F1800.000 E3.33105
G92 E0
G1 Z0.700 F7800.000
G1 X-4.918 Y-5.237
G1 F1800.000 E1.00000
G1 X-4.223 Y-5.812 F1800.000 E1.04775
G1 X-3.461 Y-6.295 E1.09551
G1 X-2.645 Y-6.680 E1.14326
G1 X-1.787 Y-6.958 E1.19101
G1 X-0.900 Y-7.127 E1.23876
G1 X-0.006 Y-7.184 E1.28621
G1 X7.184 Y-7.184 E1.66675
G1 X7.184 Y7.184 E2.42721
G1 X-0.006 Y7.184 E2.80775
G1 X-0.900 Y7.127 E2.85520
G1 X-1.787 Y6.958 E2.90295
G1 X-2.645 Y6.680 E2.95070
G1 X-3.461 Y6.295 E2.99845
G1 X-4.223 Y5.812 E3.04621
G1 X-4.918 Y5.237 E3.09396
G1 X-5.535 Y4.579 E3.14171
G1 X-6.066 Y3.849 E3.18946
G1 X-6.500 Y3.059 E3.23722
G1 X-6.832 Y2.220 E3.28497
G1 X-7.057 Y1.346 E3.33272
G1 X-7.170 Y0.451 E3.38047
G1 X-7.170 Y-0.451 E3.42823
G1 X-7.057 Y-1.346 E3.47598
G1 X-6.832 Y-2.220 E3.52373
G1 X-6.500 Y-3.059 E3.57148
G1 X-6.066 Y-3.849 E3.61924
G1 X-5.535 Y-4.579 E3.66699
G1 X-4.956 Y-5.197 E3.71182
G1 X-5.165 Y-5.500 F7800.000
G1 X-4.435 Y-6.104 F1800.000 E3.76198
G1 X-3.635 Y-6.612 E3.81213
G1 X-2.778 Y-7.016 E3.86229
G1 X-1.876 Y-7.308 E3.91244
G1 X-0.946 Y-7.486 E3.96260
G1 X-0.017 Y-7.544 E4.01184
G1 X7.544 Y-7.544 E4.41207
G1 X7.544 Y7.544 E5.21071
G1 X-0.017 Y7.544 E5.61094
G1 X-0.946 Y7.486 E5.66018
G1 X-1.876 Y7.308 E5.71034
G1 X-2.778 Y7.016 E5.76049
G1 X-3.635 Y6.612 E5.81065
G1 X-4.435 Y6.104 E5.86080
G1 X-5.165 Y5.500 E5.91095
G1 X-5.814 Y4.810 E5.96111
G1 X-6.371 Y4.043 E6.01126
G1 X-6.827 Y3.213 E6.06142
G1 X-7.176 Y2.332 E6.11157
G1 X-7.412 Y1.414 E6.16173
G1 X-7.531 Y0.474 E6.21188
G1 X-7.531 Y-0.474 E6.26203
G1 X-7.412 Y-1.414 E6.31219
G1 X-7.176 Y-2.332 E6.36234
G1 X-6.827 Y-3.213 E6.41250
G1 X-6.371 Y-4.043 E6.46265
G1 X-5.814 Y-4.810 E6.51281
G1 X-5.203 Y-5.460 E6.56004
G1 F1800.000 E5.56004
G92 E0
G1 X-9.456 Y-9.456 F7800.000
G1 F1800.000 E1.00000
G1 X9.456 Y-9.456 F1800.000 E2.00096
G1 X9.456 Y9.456 E3.00193
G1 X-9.456 Y9.456 E4.00289
G1 X-9.456 Y-9.400 E5.00094
G1 X-9.816 Y-9.816 F7800.000
G1 X9.816 Y-9.816 F1800.000 E6.04008
G1 X9.816 Y9.816 E7.07922
G1 X-9.816 Y9.816 E8.11836
G1 X-9.816 Y-9.761 E9.15458
G1 X-8.875 Y-9.199 F7800.000
G1 X-9.199 Y-8.875 F3600.000 E9.17933
G1 X-9.199 Y-8.358 E9.20719
G1 X-8.358 Y-9.199 E9.27135
G1 X-7.842 Y-9.199 E9.29921
G1 X-9.199 Y-7.842 E9.40277
G1 X-9.199 Y-7.326 E9.43064
G1 X-7.326 Y-9.199 E9.57361
G1 X-6.809 Y-9.199 E9.60147
G1 X-9.199 Y-6.809 E9.78385
G1 X-9.199 Y-6.293 E9.81171
G1 X-6.293 Y-9.199 E10.03350
G1 X-5.776 Y-9.199 E10.06136
G1 X-9.199 Y-5.776 E10.32255
G1 X-9.199 Y-5.260 E10.35042
G1 X-5.260 Y-9.199 E10.65102
G1 X-4.744 Y-9.199 E10.67888
G1 X-9.199 Y-4.744 E11.01889
G1 X-9.199 Y-4.227 F7800.000
G1 X-4.227 Y-9.199 F3600.000 E11.39830
G1 X-3.711 Y-9.199 F7800.000
G1 X-9.199 Y-3.711 F3600.000 E11.81712
G1 X-9.199 Y-3.194 F7800.000
G1 X-3.194 Y-9.199 F3600.000 E12.27535
G1 X-2.678 Y-9.199 F7800.000
G1 X-9.199 Y-2.678 F3600.000 E12.77298
G1 X-9.199 Y-2.162 F7800.000
G1 X-2.162 Y-9.199 F3600.000 E13.31002
G1 F1800.000 E12.31002
G92 E0
G1 X-4.204 Y-6.640 F7800.000
G1 F1800.000 E1.00000
G1 X-1.645 Y-9.199 F3600.000 E1.19527
G1 X-1.129 Y-9.199 E1.22313
G1 X-3.138 Y-7.189 E1.37650
G1 X-2.347 Y-7.465 E1.42172
G1 X-0.612 Y-9.199 E1.55408
G1 X-0.096 Y-9.199 E1.58195
G1 X-1.663 Y-7.632 E1.70151
