; generated by Slic3r 0.7.1 on 2012-04-05 at 16:31:51

; layer_height = .35
; perimeters = 2
; solid_layers = 2
; fill_density = .25
; nozzle_diameter = .35
; filament_diameter = 1.75
; extrusion_multiplier = 1
; perimeter_speed = 60
; infill_speed = 80
; travel_speed = 150
; extrusion_width_ratio = 0
; scale = 1
; single wall width = 0.37mm

M190 S80 ; set bed temperature
M104 S170 ; set temperature

M109 S170 ; wait for temperature to be reached
G90 ; use absolute coordinates
G21 ; set units to millimeters
G92 E0 ; reset extrusion distance
M82 ; use absolute distances for extrusion
G1 Z0.350 F9000.000
G1 X-10.948 Y-10.762
G1 F1800.000 E1.00000
G1 X-9.708 Y-11.882 F3600.000 E1.08844
G1 X-9.228 Y-12.262 E1.12085
G1 X-8.418 Y-12.832 E1.17327
G1 X-6.998 Y-13.652 E1.26006
G1 X-5.518 Y-14.312 E1.34583
G1 X-4.928 Y-14.532 E1.37916
G1 X-3.978 Y-14.822 E1.43174
G1 X-3.308 Y-14.982 E1.46820
G1 X-1.728 Y-15.242 E1.55295
G1 X-0.078 Y-15.342 E1.64044
G1 X0.912 Y-15.312 E1.69287
G1 X2.502 Y-15.132 E1.77756
G1 X4.082 Y-14.782 E1.86322
G1 X4.722 Y-14.592 E1.89856
G1 X6.282 Y-13.992 E1.98702
G1 X7.642 Y-13.292 E2.06798
G1 X8.492 Y-12.772 E2.12072
G1 X9.092 Y-12.352 E2.15949
G1 X9.872 Y-11.732 E2.21223
G1 X11.032 Y-10.642 E2.29648
G1 X11.492 Y-10.142 E2.33244
G1 X12.462 Y-8.912 E2.41535
G1 X13.012 Y-8.092 E2.46761
G1 X13.362 Y-7.502 E2.50392
G1 X14.082 Y-6.052 E2.58961
G1 X14.632 Y-4.562 E2.67368
G1 X14.902 Y-3.602 E2.72646
G1 X15.052 Y-2.892 E2.76487
G1 X15.262 Y-1.362 E2.84661
G1 X15.322 Y-0.362 E2.89964
G1 X15.322 Y0.358 E2.93775
G1 X15.202 Y1.898 E3.01951
G1 X15.052 Y2.878 E3.07198
G1 X14.902 Y3.588 E3.11039
G1 X14.452 Y5.098 E3.19379
G1 X14.092 Y6.028 E3.24657
G1 X13.352 Y7.518 E3.33463
G1 X12.482 Y8.878 E3.42008
G1 X12.102 Y9.398 E3.45417
G1 X11.472 Y10.158 E3.50642
G1 X10.352 Y11.298 E3.59101
G1 X9.842 Y11.758 E3.62736
G1 X9.062 Y12.368 E3.67977
G1 X7.682 Y13.258 E3.76669
G1 X7.122 Y13.568 E3.80057
G1 X5.662 Y14.238 E3.88559
G1 X4.142 Y14.758 E3.97062
G1 X3.182 Y14.998 E4.02300
G1 X2.502 Y15.128 E4.05964
G1 X1.512 Y15.258 E4.11249
G1 X0.852 Y15.308 E4.14753
G1 X-0.138 Y15.328 E4.19994
G1 X-1.728 Y15.228 E4.28426
G1 X-3.308 Y14.968 E4.36902
G1 X-3.978 Y14.808 E4.40548
G1 X-5.468 Y14.328 E4.48833
G1 X-6.388 Y13.948 E4.54102
G1 X-7.868 Y13.168 E4.62957
G1 X-8.458 Y12.798 E4.66643
G1 X-9.708 Y11.868 E4.74889
G1 X-10.948 Y10.748 E4.83733
G1 X-11.998 Y9.558 E4.92133
G1 X-12.988 Y8.178 E5.01123
G1 X-13.488 Y7.318 E5.06388
G1 X-14.168 Y5.888 E5.14769
G1 X-14.398 Y5.318 E5.18023
G1 X-14.718 Y4.368 E5.23329
G1 X-15.098 Y2.748 E5.32136
G1 X-15.208 Y2.078 E5.35730
G1 X-15.338 Y0.488 E5.44174
G1 X-15.308 Y-1.102 E5.52591
G1 X-15.208 Y-2.092 E5.57857
G1 X-14.888 Y-3.732 E5.66702
G1 X-14.718 Y-4.382 E5.70258
G1 X-14.398 Y-5.332 E5.75564
G1 X-13.758 Y-6.802 E5.84050
G1 X-13.488 Y-7.332 E5.87198
G1 X-12.988 Y-8.192 E5.92463
G1 X-11.998 Y-9.572 E6.01453
G1 X-10.986 Y-10.721 E6.09561
G1 F1800.000 E5.09561
G92 E0
G1 X-3.642 Y-3.373 F9000.000
G1 F1800.000 E1.00000
G1 X-3.099 Y-3.877 F3000.000 E1.03923
G1 X-2.486 Y-4.295 E1.07847
G1 X-1.819 Y-4.617 E1.11770
G1 X-1.110 Y-4.835 E1.15693
G1 X-0.377 Y-4.946 E1.19617
G1 X0.364 Y-4.946 E1.23540
G1 X1.097 Y-4.835 E1.27464
G1 X1.805 Y-4.617 E1.31387
G1 X2.473 Y-4.295 E1.35310
G1 X3.085 Y-3.877 E1.39234
G1 X3.629 Y-3.373 E1.43157
G1 X4.091 Y-2.794 E1.47080
G1 X4.462 Y-2.152 E1.51004
G1 X4.732 Y-1.462 E1.54927
G1 X4.897 Y-0.739 E1.58850
G1 X4.953 Y-0.000 E1.62774
G1 X4.897 Y0.739 E1.66697
G1 X4.732 Y1.462 E1.70621
G1 X4.462 Y2.152 E1.74544
G1 X4.091 Y2.794 E1.78467
G1 X3.629 Y3.373 E1.82391
G1 X3.085 Y3.877 E1.86314
G1 X2.473 Y4.295 E1.90237
G1 X1.805 Y4.617 E1.94161
G1 X1.097 Y4.835 E1.98084
G1 X0.364 Y4.946 E2.02008
G1 X-0.377 Y4.946 E2.05931
G1 X-1.110 Y4.835 E2.09854
G1 X-1.819 Y4.617 E2.13778
G1 X-2.486 Y4.295 E2.17701
G1 X-3.099 Y3.877 E2.21624
G1 X-3.642 Y3.373 E2.25548
G1 X-4.104 Y2.794 E2.29471
G1 X-4.475 Y2.152 E2.33394
G1 X-4.746 Y1.462 E2.37318
G1 X-4.911 Y0.739 E2.41241
G1 X-4.966 Y-0.000 E2.45165
G1 X-4.911 Y-0.739 E2.49088
G1 X-4.746 Y-1.462 E2.53011
G1 X-4.475 Y-2.152 E2.56935
G1 X-4.104 Y-2.794 E2.60858
G1 X-3.677 Y-3.330 E2.64490
G1 X-3.907 Y-3.619 F9000.000
G1 X-3.324 Y-4.160 F3000.000 E2.68699
G1 X-2.667 Y-4.608 E2.72908
G1 X-1.951 Y-4.953 E2.77118
G1 X-1.191 Y-5.188 E2.81327
G1 X-0.404 Y-5.306 E2.85537
G1 X0.391 Y-5.306 E2.89746
G1 X1.177 Y-5.188 E2.93956
G1 X1.937 Y-4.953 E2.98165
G1 X2.654 Y-4.608 E3.02375
G1 X3.311 Y-4.160 E3.06584
G1 X3.894 Y-3.619 E3.10794
G1 X4.390 Y-2.997 E3.15003
G1 X4.787 Y-2.309 E3.19213
G1 X5.078 Y-1.568 E3.23422
G1 X5.255 Y-0.793 E3.27631
G1 X5.314 Y-0.000 E3.31841
G1 X5.255 Y0.793 E3.36050
G1 X5.078 Y1.568 E3.40260
G1 X4.787 Y2.309 E3.44469
G1 X4.390 Y2.997 E3.48679
G1 X3.894 Y3.619 E3.52888
G1 X3.311 Y4.160 E3.57098
G1 X2.654 Y4.608 E3.61307
G1 X1.937 Y4.953 E3.65517
G1 X1.177 Y5.188 E3.69726
G1 X0.391 Y5.306 E3.73935
G1 X-0.404 Y5.306 E3.78145
G1 X-1.191 Y5.188 E3.82354
G1 X-1.951 Y4.953 E3.86564
G1 X-2.667 Y4.608 E3.90773
G1 X-3.324 Y4.160 E3.94983
G1 X-3.907 Y3.619 E3.99192
G1 X-4.403 Y2.997 E4.03402
G1 X-4.801 Y2.309 E4.07611
G1 X-5.091 Y1.568 E4.11820
G1 X-5.268 Y0.793 E4.16030
G1 X-5.328 Y-0.000 E4.20239
G1 X-5.268 Y-0.793 E4.24449
G1 X-5.091 Y-1.568 E4.28658
G1 X-4.801 Y-2.309 E4.32868
G1 X-4.403 Y-2.997 E4.37077
G1 X-3.942 Y-3.576 E4.40995
G1 F1800.000 E3.40995
G92 E0
G1 X-6.920 Y-5.731 F9000.000
G1 F1800.000 E1.00000
G1 X-6.271 Y-6.434 F3600.000 E1.05059
G1 X-5.552 Y-7.063 E1.10119
G1 X-4.770 Y-7.613 E1.15178
G1 X-3.934 Y-8.076 E1.20237
G1 X-3.053 Y-8.447 E1.25296
G1 X-2.138 Y-8.723 E1.30356
G1 X-1.199 Y-8.900 E1.35415
G1 X-0.246 Y-8.977 E1.40474
G1 X0.710 Y-8.951 E1.45534
G1 X1.657 Y-8.824 E1.50593
G1 X2.586 Y-8.598 E1.55652
G1 X3.485 Y-8.273 E1.60711
G1 X4.344 Y-7.855 E1.65771
G1 X5.155 Y-7.348 E1.70830
G1 X5.907 Y-6.758 E1.75889
G1 X6.591 Y-6.091 E1.80949
G1 X7.201 Y-5.355 E1.86008
G1 X7.730 Y-4.559 E1.91067
G1 X8.171 Y-3.711 E1.96127
G1 X8.519 Y-2.820 E2.01186
G1 X8.770 Y-1.898 E2.06245
G1 X8.922 Y-0.955 E2.11304
G1 X8.973 Y-0.000 E2.16364
G1 X8.922 Y0.955 E2.21423
G1 X8.770 Y1.898 E2.26482
G1 X8.519 Y2.820 E2.31542
G1 X8.171 Y3.711 E2.36601
G1 X7.730 Y4.559 E2.41660
G1 X7.201 Y5.355 E2.46720
G1 X6.591 Y6.091 E2.51779
G1 X5.907 Y6.758 E2.56838
G1 X5.155 Y7.348 E2.61897
G1 X4.344 Y7.855 E2.66957
G1 X3.485 Y8.273 E2.72016
G1 X2.586 Y8.598 E2.77075
G1 X1.657 Y8.824 E2.82135
G1 X0.710 Y8.951 E2.87194
G1 X-0.246 Y8.977 E2.92253
G1 X-1.199 Y8.900 E2.97313
G1 X-2.138 Y8.723 E3.02372
G1 X-3.053 Y8.447 E3.07431
G1 X-3.934 Y8.076 E3.12490
G1 X-4.770 Y7.613 E3.17550
G1 X-5.552 Y7.063 E3.22609
G1 X-6.271 Y6.434 E3.27668
G1 X-6.920 Y5.731 E3.32728
G1 X-7.490 Y4.964 E3.37787
G1 X-7.975 Y4.141 E3.42846
G1 X-8.370 Y3.270 E3.47905
G1 X-8.670 Y2.363 E3.52965
G1 X-8.872 Y1.428 E3.58024
G1 X-8.974 Y0.478 E3.63083
G1 X-8.974 Y-0.478 E3.68143
G1 X-8.872 Y-1.428 E3.73202
G1 X-8.670 Y-2.363 E3.78261
G1 X-8.370 Y-3.270 E3.83321
G1 X-7.975 Y-4.141 E3.88380
G1 X-7.490 Y-4.964 E3.93439
G1 X-6.953 Y-5.687 E3.98207
G1 X-7.198 Y-5.962 F9000.000
G1 X-6.523 Y-6.692 F3600.000 E4.03469
G1 X-5.775 Y-7.347 E4.08732
G1 X-4.961 Y-7.919 E4.13995
G1 X-4.092 Y-8.400 E4.19258
G1 X-3.176 Y-8.787 E4.24521
G1 X-2.224 Y-9.074 E4.29783
G1 X-1.247 Y-9.258 E4.35046
G1 X-0.255 Y-9.338 E4.40309
G1 X0.739 Y-9.311 E4.45572
G1 X1.724 Y-9.179 E4.50834
G1 X2.690 Y-8.943 E4.56097
G1 X3.625 Y-8.606 E4.61360
G1 X4.519 Y-8.171 E4.66623
G1 X5.362 Y-7.644 E4.71885
G1 X6.144 Y-7.030 E4.77148
G1 X6.857 Y-6.336 E4.82411
G1 X7.491 Y-5.571 E4.87674
G1 X8.041 Y-4.742 E4.92936
G1 X8.499 Y-3.860 E4.98199
G1 X8.862 Y-2.934 E5.03462
G1 X9.123 Y-1.975 E5.08725
G1 X9.281 Y-0.993 E5.13987
G1 X9.334 Y-0.000 E5.19250
G1 X9.281 Y0.993 E5.24513
G1 X9.123 Y1.975 E5.29776
G1 X8.862 Y2.934 E5.35039
G1 X8.499 Y3.860 E5.40301
G1 X8.041 Y4.742 E5.45564
G1 X7.491 Y5.571 E5.50827
G1 X6.857 Y6.336 E5.56090
G1 X6.144 Y7.030 E5.61352
G1 X5.362 Y7.644 E5.66615
G1 X4.519 Y8.171 E5.71878
G1 X3.625 Y8.606 E5.77141
G1 X2.690 Y8.943 E5.82403
G1 X1.724 Y9.179 E5.87666
G1 X0.739 Y9.311 E5.92929
G1 X-0.255 Y9.338 E5.98192
G1 X-1.247 Y9.258 E6.03454
G1 X-2.224 Y9.074 E6.08717
G1 X-3.176 Y8.787 E6.13980
G1 X-4.092 Y8.400 E6.19243
G1 X-4.961 Y7.919 E6.24506
G1 X-5.775 Y7.347 E6.29768
G1 X-6.523 Y6.692 E6.35031
G1 X-7.198 Y5.962 E6.40294
G1 X-7.791 Y5.164 E6.45557
G1 X-8.295 Y4.307 E6.50819
G1 X-8.706 Y3.402 E6.56082
G1 X-9.019 Y2.458 E6.61345
G1 X-9.229 Y1.486 E6.66608
G1 X-9.335 Y0.497 E6.71870
G1 X-9.335 Y-0.497 E6.77133
G1 X-9.229 Y-1.486 E6.82396
G1 X-9.019 Y-2.458 E6.87659
G1 X-8.706 Y-3.402 E6.92922
G1 X-8.295 Y-4.307 E6.98184
G1 X-7.791 Y-5.164 E7.03447
G1 X-7.231 Y-5.918 E7.08418
G1 X-6.702 Y-5.652 F9000.000
G1 X-4.398 Y-3.348 F4200.000 E7.26161
G1 X-4.168 Y-3.637 F9000.000
G1 X-6.453 Y-5.922 F4200.000 E7.43758
G1 X-6.203 Y-6.192 F9000.000
G1 X-3.915 Y-3.904 F4200.000 E7.61382
G1 X-3.646 Y-4.154 F9000.000
G1 X-5.935 Y-6.444 F4200.000 E7.79015
G1 X-5.658 Y-6.686 F9000.000
G1 X-3.366 Y-4.394 F4200.000 E7.96668
G1 X-3.057 Y-4.604 F9000.000
G1 X-5.376 Y-6.923 F4200.000 E8.14526
G1 X-5.071 Y-7.137 F9000.000
G1 X-2.748 Y-4.815 F4200.000 E8.32413
G1 X-2.398 Y-4.984 F9000.000
G1 X-4.766 Y-7.352 F4200.000 E8.50645
G1 X-4.439 Y-7.545 F9000.000
G1 X-2.047 Y-5.153 F4200.000 E8.69065
G1 X-1.660 Y-5.284 F9000.000
G1 X-4.105 Y-7.730 F4200.000 E8.87898
G1 X-3.761 Y-7.905 F9000.000
G1 X-1.263 Y-5.407 F4200.000 E9.07136
G1 X-0.824 Y-5.488 F9000.000
G1 X-3.395 Y-8.059 F4200.000 E9.26937
G1 X-3.030 Y-8.213 F9000.000
G1 X-0.373 Y-5.556 F4200.000 E9.47398
G1 X0.140 Y-5.563 F9000.000
G1 X-2.631 Y-8.333 F4200.000 E9.68733
G1 X-2.232 Y-8.454 F9000.000
G1 X0.684 Y-5.539 F4200.000 E9.91183
G1 X1.295 Y-5.446 F9000.000
G1 X-1.802 Y-8.543 F4200.000 E10.15032
G1 X-1.365 Y-8.626 F9000.000
G1 X2.031 Y-5.230 F4200.000 E10.41183
G1 X3.015 Y-4.765 F9000.000
G1 X-0.895 Y-8.675 F4200.000 E10.71293
G1 X-0.414 Y-8.714 F9000.000
G1 X8.700 Y0.400 F4200.000 E11.41480
G1 X8.704 Y-0.115 E11.44286
G1 X0.112 Y-8.708 E12.10457
G1 X0.654 Y-8.685 E12.13412
G1 X8.675 Y-0.664 E12.75183
G1 X8.594 Y-1.264 E12.78480
G1 X1.253 Y-8.605 E13.35012
G1 X1.907 Y-8.471 E13.38643
G1 X8.469 Y-1.908 E13.89180
G1 X8.271 Y-2.626 E13.93236
G1 X2.634 Y-8.263 E14.36647
G1 X3.496 Y-7.920 E14.41703
G1 X7.931 Y-3.485 E14.75857
G1 X7.244 Y-4.692 E14.83423
G1 X4.672 Y-7.264 E15.03226
G1 F1800.000 E14.03226
G92 E0
G1 X4.734 Y-3.046 F9000.000
G1 F1800.000 E1.00000
G1 X8.674 Y0.893 F4200.000 E1.30340
G1 X8.614 Y1.353 E1.32862
G1 X5.215 Y-2.046 E1.59036
G1 X5.425 Y-1.316 E1.63173
G1 X8.541 Y1.800 E1.87172
G1 X8.441 Y2.219 E1.89518
G1 X5.528 Y-0.694 E2.11954
G1 X5.570 Y-0.133 E2.15021
G1 X8.330 Y2.627 E2.36275
G1 X8.199 Y3.016 E2.38509
G1 X5.538 Y0.354 E2.59008
G1 X5.490 Y0.826 E2.61588
G1 X8.053 Y3.390 E2.81332
G1 X7.899 Y3.755 E2.83491
G1 X5.393 Y1.249 E3.02790
G1 X5.285 Y1.660 E3.05104
G1 X7.722 Y4.097 E3.23870
G1 X7.544 Y4.438 E3.25968
G1 X5.138 Y2.033 E3.44493
G1 X4.987 Y2.401 E3.46660
G1 X7.340 Y4.754 E3.64785
G1 X7.133 Y5.067 E3.66825
G1 X4.797 Y2.730 E3.84819
G1 X4.606 Y3.059 E3.86889
G1 X6.914 Y5.367 E4.04658
G1 X6.678 Y5.651 E4.06667
G1 X4.381 Y3.353 E4.24361
G1 X4.150 Y3.642 E4.26373
G1 X6.443 Y5.935 E4.44029
G1 X6.181 Y6.192 E4.46029
G1 X3.897 Y3.908 E4.63621
G1 X3.627 Y4.158 E4.65622
G1 X5.918 Y6.449 E4.83262
G1 X5.642 Y6.692 E4.85266
G1 X3.347 Y4.397 E5.02942
G1 X3.038 Y4.608 E5.04977
G1 X5.351 Y6.921 E5.22791
G1 X5.060 Y7.149 E5.24805
G1 X2.729 Y4.818 E5.42758
G1 X2.379 Y4.987 E5.44877
G1 X4.742 Y7.350 E5.63076
G1 X4.422 Y7.550 E5.65128
G1 X2.028 Y5.156 E5.83567
G1 X1.639 Y5.287 E5.85800
G1 X4.087 Y7.734 E6.04648
G1 X3.737 Y7.904 E6.06764
G1 X1.242 Y5.409 E6.25978
G1 X0.803 Y5.489 E6.28409
G1 X3.382 Y8.068 E6.48271
G1 X3.000 Y8.206 E6.50481
G1 X0.352 Y5.557 E6.70879
G1 X-0.162 Y5.563 E6.73677
G1 X2.619 Y8.344 E6.95091
G1 X2.204 Y8.449 E6.97419
G1 X-0.707 Y5.537 E7.19843
G1 X-1.319 Y5.445 E7.23211
G1 X1.787 Y8.551 E7.47130
G1 X1.338 Y8.621 E7.49605
G1 X-2.057 Y5.226 E7.75752
G1 X-3.056 Y4.746 E7.81786
G1 X0.880 Y8.682 E8.12098
G1 X0.384 Y8.706 E8.14803
G1 X-8.717 Y-0.395 E8.84888
G1 X-8.717 Y0.124 E8.87717
G1 X-0.122 Y8.719 E9.53906
G1 X-0.686 Y8.675 E9.56984
G1 X-8.683 Y0.678 E10.18568
G1 X-8.620 Y1.260 E10.21753
G1 X-1.278 Y8.603 E10.78300
G1 X-1.918 Y8.482 E10.81847
G1 X-8.478 Y1.922 E11.32368
G1 X-8.263 Y2.657 E11.36538
G1 X-2.656 Y8.263 E11.79712
G1 X-3.520 Y7.919 E11.84772
G1 X-7.916 Y3.522 E12.18630
G1 X-7.279 Y4.680 E12.25824
G1 X-4.721 Y7.237 E12.45518
G1 F1800.000 E11.45518
G92 E0
G1 X-4.735 Y3.067 F9000.000
G1 F1800.000 E1.00000
G1 X-8.683 Y-0.881 F4200.000 E1.30402
G1 X-8.633 Y-1.350 F9000.000
G1 X-5.222 Y2.061 F4200.000 E1.56667
G1 X-5.436 Y1.328 F9000.000
G1 X-8.552 Y-1.788 F4200.000 E1.80662
G1 X-8.460 Y-2.215 F9000.000
G1 X-5.541 Y0.704 F4200.000 E2.03141
G1 X-5.583 Y0.142 F9000.000
G1 X-8.344 Y-2.619 F4200.000 E2.24406
G1 X-8.215 Y-3.009 F9000.000
G1 X-5.552 Y-0.346 F4200.000 E2.44913
G1 X-5.505 Y-0.819 F9000.000
G1 X-8.072 Y-3.386 F4200.000 E2.64686
G1 X-7.910 Y-3.744 F9000.000
G1 X-5.408 Y-1.242 F4200.000 E2.83954
G1 X-5.301 Y-1.653 F9000.000
G1 X-7.746 Y-4.099 F4200.000 E3.02786
G1 X-7.554 Y-4.426 F9000.000
G1 X-5.154 Y-2.027 F4200.000 E3.21263
G1 X-5.003 Y-2.395 F9000.000
G1 X-7.361 Y-4.753 F4200.000 E3.39418
G1 X-7.150 Y-5.061 F9000.000
G1 X-4.813 Y-2.724 F4200.000 E3.57411
G1 X-4.623 Y-3.054 F9000.000
G1 X-6.928 Y-5.359 F4200.000 E3.75163
G1 F1800.000 E2.75163
G92 E0
G1 Z0.700 F9000.000
G1 X-4.104 Y-2.794
G1 F1800.000 E1.00000
G1 X-3.642 Y-3.373 F3000.000 E1.03923
G1 X-3.099 Y-3.877 E1.07847
G1 X-2.486 Y-4.295 E1.11770
G1 X-1.819 Y-4.617 E1.15693
G1 X-1.110 Y-4.835 E1.19617
G1 X-0.377 Y-4.946 E1.23540
G1 X0.364 Y-4.946 E1.27464
G1 X1.097 Y-4.835 E1.31387
G1 X1.805 Y-4.617 E1.35310
G1 X2.473 Y-4.295 E1.39234
G1 X3.085 Y-3.877 E1.43157
G1 X3.629 Y-3.373 E1.47080
G1 X4.091 Y-2.794 E1.51004
G1 X4.462 Y-2.152 E1.54927
G1 X4.732 Y-1.462 E1.58851
G1 X4.897 Y-0.739 E1.62774
G1 X4.953 Y-0.000 E1.66697
G1 X4.897 Y0.739 E1.70621
G1 X4.732 Y1.462 E1.74544
G1 X4.462 Y2.152 E1.78467
G1 X4.091 Y2.794 E1.82391
G1 X3.629 Y3.373 E1.86314
G1 X3.085 Y3.877 E1.90237
G1 X2.473 Y4.295 E1.94161
G1 X1.805 Y4.617 E1.98084
G1 X1.097 Y4.835 E2.02008
G1 X0.364 Y4.946 E2.05931
G1 X-0.377 Y4.946 E2.09854
G1 X-1.110 Y4.835 E2.13778
G1 X-1.819 Y4.617 E2.17701
G1 X-2.486 Y4.295 E2.21624
G1 X-3.099 Y3.877 E2.25548
G1 X-3.642 Y3.373 E2.29471
G1 X-4.104 Y2.794 E2.33394
G1 X-4.475 Y2.152 E2.37318
G1 X-4.746 Y1.462 E2.41241
G1 X-4.911 Y0.739 E2.45165
G1 X-4.966 Y-0.000 E2.49088
G1 X-4.911 Y-0.739 E2.53011
G1 X-4.746 Y-1.462 E2.56935
G1 X-4.475 Y-2.152 E2.60858
G1 X-4.132 Y-2.746 E2.64490
G1 X-4.403 Y-2.997 F9000.000
G1 X-3.907 Y-3.619 F3000.000 E2.68699
G1 X-3.324 Y-4.160 E2.72909
G1 X-2.667 Y-4.608 E2.77118
G1 X-1.951 Y-4.953 E2.81327
G1 X-1.191 Y-5.188 E2.85537
G1 X-0.404 Y-5.306 E2.89746
G1 X0.391 Y-5.306 E2.93956
G1 X1.177 Y-5.188 E2.98165
G1 X1.937 Y-4.953 E3.02375
G1 X2.654 Y-4.608 E3.06584
G1 X3.311 Y-4.160 E3.10794
G1 X3.894 Y-3.619 E3.15003
G1 X4.390 Y-2.997 E3.19213
G1 X4.787 Y-2.309 E3.23422
G1 X5.078 Y-1.568 E3.27631
G1 X5.255 Y-0.793 E3.31841
G1 X5.314 Y-0.000 E3.36050
G1 X5.255 Y0.793 E3.40260
G1 X5.078 Y1.568 E3.44469
G1 X4.787 Y2.309 E3.48679
G1 X4.390 Y2.997 E3.52888
G1 X3.894 Y3.619 E3.57098
G1 X3.311 Y4.160 E3.61307
G1 X2.654 Y4.608 E3.65517
G1 X1.937 Y4.953 E3.69726
G1 X1.177 Y5.188 E3.73935
G1 X0.391 Y5.306 E3.78145
G1 X-0.404 Y5.306 E3.82354
G1 X-1.191 Y5.188 E3.86564
G1 X-1.951 Y4.953 E3.90773
G1 X-2.667 Y4.608 E3.94983
