; generated by Slic3r 0.7.1 on 2012-04-05 at 15:38:41

; layer_height = .35
; perimeters = 2
; solid_layers = 2
; fill_density = .42
; nozzle_diameter = .35
; filament_diameter = 1.75
; extrusion_multiplier = 1
; perimeter_speed = 30
; infill_speed = 60
; travel_speed = 130
; extrusion_width_ratio = 0
; scale = 1
; single wall width = 0.37mm

M190 S80 ; set bed temperature
M104 S170 ; set temperature

M109 S170 ; wait for temperature to be reached
G90 ; use absolute coordinates
G21 ; set units to millimeters
G92 E0 ; reset extrusion distance
M82 ; use absolute distances for extrusion
G1 Z0.350 F7800.000
G1 X-13.675 Y-13.495
G1 F1800.000 E1.00000
G1 X-13.495 Y-13.675 F1800.000 E1.01347
G1 X-13.115 Y-14.015 E1.04046
G1 X-12.495 Y-14.455 E1.08070
G1 X-12.275 Y-14.585 E1.09423
G1 X-11.815 Y-14.815 E1.12145
G1 X-11.345 Y-15.005 E1.14828
G1 X-10.855 Y-15.155 E1.17541
G1 X-10.605 Y-15.215 E1.18901
G1 X-9.855 Y-15.325 E1.22914
G1 X-9.345 Y-15.345 E1.25615
G1 X9.845 Y-15.325 E2.27187
G1 X10.595 Y-15.215 E2.31199
G1 X11.095 Y-15.085 E2.33934
G1 X11.575 Y-14.915 E2.36629
G1 X12.035 Y-14.705 E2.39305
G1 X12.265 Y-14.585 E2.40679
G1 X12.485 Y-14.455 E2.42031
G1 X13.105 Y-14.015 E2.46055
G1 X13.485 Y-13.675 E2.48754
G1 X13.665 Y-13.495 E2.50101
G1 X14.005 Y-13.115 E2.52800
G1 X14.445 Y-12.495 E2.56824
G1 X14.575 Y-12.275 E2.58177
G1 X14.805 Y-11.815 E2.60899
G1 X14.995 Y-11.345 E2.63582
G1 X15.145 Y-10.855 E2.66295
G1 X15.205 Y-10.605 E2.67655
G1 X15.315 Y-9.855 E2.71668
G1 X15.315 Y9.845 E3.75939
G1 X15.205 Y10.595 E3.79951
G1 X15.075 Y11.095 E3.82686
G1 X14.905 Y11.575 E3.85381
G1 X14.695 Y12.035 E3.88057
G1 X14.575 Y12.265 E3.89430
G1 X14.445 Y12.485 E3.90783
G1 X14.005 Y13.105 E3.94807
G1 X13.665 Y13.485 E3.97506
G1 X13.485 Y13.665 E3.98853
G1 X13.105 Y14.005 E4.01552
G1 X12.485 Y14.445 E4.05576
G1 X12.265 Y14.575 E4.06929
G1 X11.805 Y14.805 E4.09651
G1 X11.335 Y14.995 E4.12334
G1 X10.845 Y15.145 E4.15047
G1 X10.595 Y15.205 E4.16407
G1 X9.845 Y15.315 E4.20420
G1 X9.335 Y15.335 E4.23121
G1 X-9.855 Y15.315 E5.24693
G1 X-10.605 Y15.205 E5.28705
G1 X-11.105 Y15.075 E5.31440
G1 X-11.585 Y14.905 E5.34135
G1 X-12.045 Y14.695 E5.36811
G1 X-12.275 Y14.575 E5.38184
G1 X-12.495 Y14.445 E5.39537
G1 X-13.115 Y14.005 E5.43561
G1 X-13.495 Y13.665 E5.46260
G1 X-13.675 Y13.485 E5.47607
G1 X-14.015 Y13.105 E5.50306
G1 X-14.455 Y12.485 E5.54330
G1 X-14.585 Y12.265 E5.55683
G1 X-14.815 Y11.805 E5.58405
G1 X-15.005 Y11.335 E5.61088
G1 X-15.155 Y10.845 E5.63801
G1 X-15.215 Y10.595 E5.65161
G1 X-15.325 Y9.845 E5.69174
G1 X-15.325 Y-9.855 E6.73445
G1 X-15.215 Y-10.605 E6.77457
G1 X-15.085 Y-11.105 E6.80191
G1 X-14.915 Y-11.585 E6.82887
G1 X-14.705 Y-12.045 E6.85563
G1 X-14.585 Y-12.275 E6.86936
G1 X-14.455 Y-12.495 E6.88289
G1 X-14.015 Y-13.115 E6.92313
G1 X-13.712 Y-13.454 E6.94720
G1 F1800.000 E5.94720
G92 E0
G1 X-4.620 Y-4.620 F7800.000
G1 F1800.000 E1.00000
G1 X-3.978 Y-5.184 F1800.000 E1.04524
G1 X-3.267 Y-5.659 E1.09048
G1 X-2.501 Y-6.037 E1.13572
G1 X-1.691 Y-6.312 E1.18096
G1 X-0.853 Y-6.478 E1.22620
G1 X0.000 Y-6.534 E1.27144
G1 X0.853 Y-6.478 E1.31667
G1 X1.691 Y-6.312 E1.36191
G1 X2.501 Y-6.037 E1.40715
G1 X3.267 Y-5.659 E1.45239
G1 X3.978 Y-5.184 E1.49763
G1 X4.620 Y-4.620 E1.54287
G1 X5.184 Y-3.978 E1.58811
G1 X5.659 Y-3.267 E1.63335
G1 X6.037 Y-2.501 E1.67859
G1 X6.312 Y-1.691 E1.72383
G1 X6.478 Y-0.853 E1.76907
G1 X6.534 Y0.000 E1.81431
G1 X6.478 Y0.853 E1.85955
G1 X6.312 Y1.691 E1.90479
G1 X6.037 Y2.501 E1.95002
G1 X5.659 Y3.267 E1.99526
G1 X5.184 Y3.978 E2.04050
G1 X4.620 Y4.620 E2.08574
G1 X3.978 Y5.184 E2.13098
G1 X3.267 Y5.659 E2.17622
G1 X2.501 Y6.037 E2.22146
G1 X1.691 Y6.311 E2.26670
G1 X0.853 Y6.478 E2.31194
G1 X0.000 Y6.534 E2.35718
G1 X-0.853 Y6.478 E2.40242
G1 X-1.691 Y6.311 E2.44766
G1 X-2.501 Y6.037 E2.49290
G1 X-3.267 Y5.659 E2.53814
G1 X-3.978 Y5.184 E2.58337
G1 X-4.620 Y4.620 E2.62861
G1 X-5.184 Y3.978 E2.67385
G1 X-5.659 Y3.267 E2.71909
G1 X-6.037 Y2.501 E2.76433
G1 X-6.311 Y1.691 E2.80957
G1 X-6.478 Y0.853 E2.85481
G1 X-6.534 Y0.000 E2.90005
G1 X-6.478 Y-0.853 E2.94529
G1 X-6.311 Y-1.691 E2.99053
G1 X-6.037 Y-2.501 E3.03577
G1 X-5.659 Y-3.267 E3.08101
G1 X-5.184 Y-3.978 E3.12625
G1 X-4.657 Y-4.579 E3.16857
G1 X-4.876 Y-4.876 F7800.000
G1 X-4.198 Y-5.471 F1800.000 E3.21631
G1 X-3.448 Y-5.972 E3.26405
G1 X-2.639 Y-6.371 E3.31179
G1 X-1.785 Y-6.661 E3.35953
G1 X-0.900 Y-6.837 E3.40727
G1 X0.000 Y-6.896 E3.45502
G1 X0.900 Y-6.837 E3.50276
G1 X1.785 Y-6.661 E3.55050
G1 X2.639 Y-6.371 E3.59824
G1 X3.448 Y-5.972 E3.64598
G1 X4.198 Y-5.471 E3.69372
G1 X4.876 Y-4.876 E3.74147
G1 X5.471 Y-4.198 E3.78921
G1 X5.972 Y-3.448 E3.83695
G1 X6.371 Y-2.639 E3.88469
G1 X6.661 Y-1.785 E3.93243
G1 X6.837 Y-0.900 E3.98017
G1 X6.896 Y0.000 E4.02791
G1 X6.837 Y0.900 E4.07566
G1 X6.661 Y1.785 E4.12340
G1 X6.371 Y2.639 E4.17114
G1 X5.972 Y3.448 E4.21888
G1 X5.471 Y4.198 E4.26662
G1 X4.876 Y4.876 E4.31436
G1 X4.198 Y5.471 E4.36210
G1 X3.448 Y5.972 E4.40985
G1 X2.639 Y6.371 E4.45759
G1 X1.785 Y6.661 E4.50533
G1 X0.900 Y6.837 E4.55307
G1 X0.000 Y6.896 E4.60081
G1 X-0.900 Y6.837 E4.64855
G1 X-1.785 Y6.661 E4.69629
G1 X-2.639 Y6.371 E4.74404
G1 X-3.448 Y5.972 E4.79178
G1 X-4.198 Y5.471 E4.83952
G1 X-4.876 Y4.876 E4.88726
G1 X-5.471 Y4.198 E4.93500
G1 X-5.972 Y3.448 E4.98274
G1 X-6.371 Y2.639 E5.03048
G1 X-6.661 Y1.785 E5.07823
G1 X-6.837 Y0.900 E5.12597
G1 X-6.896 Y0.000 E5.17371
G1 X-6.837 Y-0.900 E5.22145
G1 X-6.661 Y-1.785 E5.26919
G1 X-6.371 Y-2.639 E5.31693
G1 X-5.972 Y-3.448 E5.36467
G1 X-5.471 Y-4.198 E5.41242
G1 X-4.912 Y-4.834 E5.45724
G1 F1800.000 E4.45724
G92 E0
G1 X-8.981 Y-8.981 F7800.000
G1 F1800.000 E1.00000
G1 X8.981 Y-8.981 F1800.000 E1.95068
G1 X8.981 Y8.981 E2.90136
G1 X-8.981 Y8.981 E3.85204
G1 X-8.981 Y-8.925 E4.79981
G1 X-9.341 Y-9.341 F7800.000
G1 X9.341 Y-9.341 F1800.000 E5.78866
G1 X9.341 Y9.341 E6.77752
G1 X-9.341 Y9.341 E7.76638
G1 X-9.341 Y-9.286 E8.75232
G1 X-8.724 Y-8.468 F7800.000
G1 X-5.147 Y-4.891 F3600.000 E9.02113
G1 X-4.891 Y-5.147 F7800.000
G1 X-8.468 Y-8.724 F3600.000 E9.28995
G1 X-7.957 Y-8.724 F7800.000
G1 X-4.619 Y-5.386 F3600.000 E9.54082
G1 X-4.346 Y-5.625 F7800.000
G1 X-7.446 Y-8.724 F3600.000 E9.77373
G1 X-6.934 Y-8.724 F7800.000
G1 X-4.044 Y-5.834 F3600.000 E9.99094
G1 X-3.738 Y-6.038 F7800.000
G1 X-6.423 Y-8.724 F3600.000 E10.19276
G1 X-5.912 Y-8.724 F7800.000
G1 X-3.420 Y-6.232 F3600.000 E10.38002
G1 X-3.078 Y-6.401 F7800.000
G1 X-5.400 Y-8.724 F3600.000 E10.55458
G1 X-4.889 Y-8.724 F7800.000
G1 X-2.735 Y-6.570 F3600.000 E10.71645
G1 X-2.361 Y-6.707 F7800.000
G1 X-4.378 Y-8.724 F3600.000 E10.86805
G1 X-3.867 Y-8.724 F7800.000
G1 X-1.979 Y-6.836 F3600.000 E11.00992
G1 X-1.576 Y-6.945 F7800.000
G1 X-3.355 Y-8.724 F3600.000 E11.14360
G1 X-2.844 Y-8.724 F7800.000
G1 X-1.150 Y-7.030 F3600.000 E11.27091
G1 X-0.708 Y-7.100 F7800.000
G1 X-2.333 Y-8.724 F3600.000 E11.39297
G1 X-1.821 Y-8.724 F7800.000
G1 X-0.229 Y-7.131 F3600.000 E11.51267
G1 X0.272 Y-7.142 F7800.000
G1 X-1.310 Y-8.724 F3600.000 E11.63156
G1 X-0.799 Y-8.724 F7800.000
G1 X0.819 Y-7.106 F3600.000 E11.75314
G1 X1.419 Y-7.018 F7800.000
G1 X-0.287 Y-8.724 F3600.000 E11.88136
G1 X0.224 Y-8.724 F7800.000
G1 X2.073 Y-6.875 F3600.000 E12.02032
G1 X2.847 Y-6.612 F7800.000
G1 X0.735 Y-8.724 F3600.000 E12.17903
G1 X1.246 Y-8.724 F7800.000
G1 X3.905 Y-6.065 F3600.000 E12.37882
G1 F1800.000 E11.37882
G92 E0
G1 X2.269 Y-8.724 F7800.000
G1 F1800.000 E1.00000
G1 X8.724 Y-2.269 F3600.000 E1.48509
G1 X8.724 Y-2.780 E1.51226
G1 X2.780 Y-8.724 E1.95892
G1 X3.292 Y-8.724 E1.98609
G1 X8.724 Y-3.292 E2.39433
G1 X8.724 Y-3.803 E2.42150
G1 X3.803 Y-8.724 E2.79132
G1 X4.314 Y-8.724 E2.81849
G1 X8.724 Y-4.314 E3.14988
G1 X8.724 Y-4.826 E3.17705
G1 X4.826 Y-8.724 E3.47001
G1 X5.337 Y-8.724 E3.49718
G1 X8.724 Y-5.337 E3.75172
G1 X8.724 Y-5.848 E3.77889
G1 X5.848 Y-8.724 E3.99500
G1 X6.360 Y-8.724 E4.02217
G1 X8.724 Y-6.360 E4.19986
G1 X8.724 Y-6.871 E4.22703
G1 X6.871 Y-8.724 E4.36630
G1 X7.382 Y-8.724 E4.39347
G1 X8.724 Y-7.382 E4.49430
G1 X8.724 Y-7.893 E4.52147
G1 X7.893 Y-8.724 E4.58389
G1 X8.405 Y-8.724 E4.61106
G1 X8.724 Y-8.405 E4.63505
G1 F1800.000 E3.63505
G92 E0
G1 X1.758 Y-8.724 F7800.000
G1 F1800.000 E1.00000
G1 X8.724 Y-1.758 F3600.000 E1.52351
G1 X8.724 Y-1.246 E1.55068
G1 X6.065 Y-3.905 E1.75048
G1 X6.612 Y-2.847 E1.81377
G1 X8.724 Y-0.735 E1.97248
G1 X8.724 Y-0.224 E1.99965
G1 X6.875 Y-2.073 E2.13861
G1 X7.018 Y-1.419 E2.17419
G1 X8.724 Y0.287 E2.30241
G1 X8.724 Y0.799 E2.32958
G1 X7.106 Y-0.819 E2.45117
G1 X7.142 Y-0.272 E2.48030
G1 X8.724 Y1.310 E2.59919
G1 X8.724 Y1.821 E2.62636
G1 X7.131 Y0.229 E2.74606
G1 X7.100 Y0.708 E2.77162
G1 X8.724 Y2.333 E2.89368
G1 X8.724 Y2.844 E2.92085
G1 X7.030 Y1.150 E3.04816
G1 X6.945 Y1.576 E3.07126
G1 X8.724 Y3.355 E3.20495
G1 X8.724 Y3.867 E3.23212
G1 X6.836 Y1.979 E3.37398
G1 X6.707 Y2.361 E3.39540
G1 X8.724 Y4.378 E3.54700
G1 X8.724 Y4.889 E3.57417
G1 X6.570 Y2.735 E3.73605
G1 X6.401 Y3.078 E3.75634
G1 X8.724 Y5.400 E3.93090
G1 X8.724 Y5.912 E3.95807
G1 X6.232 Y3.420 E4.14533
G1 X6.038 Y3.738 E4.16509
G1 X8.724 Y6.423 E4.36691
G1 X8.724 Y6.934 E4.39408
G1 X5.834 Y4.044 E4.61130
G1 X5.625 Y4.346 E4.63083
G1 X8.724 Y7.446 E4.86374
G1 X8.724 Y7.957 E4.89091
G1 X5.386 Y4.619 E5.14177
G1 X5.147 Y4.891 E5.16103
G1 X8.724 Y8.468 E5.42985
G1 X8.468 Y8.724 E5.44906
G1 X4.891 Y5.147 E5.71788
G1 X4.619 Y5.386 E5.73713
G1 X7.957 Y8.724 E5.98799
G1 X7.446 Y8.724 E6.01516
G1 X4.346 Y5.625 E6.24807
G1 X4.044 Y5.834 E6.26761
G1 X6.934 Y8.724 E6.48482
G1 X6.423 Y8.724 E6.51199
G1 X3.738 Y6.038 E6.71381
G1 X3.420 Y6.232 E6.73358
G1 X5.912 Y8.724 E6.92083
G1 X5.400 Y8.724 E6.94800
G1 X3.078 Y6.401 E7.12257
G1 X2.735 Y6.570 E7.14286
G1 X4.889 Y8.724 E7.30473
G1 X4.378 Y8.724 E7.33190
G1 X2.361 Y6.707 E7.48350
G1 X1.979 Y6.836 E7.50492
G1 X3.867 Y8.724 E7.64678
G1 X3.355 Y8.724 E7.67395
G1 X1.576 Y6.945 E7.80764
G1 X1.150 Y7.030 E7.83075
G1 X2.844 Y8.724 E7.95806
G1 X2.333 Y8.724 E7.98523
G1 X0.708 Y7.100 E8.10729
G1 X0.229 Y7.131 E8.13284
G1 X1.821 Y8.724 E8.25254
G1 X1.310 Y8.724 E8.27971
G1 X-0.272 Y7.142 E8.39860
G1 X-0.819 Y7.106 E8.42774
G1 X0.799 Y8.724 E8.54932
G1 X0.287 Y8.724 E8.57649
G1 X-1.419 Y7.018 E8.70471
G1 X-2.073 Y6.875 E8.74029
G1 X-0.224 Y8.724 E8.87925
G1 X-0.735 Y8.724 E8.90642
G1 X-2.847 Y6.612 E9.06513
G1 X-3.905 Y6.065 E9.12842
G1 X-1.246 Y8.724 E9.32822
G1 X-1.758 Y8.724 E9.35539
G1 X-8.724 Y1.758 E9.87890
G1 X-8.724 Y2.269 E9.90607
G1 X-2.269 Y8.724 E10.39116
G1 X-2.780 Y8.724 E10.41833
G1 X-8.724 Y2.780 E10.86500
G1 X-8.724 Y3.292 E10.89217
G1 X-3.292 Y8.724 E11.30040
G1 X-3.803 Y8.724 E11.32758
G1 X-8.724 Y3.803 E11.69739
G1 X-8.724 Y4.314 E11.72456
G1 X-4.314 Y8.724 E12.05595
G1 X-4.826 Y8.724 E12.08312
G1 X-8.724 Y4.826 E12.37608
G1 X-8.724 Y5.337 E12.40325
G1 X-5.337 Y8.724 E12.65779
G1 X-5.848 Y8.724 E12.68496
G1 X-8.724 Y5.848 E12.90107
G1 X-8.724 Y6.360 E12.92825
G1 X-6.360 Y8.724 E13.10593
G1 X-6.871 Y8.724 E13.13310
G1 X-8.724 Y6.871 E13.27237
G1 X-8.724 Y7.382 E13.29954
G1 X-7.382 Y8.724 E13.40038
G1 X-7.893 Y8.724 E13.42755
G1 X-8.724 Y7.893 E13.48996
G1 X-8.724 Y8.405 E13.51713
G1 X-8.405 Y8.724 E13.54112
G1 F1800.000 E12.54112
G92 E0
G1 X-6.065 Y3.905 F7800.000
G1 F1800.000 E1.00000
G1 X-8.724 Y1.246 F3600.000 E1.19980
G1 X-8.724 Y0.735 F7800.000
G1 X-6.612 Y2.847 F3600.000 E1.35850
G1 X-6.875 Y2.073 F7800.000
G1 X-8.724 Y0.224 F3600.000 E1.49746
G1 X-8.724 Y-0.287 F7800.000
G1 X-7.018 Y1.419 F3600.000 E1.62568
G1 X-7.106 Y0.819 F7800.000
G1 X-8.724 Y-0.799 F3600.000 E1.74727
G1 X-8.724 Y-1.310 F7800.000
G1 X-7.142 Y0.272 F3600.000 E1.86615
G1 X-7.131 Y-0.229 F7800.000
G1 X-8.724 Y-1.821 F3600.000 E1.98585
G1 X-8.724 Y-2.333 F7800.000
G1 X-7.100 Y-0.708 F3600.000 E2.10791
G1 X-7.030 Y-1.150 F7800.000
G1 X-8.724 Y-2.844 F3600.000 E2.23522
G1 X-8.724 Y-3.355 F7800.000
G1 X-6.945 Y-1.576 F3600.000 E2.36891
G1 X-6.836 Y-1.979 F7800.000
G1 X-8.724 Y-3.867 F3600.000 E2.51077
G1 X-8.724 Y-4.378 F7800.000
G1 X-6.707 Y-2.361 F3600.000 E2.66237
G1 X-6.570 Y-2.735 F7800.000
G1 X-8.724 Y-4.889 F3600.000 E2.82424
G1 X-8.724 Y-5.400 F7800.000
G1 X-6.401 Y-3.078 F3600.000 E2.99881
G1 X-6.232 Y-3.420 F7800.000
G1 X-8.724 Y-5.912 F3600.000 E3.18606
G1 X-8.724 Y-6.423 F7800.000
G1 X-6.038 Y-3.738 F3600.000 E3.38788
G1 X-5.834 Y-4.044 F7800.000
G1 X-8.724 Y-6.934 F3600.000 E3.60510
G1 X-8.724 Y-7.446 F7800.000
G1 X-5.625 Y-4.346 F3600.000 E3.83801
G1 X-5.386 Y-4.619 F7800.000
G1 X-8.724 Y-7.957 F3600.000 E4.08887
G1 F1800.000 E3.08887
G92 E0
G1 Z0.700 F7800.000
G1 X-4.620 Y-4.620
G1 F1800.000 E1.00000
G1 X-3.978 Y-5.184 F1800.000 E1.04524
G1 X-3.267 Y-5.659 E1.09048
G1 X-2.501 Y-6.037 E1.13572
G1 X-1.691 Y-6.312 E1.18096
G1 X-0.853 Y-6.478 E1.22620
G1 X0.000 Y-6.534 E1.27144
G1 X0.853 Y-6.478 E1.31667
G1 X1.691 Y-6.312 E1.36191
G1 X2.501 Y-6.037 E1.40715
G1 X3.267 Y-5.659 E1.45239
G1 X3.978 Y-5.184 E1.49763
G1 X4.620 Y-4.620 E1.54287
G1 X5.184 Y-3.978 E1.58811
G1 X5.659 Y-3.267 E1.63335
G1 X6.037 Y-2.501 E1.67859
G1 X6.312 Y-1.691 E1.72383
G1 X6.478 Y-0.853 E1.76907
G1 X6.534 Y0.000 E1.81431
G1 X6.478 Y0.853 E1.85955
G1 X6.312 Y1.691 E1.90479
G1 X6.037 Y2.501 E1.95002
G1 X5.659 Y3.267 E1.99526
G1 X5.184 Y3.978 E2.04050
G1 X4.620 Y4.620 E2.08574
G1 X3.978 Y5.184 E2.13098
G1 X3.267 Y5.659 E2.17622
G1 X2.501 Y6.037 E2.22146
G1 X1.691 Y6.311 E2.26670
G1 X0.853 Y6.478 E2.31194
G1 X0.000 Y6.534 E2.35718
G1 X-0.853 Y6.478 E2.40242
G1 X-1.691 Y6.311 E2.44766
G1 X-2.501 Y6.037 E2.49290
G1 X-3.267 Y5.659 E2.53814
G1 X-3.978 Y5.184 E2.58337
G1 X-4.620 Y4.620 E2.62861
G1 X-5.184 Y3.978 E2.67385
G1 X-5.659 Y3.267 E2.71909
G1 X-6.037 Y2.501 E2.76433
G1 X-6.311 Y1.691 E2.80957
G1 X-6.478 Y0.853 E2.85481
G1 X-6.534 Y0.000 E2.90005
G1 X-6.478 Y-0.853 E2.94529
G1 X-6.311 Y-1.691 E2.99053
G1 X-6.037 Y-2.501 E3.03577
G1 X-5.659 Y-3.267 E3.08101
G1 X-5.184 Y-3.978 E3.12625
G1 X-4.657 Y-4.579 E3.16857
G1 X-4.876 Y-4.876 F7800.000
G1 X-4.198 Y-5.471 F1800.000 E3.21631
G1 X-3.448 Y-5.972 E3.26405
G1 X-2.639 Y-6.371 E3.31179
G1 X-1.785 Y-6.661 E3.35953
G1 X-0.900 Y-6.837 E3.40727
G1 X0.000 Y-6.896 E3.45502
G1 X0.900 Y-6.837 E3.50276
G1 X1.785 Y-6.661 E3.55050
G1 X2.639 Y-6.371 E3.59824
G1 X3.448 Y-5.972 E3.64598
G1 X4.198 Y-5.471 E3.69372
G1 X4.876 Y-4.876 E3.74147
G1 X5.471 Y-4.198 E3.78921
G1 X5.972 Y-3.448 E3.83695
G1 X6.371 Y-2.639 E3.88469
G1 X6.661 Y-1.785 E3.93243
G1 X6.837 Y-0.900 E3.98017
G1 X6.896 Y0.000 E4.02791
G1 X6.837 Y0.900 E4.07566
G1 X6.661 Y1.785 E4.12340
G1 X6.371 Y2.639 E4.17114
G1 X5.972 Y3.448 E4.21888
G1 X5.471 Y4.198 E4.26662
G1 X4.876 Y4.876 E4.31436
G1 X4.198 Y5.471 E4.36210
G1 X3.448 Y5.972 E4.40985
G1 X2.639 Y6.371 E4.45759
G1 X1.785 Y6.661 E4.50533
G1 X0.900 Y6.837 E4.55307
G1 X0.000 Y6.896 E4.60081
G1 X-0.900 Y6.837 E4.64855
G1 X-1.785 Y6.661 E4.69629
G1 X-2.639 Y6.371 E4.74404
G1 X-3.448 Y5.972 E4.79178
G1 X-4.198 Y5.471 E4.83952
G1 X-4.876 Y4.876 E4.88726
G1 X-5.471 Y4.198 E4.93500
G1 X-5.972 Y3.448 E4.98274
G1 X-6.371 Y2.639 E5.03048
G1 X-6.661 Y1.785 E5.07823
G1 X-6.837 Y0.900 E5.12597
G1 X-6.896 Y0.000 E5.17371
G1 X-6.837 Y-0.900 E5.22145
G1 X-6.661 Y-1.785 E5.26919
G1 X-6.371 Y-2.639 E5.31693
G1 X-5.972 Y-3.448 E5.36467
G1 X-5.471 Y-4.198 E5.41242
G1 X-4.912 Y-4.834 E5.45724
G1 F1800.000 E4.45724
G92 E0
G1 X-8.981 Y-8.981 F7800.000
G1 F1800.000 E1.00000
G1 X8.981 Y-8.981 F1800.000 E1.95068
G1 X8.981 Y8.981 E2.90136
G1 X-8.981 Y8.981 E3.85204
G1 X-8.981 Y-8.925 E4.79981
G1 X-9.341 Y-9.341 F7800.000
G1 X9.341 Y-9.341 F1800.000 E5.78866
G1 X9.341 Y9.341 E6.77752
G1 X-9.341 Y9.341 E7.76638
G1 X-9.341 Y-9.286 E8.75232
