; generated by Slic3r 0.7.1 on 2012-05-09 at 15:05:38

; layer_height = .35
; perimeters = 3
; solid_layers = 3
; fill_density = .42
; nozzle_diameter = .35
; filament_diameter = 1.75
; extrusion_multiplier = 1
; perimeter_speed = 30
; infill_speed = 30
; travel_speed = 150
; extrusion_width_ratio = 0
; scale = 1
; single wall width = 0.37mm


G90 ; use absolute coordinates
G21 ; set units to millimeters
G92 E0 ; reset extrusion distance
M82 ; use absolute distances for extrusion
G1 Z0.350 F9000.000
G1 X66.873 Y86.489
G1 F1800.000 E2.00000
G1 X67.053 Y86.309 F1800.000 E2.01347
G1 X67.433 Y85.969 E2.04046
G1 X68.053 Y85.529 E2.08070
G1 X68.273 Y85.399 E2.09423
G1 X68.733 Y85.169 E2.12145
G1 X69.203 Y84.979 E2.14828
G1 X69.693 Y84.829 E2.17541
G1 X69.943 Y84.769 E2.18901
G1 X70.693 Y84.659 E2.22914
G1 X71.203 Y84.639 E2.25615
G1 X129.293 Y84.659 E5.33083
G1 X130.043 Y84.769 E5.37095
G1 X130.543 Y84.899 E5.39830
G1 X131.023 Y85.069 E5.42525
G1 X131.483 Y85.279 E5.45201
G1 X131.713 Y85.399 E5.46575
G1 X131.933 Y85.529 E5.47927
G1 X132.553 Y85.969 E5.51951
G1 X132.933 Y86.309 E5.54650
G1 X133.113 Y86.489 E5.55997
G1 X133.453 Y86.869 E5.58696
G1 X133.893 Y87.489 E5.62720
G1 X134.023 Y87.709 E5.64073
G1 X134.253 Y88.169 E5.66795
G1 X134.443 Y88.639 E5.69478
G1 X134.593 Y89.129 E5.72191
G1 X134.653 Y89.379 E5.73551
G1 X134.763 Y90.129 E5.77564
G1 X134.763 Y109.859 E6.81994
G1 X134.653 Y110.609 E6.86006
G1 X134.523 Y111.109 E6.88740
G1 X134.353 Y111.589 E6.91436
G1 X134.143 Y112.049 E6.94112
G1 X134.023 Y112.279 E6.95485
G1 X133.893 Y112.499 E6.96838
G1 X133.453 Y113.119 E7.00862
G1 X133.113 Y113.499 E7.03561
G1 X132.933 Y113.679 E7.04908
G1 X132.553 Y114.019 E7.07607
G1 X131.933 Y114.459 E7.11631
G1 X131.713 Y114.589 E7.12984
G1 X131.253 Y114.819 E7.15706
G1 X130.783 Y115.009 E7.18389
G1 X130.293 Y115.159 E7.21101
G1 X130.043 Y115.219 E7.22462
G1 X129.293 Y115.329 E7.26474
G1 X128.783 Y115.349 E7.29176
G1 X70.693 Y115.329 E10.36644
G1 X69.943 Y115.219 E10.40656
G1 X69.443 Y115.089 E10.43390
G1 X68.963 Y114.919 E10.46086
G1 X68.503 Y114.709 E10.48762
G1 X68.273 Y114.589 E10.50135
G1 X68.053 Y114.459 E10.51488
G1 X67.433 Y114.019 E10.55512
G1 X67.053 Y113.679 E10.58211
G1 X66.873 Y113.499 E10.59558
G1 X66.533 Y113.119 E10.62257
G1 X66.093 Y112.499 E10.66281
G1 X65.963 Y112.279 E10.67634
G1 X65.733 Y111.819 E10.70356
G1 X65.543 Y111.349 E10.73039
G1 X65.393 Y110.859 E10.75751
G1 X65.333 Y110.609 E10.77112
G1 X65.223 Y109.859 E10.81124
G1 X65.223 Y90.129 E11.85554
G1 X65.333 Y89.379 E11.89567
G1 X65.463 Y88.879 E11.92301
G1 X65.633 Y88.399 E11.94996
G1 X65.843 Y87.939 E11.97673
G1 X65.963 Y87.709 E11.99046
G1 X66.093 Y87.489 E12.00399
G1 X66.533 Y86.869 E12.04423
G1 X66.837 Y86.530 E12.06830
G1 F1800.000 E10.06830
G92 E0
G1 X123.702 Y105.748 F9000.000
G1 F1800.000 E2.00000
G1 X123.879 Y105.320 F1800.000 E2.02450
G1 X124.161 Y104.953 E2.04899
G1 X124.528 Y104.671 E2.07349
G1 X124.955 Y104.494 E2.09798
G1 X125.414 Y104.434 E2.12248
G1 X125.873 Y104.494 E2.14698
G1 X126.301 Y104.671 E2.17147
G1 X126.668 Y104.953 E2.19597
G1 X126.950 Y105.320 E2.22046
G1 X127.127 Y105.748 E2.24496
G1 X127.187 Y106.207 E2.26946
G1 X127.127 Y106.665 E2.29395
G1 X126.950 Y107.093 E2.31845
G1 X126.668 Y107.460 E2.34294
G1 X126.301 Y107.742 E2.36744
G1 X125.873 Y107.919 E2.39194
G1 X125.414 Y107.979 E2.41643
G1 X124.955 Y107.919 E2.44093
G1 X124.528 Y107.742 E2.46542
G1 X124.161 Y107.460 E2.48992
G1 X123.879 Y107.093 E2.51442
G1 X123.702 Y106.665 E2.53891
G1 X123.641 Y106.207 E2.56341
G1 X123.695 Y105.802 E2.58499
G1 X123.351 Y105.654 F9000.000
G1 X123.564 Y105.138 F1800.000 E2.61451
G1 X123.903 Y104.696 E2.64403
G1 X124.346 Y104.356 E2.67355
G1 X124.861 Y104.143 E2.70307
G1 X125.414 Y104.070 E2.73260
G1 X125.967 Y104.143 E2.76212
G1 X126.483 Y104.356 E2.79164
G1 X126.925 Y104.696 E2.82116
G1 X127.265 Y105.138 E2.85068
G1 X127.478 Y105.654 E2.88021
G1 X127.551 Y106.207 E2.90973
G1 X127.478 Y106.760 E2.93925
G1 X127.265 Y107.275 E2.96877
G1 X126.925 Y107.717 E2.99829
G1 X126.483 Y108.057 E3.02781
G1 X125.967 Y108.270 E3.05734
G1 X125.414 Y108.343 E3.08686
G1 X124.861 Y108.270 E3.11638
G1 X124.346 Y108.057 E3.14590
G1 X123.903 Y107.717 E3.17542
G1 X123.564 Y107.275 E3.20495
G1 X123.351 Y106.760 E3.23447
G1 X123.278 Y106.207 E3.26399
G1 X123.343 Y105.708 E3.29059
G1 F1800.000 E1.29059
G92 E0
G1 X124.955 Y95.219 F9000.000
G1 F1800.000 E2.00000
G1 X124.528 Y95.042 F1800.000 E2.02450
G1 X124.161 Y94.760 E2.04899
G1 X123.879 Y94.393 E2.07349
G1 X123.702 Y93.965 E2.09798
G1 X123.641 Y93.507 E2.12248
G1 X123.702 Y93.048 E2.14698
G1 X123.879 Y92.620 E2.17147
G1 X124.161 Y92.253 E2.19597
G1 X124.528 Y91.971 E2.22046
G1 X124.955 Y91.794 E2.24496
G1 X125.414 Y91.734 E2.26946
G1 X125.873 Y91.794 E2.29395
G1 X126.301 Y91.971 E2.31845
G1 X126.668 Y92.253 E2.34294
G1 X126.950 Y92.620 E2.36744
G1 X127.127 Y93.048 E2.39194
G1 X127.187 Y93.507 E2.41643
G1 X127.127 Y93.965 E2.44093
G1 X126.950 Y94.393 E2.46542
G1 X126.668 Y94.760 E2.48992
G1 X126.301 Y95.042 E2.51442
G1 X125.873 Y95.219 E2.53891
G1 X125.414 Y95.279 E2.56341
G1 X125.010 Y95.226 E2.58499
G1 X124.861 Y95.570 F9000.000
G1 X124.346 Y95.357 F1800.000 E2.61451
G1 X123.903 Y95.017 E2.64403
G1 X123.564 Y94.575 E2.67355
G1 X123.351 Y94.060 E2.70307
G1 X123.278 Y93.507 E2.73260
G1 X123.351 Y92.954 E2.76212
G1 X123.564 Y92.438 E2.79164
G1 X123.903 Y91.996 E2.82116
G1 X124.346 Y91.656 E2.85068
G1 X124.861 Y91.443 E2.88021
G1 X125.414 Y91.370 E2.90973
G1 X125.967 Y91.443 E2.93925
G1 X126.483 Y91.656 E2.96877
G1 X126.925 Y91.996 E2.99829
G1 X127.265 Y92.438 E3.02782
G1 X127.478 Y92.954 E3.05734
G1 X127.551 Y93.507 E3.08686
G1 X127.478 Y94.060 E3.11638
G1 X127.265 Y94.575 E3.14590
G1 X126.925 Y95.017 E3.17542
G1 X126.483 Y95.357 E3.20495
G1 X125.967 Y95.570 E3.23447
G1 X125.414 Y95.643 E3.26399
G1 X124.916 Y95.578 E3.29059
G1 F1800.000 E1.29059
G92 E0
G1 X76.387 Y93.507 F9000.000
G1 F1800.000 E2.00000
G1 X76.327 Y93.965 F1800.000 E2.02450
G1 X76.150 Y94.393 E2.04899
G1 X75.868 Y94.760 E2.07349
G1 X75.501 Y95.042 E2.09798
G1 X75.073 Y95.219 E2.12248
G1 X74.614 Y95.279 E2.14698
G1 X74.155 Y95.219 E2.17147
G1 X73.728 Y95.042 E2.19597
G1 X73.361 Y94.760 E2.22046
G1 X73.079 Y94.393 E2.24496
G1 X72.902 Y93.965 E2.26946
G1 X72.841 Y93.507 E2.29395
G1 X72.902 Y93.048 E2.31845
G1 X73.079 Y92.620 E2.34294
G1 X73.361 Y92.253 E2.36744
G1 X73.728 Y91.971 E2.39194
G1 X74.155 Y91.794 E2.41643
G1 X74.614 Y91.734 E2.44093
G1 X75.073 Y91.794 E2.46542
G1 X75.501 Y91.971 E2.48992
G1 X75.868 Y92.253 E2.51442
G1 X76.150 Y92.620 E2.53891
G1 X76.327 Y93.048 E2.56341
G1 X76.380 Y93.452 E2.58499
G1 X76.751 Y93.507 F9000.000
G1 X76.678 Y94.060 F1800.000 E2.61451
G1 X76.465 Y94.575 E2.64403
G1 X76.125 Y95.017 E2.67355
G1 X75.683 Y95.357 E2.70307
G1 X75.167 Y95.570 E2.73260
G1 X74.614 Y95.643 E2.76212
G1 X74.061 Y95.570 E2.79164
G1 X73.546 Y95.357 E2.82116
G1 X73.103 Y95.017 E2.85068
G1 X72.764 Y94.575 E2.88020
G1 X72.551 Y94.060 E2.90973
G1 X72.478 Y93.507 E2.93925
G1 X72.551 Y92.954 E2.96877
G1 X72.764 Y92.438 E2.99829
G1 X73.103 Y91.996 E3.02781
G1 X73.546 Y91.656 E3.05734
G1 X74.061 Y91.443 E3.08686
G1 X74.614 Y91.370 E3.11638
G1 X75.167 Y91.443 E3.14590
G1 X75.683 Y91.656 E3.17542
G1 X76.125 Y91.996 E3.20495
G1 X76.465 Y92.438 E3.23447
G1 X76.678 Y92.954 E3.26399
G1 X76.744 Y93.452 E3.29059
G1 F1800.000 E1.29059
G92 E0
G1 X75.073 Y104.494 F9000.000
G1 F1800.000 E2.00000
G1 X75.501 Y104.671 F1800.000 E2.02450
G1 X75.868 Y104.953 E2.04899
G1 X76.150 Y105.320 E2.07349
G1 X76.327 Y105.748 E2.09798
G1 X76.387 Y106.207 E2.12248
G1 X76.327 Y106.665 E2.14698
G1 X76.150 Y107.093 E2.17147
G1 X75.868 Y107.460 E2.19597
G1 X75.501 Y107.742 E2.22046
G1 X75.073 Y107.919 E2.24496
G1 X74.614 Y107.979 E2.26946
G1 X74.155 Y107.919 E2.29395
G1 X73.728 Y107.742 E2.31845
G1 X73.361 Y107.460 E2.34294
G1 X73.079 Y107.093 E2.36744
G1 X72.902 Y106.665 E2.39194
G1 X72.841 Y106.207 E2.41643
G1 X72.902 Y105.748 E2.44093
G1 X73.079 Y105.320 E2.46542
G1 X73.361 Y104.953 E2.48992
G1 X73.728 Y104.671 E2.51442
G1 X74.155 Y104.494 E2.53891
G1 X74.614 Y104.434 E2.56341
G1 X75.018 Y104.487 E2.58499
G1 X75.167 Y104.143 F9000.000
G1 X75.683 Y104.356 F1800.000 E2.61451
G1 X76.125 Y104.696 E2.64403
G1 X76.465 Y105.138 E2.67355
G1 X76.678 Y105.654 E2.70307
G1 X76.751 Y106.207 E2.73259
G1 X76.678 Y106.760 E2.76212
G1 X76.465 Y107.275 E2.79164
G1 X76.125 Y107.717 E2.82116
G1 X75.683 Y108.057 E2.85068
G1 X75.167 Y108.270 E2.88020
G1 X74.614 Y108.343 E2.90973
G1 X74.061 Y108.270 E2.93925
G1 X73.546 Y108.057 E2.96877
G1 X73.103 Y107.717 E2.99829
G1 X72.764 Y107.275 E3.02781
G1 X72.551 Y106.760 E3.05734
G1 X72.478 Y106.207 E3.08686
G1 X72.551 Y105.654 E3.11638
G1 X72.764 Y105.138 E3.14590
G1 X73.103 Y104.696 E3.17542
G1 X73.546 Y104.356 E3.20495
G1 X74.061 Y104.143 E3.23447
G1 X74.614 Y104.070 E3.26399
G1 X75.113 Y104.136 E3.29059
G1 X75.261 Y103.791 F9000.000
G1 X74.614 Y103.706 F1800.000 E3.32514
G1 X73.967 Y103.791 E3.35969
G1 X73.364 Y104.041 E3.39424
G1 X72.846 Y104.439 E3.42878
G1 X72.449 Y104.956 E3.46333
G1 X72.199 Y105.559 E3.49788
G1 X72.114 Y106.207 E3.53243
G1 X72.199 Y106.854 E3.56698
G1 X72.449 Y107.457 E3.60152
G1 X72.846 Y107.975 E3.63607
G1 X73.364 Y108.372 E3.67062
G1 X73.967 Y108.622 E3.70517
G1 X74.079 Y108.636 E3.71116
G1 X71.928 Y108.636 E3.82501
G1 X71.928 Y91.364 E4.73926
G1 X73.335 Y91.364 E4.81371
G1 X72.846 Y91.739 E4.84631
G1 X72.449 Y92.256 E4.88086
G1 X72.199 Y92.859 E4.91541
G1 X72.114 Y93.507 E4.94995
G1 X72.199 Y94.154 E4.98450
G1 X72.449 Y94.757 E5.01905
G1 X72.846 Y95.275 E5.05360
G1 X73.364 Y95.672 E5.08815
G1 X73.967 Y95.922 E5.12269
G1 X74.614 Y96.007 E5.15724
G1 X75.261 Y95.922 E5.19179
G1 X75.864 Y95.672 E5.22634
G1 X76.382 Y95.275 E5.26089
G1 X76.780 Y94.757 E5.29543
G1 X77.029 Y94.154 E5.32998
G1 X77.115 Y93.507 E5.36453
G1 X77.029 Y92.859 E5.39908
G1 X76.780 Y92.256 E5.43362
G1 X76.382 Y91.739 E5.46817
G1 X75.894 Y91.364 E5.50078
G1 X124.135 Y91.364 E8.05418
G1 X123.646 Y91.739 E8.08678
G1 X123.249 Y92.256 E8.12133
G1 X122.999 Y92.859 E8.15588
G1 X122.914 Y93.507 E8.19042
G1 X122.999 Y94.154 E8.22497
G1 X123.249 Y94.757 E8.25952
G1 X123.646 Y95.275 E8.29407
G1 X124.164 Y95.672 E8.32862
G1 X124.767 Y95.922 E8.36316
G1 X125.414 Y96.007 E8.39771
G1 X126.061 Y95.922 E8.43226
G1 X126.664 Y95.672 E8.46681
G1 X127.182 Y95.275 E8.50135
G1 X127.580 Y94.757 E8.53590
G1 X127.829 Y94.154 E8.57045
G1 X127.915 Y93.507 E8.60500
G1 X127.829 Y92.859 E8.63955
G1 X127.580 Y92.256 E8.67409
G1 X127.182 Y91.739 E8.70864
G1 X126.694 Y91.364 E8.74125
G1 X128.072 Y91.364 E8.81418
G1 X128.072 Y108.636 E9.72843
G1 X125.949 Y108.636 E9.84077
G1 X126.061 Y108.622 E9.84676
G1 X126.664 Y108.372 E9.88131
G1 X127.182 Y107.975 E9.91586
G1 X127.580 Y107.457 E9.95040
G1 X127.829 Y106.854 E9.98495
G1 X127.915 Y106.207 E10.01950
G1 X127.829 Y105.559 E10.05405
G1 X127.580 Y104.956 E10.08860
G1 X127.182 Y104.439 E10.12314
G1 X126.664 Y104.041 E10.15769
G1 X126.061 Y103.791 E10.19224
G1 X125.414 Y103.706 E10.22679
G1 X124.767 Y103.791 E10.26134
G1 X124.164 Y104.041 E10.29588
G1 X123.646 Y104.439 E10.33043
G1 X123.249 Y104.956 E10.36498
G1 X122.999 Y105.559 E10.39953
G1 X122.914 Y106.207 E10.43407
G1 X122.999 Y106.854 E10.46862
G1 X123.249 Y107.457 E10.50317
G1 X123.646 Y107.975 E10.53772
G1 X124.164 Y108.372 E10.57227
G1 X124.767 Y108.622 E10.60681
G1 X124.879 Y108.636 E10.61281
G1 X75.149 Y108.636 E13.24500
G1 X75.261 Y108.622 E13.25100
G1 X75.864 Y108.372 E13.28554
G1 X76.382 Y107.975 E13.32009
G1 X76.780 Y107.457 E13.35464
G1 X77.029 Y106.854 E13.38919
G1 X77.115 Y106.207 E13.42374
G1 X77.029 Y105.559 E13.45828
G1 X76.780 Y104.956 E13.49283
G1 X76.382 Y104.439 E13.52738
G1 X75.864 Y104.041 E13.56193
G1 X75.312 Y103.813 E13.59356
G1 F1800.000 E11.59356
G92 E0
G1 X71.568 Y108.997 F9000.000
G1 F1800.000 E2.00000
G1 X71.568 Y91.003 F1800.000 E2.95242
G1 X128.432 Y91.003 E5.96223
G1 X128.432 Y108.997 E6.91466
G1 X71.623 Y108.997 E9.92155
G1 X71.207 Y109.358 F9000.000
G1 X71.207 Y90.642 F1800.000 E10.91215
G1 X128.793 Y90.642 E13.96013
G1 X128.793 Y109.358 E14.95073
G1 X71.262 Y109.358 E17.99580
G1 F1800.000 E15.99580
G92 E0
G1 X127.449 Y107.980 F9000.000
G1 F1800.000 E2.00000
G1 X127.815 Y108.345 F1800.000 E2.04332
G1 F1800.000 E0.04332
G92 E0
G1 X124.339 Y96.074 F9000.000
G1 F1800.000 E2.00000
G1 X127.815 Y99.550 F1800.000 E2.26156
G1 X127.815 Y99.038 E2.28878
G1 X125.003 Y96.226 E2.50036
G1 X125.527 Y96.238 E2.52823
G1 X127.815 Y98.526 E2.70040
G1 X127.815 Y98.015 E2.72763
G1 X125.979 Y96.179 E2.86578
G1 X126.355 Y96.043 E2.88706
G1 X127.815 Y97.503 E2.99689
G1 X127.815 Y96.991 E3.02412
G1 X126.717 Y95.893 E3.10672
G1 X127.012 Y95.676 E3.12619
G1 X127.815 Y96.480 E3.18664
G1 X127.815 Y95.968 E3.21386
G1 X127.301 Y95.454 E3.25252
G1 X127.531 Y95.173 E3.27187
G1 X127.815 Y95.456 E3.29320
G1 F1800.000 E1.29320
G92 E0
G1 X123.245 Y91.909 F9000.000
G1 F1800.000 E2.00000
G1 X122.956 Y91.620 F1800.000 E2.02174
G1 X122.444 Y91.620 E2.04897
G1 X123.027 Y92.204 E2.09288
G1 X122.878 Y92.566 E2.11372
G1 X121.932 Y91.620 E2.18485
G1 X121.420 Y91.620 E2.21208
G1 X122.742 Y92.942 E2.31153
G1 X122.683 Y93.394 E2.33579
G1 X120.909 Y91.620 E2.46927
G1 X120.397 Y91.620 E2.49650
G1 X122.695 Y93.918 E2.66938
G1 X122.847 Y94.582 E2.70564
G1 X119.885 Y91.620 E2.92849
G1 X119.374 Y91.620 E2.95572
G1 X127.815 Y100.062 E3.59086
G1 X127.815 Y100.573 E3.61808
G1 X118.862 Y91.620 E4.29173
G1 X118.350 Y91.620 E4.31895
G1 X127.815 Y101.085 E5.03109
G1 X127.815 Y101.597 E5.05832
G1 X117.838 Y91.620 E5.80896
G1 X117.327 Y91.620 E5.83619
G1 X127.815 Y102.108 E6.62533
G1 X127.815 Y102.620 E6.65256
G1 X116.815 Y91.620 E7.48021
G1 X116.303 Y91.620 E7.50743
G1 X127.815 Y103.132 E8.37358
G1 X127.815 Y103.643 E8.40081
G1 X115.792 Y91.620 E9.30546
G1 X115.280 Y91.620 E9.33268
G1 X127.815 Y104.155 E10.27583
G1 X127.070 Y103.922 E10.31733
G1 X114.768 Y91.620 E11.24297
G1 X114.257 Y91.620 E11.27020
G1 X126.168 Y103.532 E12.16646
G1 X125.579 Y103.454 E12.19809
G1 X113.745 Y91.620 E13.08852
G1 X113.233 Y91.620 E13.11574
G1 X125.113 Y103.500 E14.00959
G1 X124.684 Y103.583 E14.03283
G1 X112.721 Y91.620 E14.93290
G1 X112.210 Y91.620 E14.96012
G1 X124.322 Y103.732 E15.87147
G1 X123.985 Y103.908 E15.89166
G1 X111.698 Y91.620 E16.81618
G1 X111.186 Y91.620 E16.84341
G1 X123.696 Y104.130 E17.78464
G1 X123.426 Y104.372 E17.80392
G1 X110.675 Y91.620 E18.76339
G1 X110.163 Y91.620 E18.79062
G1 X123.204 Y104.662 E19.77187
G1 X123.000 Y104.969 E19.79151
G1 X109.651 Y91.620 E20.79592
G1 X109.140 Y91.620 E20.82314
G1 X122.850 Y105.331 E21.85477
G1 X122.731 Y105.724 E21.87661
G1 X108.628 Y91.620 E22.93779
G1 X108.116 Y91.620 E22.96501
G1 X122.672 Y106.176 E24.06021
G1 X122.709 Y106.724 E24.08946
G1 X107.604 Y91.620 E25.22593
G1 X107.093 Y91.620 E25.25316
G1 X122.913 Y107.440 E26.44347
G1 X123.341 Y108.380 E26.49841
G1 X106.581 Y91.620 E27.75943
G1 X106.069 Y91.620 E27.78665
G1 X122.829 Y108.380 E29.04767
G1 X122.317 Y108.380 E29.07490
G1 X105.558 Y91.620 E30.33592
G1 X105.046 Y91.620 E30.36314
G1 X121.805 Y108.380 E31.62416
G1 X121.294 Y108.380 E31.65138
G1 X104.534 Y91.620 E32.91240
G1 X104.023 Y91.620 E32.93963
G1 X120.782 Y108.380 E34.20065
G1 X120.270 Y108.380 E34.22787
G1 X103.511 Y91.620 E35.48889
G1 X102.999 Y91.620 E35.51612
G1 X119.759 Y108.380 E36.77714
G1 X119.247 Y108.380 E36.80436
G1 X102.487 Y91.620 E38.06538
G1 X101.976 Y91.620 E38.09260
G1 X118.735 Y108.380 E39.35362
G1 X118.224 Y108.380 E39.38085
G1 X101.464 Y91.620 E40.64187
G1 X100.952 Y91.620 E40.66909
