; generated by Slic3r 0.7.1 on 2012-05-14 at 20:27:20

; layer_height = .35
; perimeters = 1
; solid_layers = 1
; fill_density = .25
; nozzle_diameter = .35
; filament_diameter = 1.75
; extrusion_multiplier = 1
; perimeter_speed = 30
; infill_speed = 60
; travel_speed = 150
; extrusion_width_ratio = 0
; scale = 1
; single wall width = 0.37mm

M190 S80 ; set bed temperature
M104 S185 ; set temperature

M109 S185 ; wait for temperature to be reached
G90 ; use absolute coordinates
G21 ; set units to millimeters
G92 E0 ; reset extrusion distance
M82 ; use absolute distances for extrusion
G1 Z0.350 F9000.000
G1 X83.190 Y90.786
G1 F1800.000 E1.00000
G1 X83.660 Y90.336 F1800.000 E1.03444
G1 X84.400 Y89.766 E1.08388
G1 X84.670 Y89.586 E1.10106
G1 X85.240 Y89.276 E1.13540
G1 X85.800 Y89.026 E1.16786
G1 X86.440 Y88.796 E1.20386
G1 X86.770 Y88.706 E1.22196
G1 X87.100 Y88.636 E1.23982
G1 X87.740 Y88.546 E1.27402
G1 X88.580 Y88.486 E1.31860
G1 X111.410 Y88.486 E2.52698
G1 X112.250 Y88.546 E2.57155
G1 X112.890 Y88.636 E2.60576
G1 X113.220 Y88.706 E2.62362
G1 X113.550 Y88.796 E2.64172
G1 X114.190 Y89.026 E2.67772
G1 X114.750 Y89.276 E2.71018
G1 X115.320 Y89.586 E2.74452
G1 X116.330 Y90.336 E2.81111
G1 X116.800 Y90.786 E2.84555
G1 X117.020 Y91.026 E2.86278
G1 X117.590 Y91.766 E2.91222
G1 X117.770 Y92.036 E2.92940
G1 X118.080 Y92.606 E2.96374
G1 X118.330 Y93.166 E2.99620
G1 X118.560 Y93.806 E3.03220
G1 X118.650 Y94.136 E3.05030
G1 X118.720 Y94.466 E3.06816
G1 X118.810 Y95.106 E3.10237
G1 X118.870 Y95.946 E3.14694
G1 X118.870 Y105.406 E3.64765
G1 X118.820 Y105.936 E3.67583
G1 X118.740 Y106.456 E3.70368
G1 X118.530 Y107.216 E3.74541
G1 X118.440 Y107.456 E3.75898
G1 X118.100 Y108.176 E3.80112
G1 X117.690 Y108.846 E3.84270
G1 X117.530 Y109.056 E3.85667
G1 X117.190 Y109.456 E3.88446
G1 X117.010 Y109.646 E3.89831
G1 X116.820 Y109.826 E3.91217
G1 X116.420 Y110.166 E3.93995
G1 X116.210 Y110.326 E3.95393
G1 X115.540 Y110.736 E3.99550
G1 X114.820 Y111.076 E4.03765
G1 X114.580 Y111.166 E4.05121
G1 X113.820 Y111.376 E4.09295
G1 X113.040 Y111.486 E4.13464
G1 X112.770 Y111.506 E4.14897
G1 X87.220 Y111.506 E5.50132
G1 X86.690 Y111.456 E5.52950
G1 X86.170 Y111.376 E5.55735
G1 X85.410 Y111.166 E5.59908
G1 X85.170 Y111.076 E5.61265
G1 X84.450 Y110.736 E5.65479
G1 X83.780 Y110.326 E5.69637
G1 X83.570 Y110.166 E5.71034
G1 X83.170 Y109.826 E5.73813
G1 X82.980 Y109.646 E5.75198
G1 X82.800 Y109.456 E5.76583
G1 X82.460 Y109.056 E5.79362
G1 X82.300 Y108.846 E5.80760
G1 X81.890 Y108.176 E5.84917
G1 X81.550 Y107.456 E5.89132
G1 X81.460 Y107.216 E5.90488
G1 X81.250 Y106.456 E5.94662
G1 X81.140 Y105.676 E5.98831
G1 X81.120 Y105.406 E6.00264
G1 X81.120 Y95.946 E6.50335
G1 X81.180 Y95.106 E6.54793
G1 X81.270 Y94.466 E6.58214
G1 X81.340 Y94.136 E6.59999
G1 X81.430 Y93.806 E6.61810
G1 X81.660 Y93.166 E6.65409
G1 X81.910 Y92.606 E6.68655
G1 X82.220 Y92.036 E6.72090
G1 X82.970 Y91.026 E6.78748
G1 X83.153 Y90.827 E6.80180
G1 X83.450 Y91.036 F9000.000
G1 X83.890 Y90.616 F1800.000 E6.83399
G1 X84.350 Y90.246 E6.86524
G1 X84.860 Y89.896 E6.89798
G1 X85.130 Y89.736 E6.91459
G1 X85.680 Y89.466 E6.94702
G1 X86.240 Y89.246 E6.97887
G1 X86.860 Y89.056 E7.01319
G1 X87.170 Y88.986 E7.03001
G1 X87.790 Y88.896 E7.06317
G1 X88.580 Y88.846 E7.10507
G1 X111.410 Y88.846 E8.31345
G1 X112.200 Y88.896 E8.35535
G1 X112.820 Y88.986 E8.38851
G1 X113.130 Y89.056 E8.40533
G1 X113.750 Y89.246 E8.43965
G1 X114.310 Y89.466 E8.47150
G1 X114.860 Y89.736 E8.50393
G1 X115.390 Y90.066 E8.53698
G1 X115.860 Y90.416 E8.56799
G1 X116.320 Y90.816 E8.60026
G1 X116.740 Y91.256 E8.63245
G1 X117.110 Y91.716 E8.66370
G1 X117.460 Y92.226 E8.69644
G1 X117.620 Y92.496 E8.71305
G1 X117.890 Y93.046 E8.74548
G1 X118.110 Y93.606 E8.77733
G1 X118.300 Y94.226 E8.81165
G1 X118.370 Y94.536 E8.82847
G1 X118.460 Y95.156 E8.86163
G1 X118.510 Y95.946 E8.90353
G1 X118.490 Y105.656 E9.41748
G1 X118.380 Y106.406 E9.45760
G1 X118.250 Y106.906 E9.48494
G1 X118.080 Y107.386 E9.51190
G1 X117.870 Y107.846 E9.53866
G1 X117.750 Y108.076 E9.55239
G1 X117.620 Y108.296 E9.56592
G1 X117.180 Y108.916 E9.60616
G1 X116.840 Y109.296 E9.63315
G1 X116.660 Y109.476 E9.64662
G1 X116.280 Y109.816 E9.67361
G1 X115.660 Y110.256 E9.71385
G1 X115.440 Y110.386 E9.72737
G1 X114.980 Y110.616 E9.75460
G1 X114.510 Y110.806 E9.78143
G1 X114.020 Y110.956 E9.80855
G1 X113.770 Y111.016 E9.82216
G1 X113.020 Y111.126 E9.86228
G1 X112.510 Y111.146 E9.88930
G1 X86.970 Y111.126 E11.24112
G1 X86.220 Y111.016 E11.28124
G1 X85.720 Y110.886 E11.30859
G1 X85.240 Y110.716 E11.33554
G1 X84.780 Y110.506 E11.36230
G1 X84.550 Y110.386 E11.37603
G1 X84.330 Y110.256 E11.38956
G1 X83.710 Y109.816 E11.42980
G1 X83.330 Y109.476 E11.45679
G1 X83.150 Y109.296 E11.47026
G1 X82.810 Y108.916 E11.49725
G1 X82.370 Y108.296 E11.53749
G1 X82.240 Y108.076 E11.55102
G1 X82.010 Y107.616 E11.57824
G1 X81.820 Y107.146 E11.60507
G1 X81.670 Y106.656 E11.63220
G1 X81.610 Y106.406 E11.64580
G1 X81.500 Y105.656 E11.68593
G1 X81.480 Y95.946 E12.19987
G1 X81.530 Y95.156 E12.24177
G1 X81.620 Y94.536 E12.27493
G1 X81.690 Y94.226 E12.29175
G1 X81.880 Y93.606 E12.32607
G1 X82.100 Y93.046 E12.35792
G1 X82.370 Y92.496 E12.39035
G1 X82.700 Y91.966 E12.42340
G1 X83.050 Y91.496 E12.45441
G1 X83.413 Y91.077 E12.48376
G1 F1800.000 E11.48376
G92 E0
G1 X95.272 Y95.625 F9000.000
G1 F1800.000 E1.00000
G1 X99.871 Y95.625 F1800.000 E1.24339
G1 X99.871 Y104.756 E1.72666
G1 X98.271 Y104.756 E1.81133
G1 X98.271 Y100.565 E2.03316
G1 X96.780 Y100.565 E2.11209
G1 X96.780 Y104.756 E2.33391
G1 X95.272 Y104.756 E2.41371
G1 X95.272 Y95.680 E2.89406
G1 F1800.000 E1.89406
G92 E0
G1 X100.352 Y95.625 F9000.000
G1 F1800.000 E1.00000
G1 X101.948 Y95.625 F1800.000 E1.08453
G1 X101.948 Y98.707 E1.24764
G1 X104.355 Y95.625 E1.45462
G1 X106.034 Y95.625 E1.54344
G1 X106.090 Y95.741 E1.55027
G1 X102.558 Y100.263 E1.85397
G1 X106.081 Y104.637 E2.15124
G1 X106.025 Y104.756 E2.15820
G1 X104.393 Y104.756 E2.24456
G1 X101.948 Y101.721 E2.45082
G1 X101.948 Y104.756 E2.61146
G1 X100.352 Y104.756 E2.69599
G1 X100.352 Y95.680 E3.17634
G1 F1800.000 E2.17634
G92 E0
G1 X106.275 Y95.625 F9000.000
G1 F1800.000 E1.00000
G1 X111.868 Y95.625 F1800.000 E1.29603
G1 X111.868 Y97.003 E1.36895
G1 X107.932 Y97.003 E1.57729
G1 X107.932 Y99.301 E1.69892
G1 X110.725 Y99.301 E1.84676
G1 X110.725 Y100.523 E1.91145
G1 X107.960 Y100.523 E2.05780
G1 X107.960 Y103.285 E2.20400
G1 X111.868 Y103.285 E2.41084
G1 X111.868 Y104.756 E2.48868
G1 X106.275 Y104.756 E2.78471
G1 X106.275 Y95.680 E3.26507
G1 F1800.000 E2.26507
G92 E0
G1 X94.729 Y95.715 F9000.000
G1 F1800.000 E1.00000
G1 X94.729 Y104.756 F1800.000 E1.47851
G1 X93.212 Y104.756 E1.55882
G1 X93.212 Y99.023 E1.86227
G1 X91.451 Y101.665 E2.03033
G1 X89.770 Y98.638 E2.21361
G1 X89.770 Y104.762 E2.53778
G1 X88.361 Y104.713 E2.61238
G1 X88.361 Y95.677 E3.09065
G1 X89.692 Y95.677 E3.16110
G1 X91.580 Y98.962 E3.36163
G1 X93.265 Y95.715 E3.55524
G1 X94.674 Y95.715 E3.62985
G1 F1800.000 E2.62985
G92 E0
G1 X88.582 Y94.850 F9000.000
G1 F1800.000 E1.00000
G1 X111.418 Y94.850 F1800.000 E2.20870
G1 X111.711 Y94.888 E2.22433
G1 X111.972 Y94.997 E2.23931
G1 X112.197 Y95.169 E2.25430
G1 X112.369 Y95.394 E2.26929
G1 X112.478 Y95.655 E2.28428
G1 X112.516 Y95.948 E2.29990
G1 X112.516 Y105.150 E2.78697
G1 X87.484 Y105.150 E4.11193
G1 X87.484 Y95.948 E4.59900
G1 X87.522 Y95.655 E4.61463
G1 X87.631 Y95.394 E4.62962
G1 X87.803 Y95.169 E4.64461
G1 X88.028 Y94.997 E4.65959
G1 X88.289 Y94.888 E4.67458
G1 X88.527 Y94.857 E4.68729
G1 F1800.000 E3.68729
G92 E0
G1 X96.841 Y96.858 F9000.000
G1 F1800.000 E1.00000
G1 X98.304 Y96.858 F1800.000 E1.07744
G1 X98.304 Y99.309 E1.20715
G1 X96.841 Y99.309 E1.28460
G1 X96.841 Y96.913 E1.41139
G1 F1800.000 E0.41139
G92 E0
G1 X89.641 Y98.141 F9000.000
G1 F1800.000 E1.00000
G1 X89.641 Y98.141 F1800.000 E1.00000
G1 F1800.000 E0.00000
G92 E0
G1 X97.663 Y100.821 F9000.000
G1 F1800.000 E1.00000
G1 X98.014 Y101.173 F3600.000 E1.02898
G1 X98.014 Y101.716 E1.06068
G1 X97.120 Y100.821 E1.13448
G1 X97.037 Y101.282 E1.16177
G1 X98.014 Y102.260 E1.24243
G1 X98.014 Y102.803 E1.27413
G1 X97.037 Y101.825 E1.35478
G1 X97.037 Y102.369 E1.38648
G1 X98.014 Y103.346 E1.46714
G1 X98.014 Y103.890 E1.49884
G1 X97.037 Y102.912 E1.57950
G1 X97.037 Y103.455 E1.61119
G1 X98.014 Y104.433 E1.69185
G1 X97.931 Y104.894 E1.71914
G1 X97.037 Y103.999 E1.79294
G1 X97.037 Y104.542 E1.82464
G1 X97.388 Y104.894 E1.85362
G1 F1800.000 E0.85362
G92 E0
G1 X102.563 Y104.894 F9000.000
G1 F1800.000 E1.00000
G1 X102.205 Y104.536 F3600.000 E1.03005
G1 X102.205 Y103.986 E1.06270
G1 X103.113 Y104.894 E1.13892
G1 X103.663 Y104.894 E1.17157
G1 X102.205 Y103.436 E1.29397
G1 X102.205 Y102.886 E1.32663
G1 X103.434 Y104.115 E1.42984
G1 X104.869 Y102.583 F9000.000
G1 X106.018 Y103.731 F3600.000 E1.52094
G1 X106.018 Y103.202 F9000.000
G1 X102.940 Y100.124 F3600.000 E1.76505
G1 X103.172 Y99.826 F9000.000
G1 X106.018 Y102.672 F3600.000 E1.99075
G1 X106.018 Y102.143 F9000.000
G1 X103.404 Y99.529 F3600.000 E2.19804
G1 X103.636 Y99.232 E2.21919
G1 X106.018 Y101.614 E2.40807
G1 X106.018 Y101.084 E2.43776
G1 X103.869 Y98.934 E2.60822
G1 X104.101 Y98.637 E2.62938
G1 X106.018 Y100.555 E2.78143
G1 X106.018 Y100.025 E2.81112
G1 X104.333 Y98.340 E2.94476
G1 X104.565 Y98.043 E2.96591
G1 X106.018 Y99.496 E3.08114
G1 X106.018 Y98.966 E3.11083
G1 X104.797 Y97.745 E3.20764
G1 X105.029 Y97.448 E3.22879
G1 X106.018 Y98.437 E3.30720
G1 X106.018 Y97.907 E3.33689
G1 X105.262 Y97.151 E3.39688
G1 X105.494 Y96.853 E3.41803
G1 X106.018 Y97.378 E3.45961
G1 X106.018 Y96.848 E3.48930
G1 X105.726 Y96.556 E3.51247
G1 X108.188 Y97.289 F9000.000
G1 X109.943 Y99.044 F3600.000 E3.65452
G1 X110.480 Y99.044 F9000.000
G1 X108.695 Y97.260 F3600.000 E3.79897
G1 X109.232 Y97.260 F9000.000
G1 X111.016 Y99.044 F3600.000 E3.94342
G1 X110.981 Y99.009 F9000.000
G1 X112.260 Y100.287 F3600.000 E4.04688
G1 X112.260 Y100.824 E4.07760
G1 X110.981 Y99.546 E4.18106
G1 X110.981 Y100.082 E4.21177
G1 X112.260 Y101.361 E4.31523
G1 X112.260 Y101.897 E4.34594
G1 X110.981 Y100.619 E4.44940
G1 X110.605 Y100.780 F9000.000
G1 X112.260 Y102.434 F3600.000 E4.58330
G1 X112.260 Y102.970 E4.61401
G1 X110.069 Y100.780 E4.79134
G1 X109.532 Y100.780 E4.82205
G1 X111.781 Y103.028 E5.00407
G1 X111.244 Y103.028 E5.03479
G1 X108.995 Y100.780 E5.21681
G1 X108.459 Y100.780 E5.24752
G1 X110.708 Y103.028 E5.42954
G1 X110.171 Y103.028 E5.46026
G1 X108.216 Y101.074 E5.61845
G1 X108.216 Y101.611 E5.64917
G1 X109.634 Y103.028 E5.76393
G1 X109.098 Y103.028 E5.79465
G1 X108.216 Y102.147 E5.86597
G1 X108.216 Y102.684 E5.89668
G1 X108.561 Y103.028 E5.92457
G1 X108.870 Y99.044 F9000.000
G1 X108.188 Y98.362 F3600.000 E5.97975
G1 X108.188 Y97.826 F9000.000
G1 X109.407 Y99.044 F3600.000 E6.07836
G1 X109.768 Y97.260 F9000.000
G1 X112.260 Y99.751 F3600.000 E6.28000
G1 X112.260 Y99.214 E6.31071
G1 X110.305 Y97.260 E6.46891
G1 X110.842 Y97.260 E6.49963
G1 X112.260 Y98.677 E6.61439
G1 X112.260 Y98.141 E6.64510
G1 X111.378 Y97.260 E6.71643
G1 X111.915 Y97.260 E6.74714
G1 X112.260 Y97.604 E6.77503
G1 F1800.000 E5.77503
G92 E0
G1 X97.694 Y97.115 F9000.000
G1 F1800.000 E1.00000
G1 X98.047 Y97.468 F3600.000 E1.02927
G1 X98.047 Y98.013 E1.06123
G1 X97.149 Y97.115 E1.13571
G1 X97.097 Y97.608 E1.16481
G1 X98.047 Y98.558 E1.24355
G1 X97.996 Y99.052 E1.27265
G1 X97.097 Y98.154 E1.34712
G1 X97.097 Y98.699 E1.37908
G1 X97.450 Y99.052 E1.40835
G1 F1800.000 E0.40835
G92 E0
G1 X102.205 Y97.297 F9000.000
G1 F1800.000 E1.00000
G1 X102.526 Y97.619 F3600.000 E1.02444
G1 X102.752 Y97.329 F9000.000
G1 X102.205 Y96.782 F3600.000 E1.06608
G1 X102.205 Y96.266 F9000.000
G1 X102.978 Y97.040 F3600.000 E1.12493
G1 X103.204 Y96.750 F9000.000
G1 X102.205 Y95.751 F3600.000 E1.20098
G1 X102.338 Y95.369 F9000.000
G1 X102.076 Y95.106 F3600.000 E1.22094
G1 X101.823 Y95.369 E1.24056
G1 X101.561 Y95.106 E1.26051
G1 X101.307 Y95.369 E1.28013
G1 X101.045 Y95.106 E1.30008
G1 X100.792 Y95.369 E1.31971
G1 X100.530 Y95.106 E1.33966
G1 X100.276 Y95.369 E1.35928
G1 X100.014 Y95.106 E1.37923
G1 X99.761 Y95.369 E1.39886
G1 X99.499 Y95.106 E1.41881
G1 X99.245 Y95.369 E1.43843
G1 X98.983 Y95.106 E1.45838
G1 X98.730 Y95.369 E1.47801
G1 X98.468 Y95.106 E1.49796
G1 X98.214 Y95.369 E1.51758
G1 X97.952 Y95.106 E1.53753
G1 X97.699 Y95.369 E1.55715
G1 X97.437 Y95.106 E1.57711
G1 X97.183 Y95.369 E1.59673
G1 X96.921 Y95.106 E1.61668
G1 X96.668 Y95.369 E1.63630
G1 X96.405 Y95.106 E1.65626
G1 X96.152 Y95.369 E1.67588
G1 X95.890 Y95.106 E1.69583
G1 X95.637 Y95.369 E1.71545
G1 X95.374 Y95.106 E1.73541
G1 X95.121 Y95.369 E1.75503
G1 X94.859 Y95.106 E1.77498
G1 X94.695 Y95.458 E1.79587
G1 X94.343 Y95.106 E1.82267
G1 X94.180 Y95.458 E1.84356
G1 X93.828 Y95.106 E1.87036
G1 X93.664 Y95.458 E1.89125
G1 X93.312 Y95.106 E1.91804
G1 X92.797 Y95.106 E1.94579
G1 X93.149 Y95.459 E1.97261
G1 X92.973 Y95.798 E1.99319
G1 X92.281 Y95.106 E2.04585
G1 X91.766 Y95.106 E2.07359
G1 X92.797 Y96.138 E2.15208
G1 X92.621 Y96.477 E2.17266
G1 X91.250 Y95.106 E2.27699
G1 X90.735 Y95.106 E2.30473
G1 X92.445 Y96.816 E2.43489
G1 X92.269 Y97.156 E2.45547
G1 X90.219 Y95.106 E2.61146
G1 X90.476 Y96.394 F9000.000
G1 X91.917 Y97.835 F3600.000 E2.72111
G1 X92.093 Y97.495 F9000.000
G1 X89.704 Y95.106 F3600.000 E2.90293
G1 X89.503 Y95.421 E2.92302
G1 X89.188 Y95.106 E2.94694
G1 X88.987 Y95.421 E2.96702
G1 X88.673 Y95.106 E2.99094
G1 X88.214 Y95.163 E3.01583
G1 X88.472 Y95.421 E3.03545
G1 X91.172 Y97.606 F9000.000
G1 X91.740 Y98.174 F3600.000 E3.07870
G1 F1800.000 E2.07870
G92 E0
G1 X102.205 Y95.235 F9000.000
G1 F1800.000 E1.00000
G1 X103.430 Y96.461 F3600.000 E1.09326
G1 X103.656 Y96.171 F9000.000
G1 X102.592 Y95.106 F3600.000 E1.17431
G1 X103.107 Y95.106 E1.20206
G1 X103.883 Y95.882 E1.26107
G1 X104.109 Y95.592 E1.28084
G1 X103.623 Y95.106 E1.31783
G1 X104.138 Y95.106 E1.34557
G1 X104.400 Y95.369 E1.36552
G1 X104.654 Y95.106 E1.38515
G1 X104.916 Y95.369 E1.40510
G1 X105.169 Y95.106 E1.42472
G1 X105.431 Y95.369 E1.44467
G1 X105.685 Y95.106 E1.46430
G1 X105.947 Y95.369 E1.48425
G1 X106.200 Y95.106 E1.50387
G1 X106.462 Y95.369 E1.52382
G1 X106.716 Y95.106 E1.54344
G1 X106.978 Y95.369 E1.56340
G1 X107.231 Y95.106 E1.58302
G1 X107.493 Y95.369 E1.60297
G1 X107.747 Y95.106 E1.62259
G1 X108.009 Y95.369 E1.64255
G1 X108.262 Y95.106 E1.66217
G1 X108.524 Y95.369 E1.68212
G1 X108.778 Y95.106 E1.70174
G1 X109.040 Y95.369 E1.72170
G1 X109.293 Y95.106 E1.74132
G1 X109.555 Y95.369 E1.76127
G1 X109.809 Y95.106 E1.78089
G1 X110.071 Y95.369 E1.80085
G1 X110.324 Y95.106 E1.82047
G1 X110.587 Y95.369 E1.84042
G1 X110.840 Y95.106 E1.86004
G1 X111.102 Y95.369 E1.88000
G1 X111.365 Y95.116 E1.89962
G1 X111.618 Y95.369 E1.91882
G1 F1800.000 E0.91882
G92 E0
G1 X92.956 Y100.504 F9000.000
G1 F1800.000 E1.00000
G1 X92.673 Y100.221 F3600.000 E1.02283
G1 X92.459 Y100.543 E1.04497
G1 X92.956 Y101.040 E1.08516
G1 X92.956 Y101.577 E1.11586
G1 X92.244 Y100.865 E1.17342
G1 X92.030 Y101.187 E1.19555
G1 X92.956 Y102.113 E1.27047
G1 X92.956 Y102.650 E1.30117
G1 X91.815 Y101.509 E1.39345
G1 X91.601 Y101.831 E1.41559
G1 X92.956 Y103.186 E1.52523
G1 X92.956 Y103.723 E1.55593
G1 X91.386 Y102.153 E1.68294
G1 X91.320 Y102.087 F9000.000
G1 X90.026 Y100.793 F3600.000 E1.78757
G1 X90.026 Y101.330 E1.81827
G1 X92.956 Y104.259 E2.05529
G1 X92.956 Y104.796 E2.08598
G1 X90.026 Y101.867 E2.32300
G1 X90.026 Y102.403 E2.35370
G1 X92.517 Y104.894 E2.55522
G1 X91.980 Y104.894 E2.58592
G1 X90.026 Y102.940 E2.74402
G1 X90.026 Y103.476 E2.77472
G1 X91.444 Y104.894 E2.88942
G1 X90.907 Y104.894 E2.92011
G1 X90.026 Y104.013 E2.99140
G1 X90.026 Y104.549 E3.02209
