; generated by Slic3r 0.7.1 on 2012-05-03 at 16:00:17

; layer_height = .35
; perimeters = 3
; solid_layers = 3
; fill_density = .42
; nozzle_diameter = .35
; filament_diameter = 1.75
; extrusion_multiplier = 1
; perimeter_speed = 30
; infill_speed = 30
; travel_speed = 150
; extrusion_width_ratio = 0
; scale = 1
; single wall width = 0.37mm

M190 S80 ; set bed temperature
M104 S160 ; set temperature

M109 S160 ; wait for temperature to be reached
G90 ; use absolute coordinates
G21 ; set units to millimeters
G92 E0 ; reset extrusion distance
M82 ; use absolute distances for extrusion
G1 Z0.350 F9000.000
G1 X-12.418 Y-11.328
G1 F1800.000 E1.00000
G1 X-11.328 Y-12.418 F1800.000 E1.08159
G1 X-10.688 Y-12.978 E1.12660
G1 X-9.448 Y-13.908 E1.20864
G1 X-8.728 Y-14.368 E1.25387
G1 X-7.378 Y-15.108 E1.33535
G1 X-6.558 Y-15.488 E1.38319
G1 X-5.108 Y-16.018 E1.46490
G1 X-4.338 Y-16.238 E1.50729
G1 X-2.838 Y-16.568 E1.58858
G1 X-1.978 Y-16.688 E1.63454
G1 X-0.438 Y-16.798 E1.71626
G1 X0.422 Y-16.798 E1.76178
G1 X1.962 Y-16.688 E1.84350
G1 X2.812 Y-16.568 E1.88894
G1 X4.322 Y-16.238 E1.97075
G1 X5.102 Y-16.018 E2.01364
G1 X6.552 Y-15.488 E2.09536
G1 X7.372 Y-15.108 E2.14319
G1 X8.722 Y-14.368 E2.22468
G1 X9.442 Y-13.908 E2.26990
G1 X10.682 Y-12.978 E2.35194
G1 X11.322 Y-12.418 E2.39695
G1 X12.412 Y-11.328 E2.47854
G1 X12.992 Y-10.668 E2.52505
G1 X13.912 Y-9.428 E2.60678
G1 X14.352 Y-8.728 E2.65054
G1 X15.092 Y-7.378 E2.73202
G1 X15.452 Y-6.588 E2.77797
G1 X15.992 Y-5.138 E2.85987
G1 X16.232 Y-4.338 E2.90408
G1 X16.562 Y-2.838 E2.98537
G1 X16.682 Y-1.978 E3.03133
G1 X16.792 Y-0.438 E3.11305
G1 X16.792 Y0.422 E3.15857
G1 X16.682 Y1.962 E3.24029
G1 X16.562 Y2.812 E3.28573
G1 X16.232 Y4.322 E3.36754
G1 X15.992 Y5.132 E3.41225
G1 X15.452 Y6.582 E3.49415
G1 X15.092 Y7.372 E3.54010
G1 X14.352 Y8.722 E3.62159
G1 X13.912 Y9.422 E3.66535
G1 X12.992 Y10.662 E3.74707
G1 X12.412 Y11.322 E3.79358
G1 X11.322 Y12.412 E3.87517
G1 X10.662 Y12.992 E3.92168
G1 X9.422 Y13.912 E4.00340
G1 X8.722 Y14.352 E4.04716
G1 X7.372 Y15.092 E4.12865
G1 X6.582 Y15.452 E4.17460
G1 X5.132 Y15.992 E4.25650
G1 X4.322 Y16.232 E4.30121
G1 X2.812 Y16.562 E4.38302
G1 X1.962 Y16.682 E4.42846
G1 X0.422 Y16.792 E4.51018
G1 X-0.438 Y16.792 E4.55570
G1 X-1.978 Y16.682 E4.63742
G1 X-2.838 Y16.562 E4.68338
G1 X-4.338 Y16.232 E4.76467
G1 X-5.138 Y15.992 E4.80888
G1 X-6.588 Y15.452 E4.89078
G1 X-7.378 Y15.092 E4.93673
G1 X-8.728 Y14.352 E5.01821
G1 X-9.428 Y13.912 E5.06197
G1 X-10.668 Y12.992 E5.14370
G1 X-11.328 Y12.412 E5.19020
G1 X-12.418 Y11.322 E5.27180
G1 X-12.978 Y10.682 E5.31681
G1 X-13.908 Y9.442 E5.39885
G1 X-14.368 Y8.722 E5.44407
G1 X-15.108 Y7.372 E5.52556
G1 X-15.488 Y6.552 E5.57339
G1 X-16.018 Y5.102 E5.65511
G1 X-16.238 Y4.322 E5.69800
G1 X-16.568 Y2.812 E5.77981
G1 X-16.688 Y1.962 E5.82525
G1 X-16.798 Y0.422 E5.90697
G1 X-16.798 Y-0.438 E5.95249
G1 X-16.688 Y-1.978 E6.03421
G1 X-16.568 Y-2.838 E6.08017
G1 X-16.238 Y-4.338 E6.16146
G1 X-16.018 Y-5.108 E6.20385
G1 X-15.488 Y-6.558 E6.28556
G1 X-15.108 Y-7.378 E6.33340
G1 X-14.368 Y-8.728 E6.41488
G1 X-13.908 Y-9.448 E6.46011
G1 X-12.978 Y-10.688 E6.54215
G1 X-12.454 Y-11.287 E6.58424
G1 F1800.000 E5.58424
G92 E0
G1 X4.416 Y-3.034 F9000.000
G1 F1800.000 E1.00000
G1 X7.484 Y-3.034 F1800.000 E1.16236
G1 X7.484 Y3.034 E1.48351
G1 X4.416 Y3.034 E1.64587
G1 X4.416 Y-2.979 E1.96411
G1 X4.056 Y-3.394 F9000.000
G1 X7.844 Y-3.394 F1800.000 E2.16464
G1 X7.844 Y3.394 E2.52397
G1 X4.056 Y3.394 E2.72451
G1 X4.056 Y-3.339 E3.08091
G1 X3.695 Y-3.755 F9000.000
G1 X8.205 Y-3.755 F1800.000 E3.31963
G1 X8.205 Y3.755 E3.71713
G1 X3.695 Y3.755 E3.95584
G1 X3.695 Y-3.700 E4.35043
G1 F1800.000 E3.35043
G92 E0
G1 X1.638 Y-2.254 F9000.000
G1 F1800.000 E1.00000
G1 X2.254 Y-1.638 F1800.000 E1.04614
G1 X2.650 Y-0.861 E1.09227
G1 X2.786 Y0.000 E1.13841
G1 X2.650 Y0.861 E1.18455
G1 X2.254 Y1.638 E1.23068
G1 X1.638 Y2.254 E1.27682
G1 X0.861 Y2.650 E1.32296
G1 X0.000 Y2.786 E1.36909
G1 X-0.861 Y2.650 E1.41523
G1 X-1.638 Y2.254 E1.46137
G1 X-2.254 Y1.638 E1.50751
G1 X-2.650 Y0.861 E1.55364
G1 X-2.786 Y0.000 E1.59978
G1 X-2.650 Y-0.861 E1.64592
G1 X-2.254 Y-1.638 E1.69205
G1 X-1.638 Y-2.254 E1.73819
G1 X-0.861 Y-2.650 E1.78433
G1 X0.000 Y-2.786 E1.83046
G1 X0.861 Y-2.650 E1.87660
G1 X1.588 Y-2.279 E1.91982
G1 X1.852 Y-2.549 F9000.000
G1 X2.549 Y-1.852 F1800.000 E1.97200
G1 X2.997 Y-0.974 E2.02419
G1 X3.151 Y0.000 E2.07637
G1 X2.997 Y0.974 E2.12855
G1 X2.549 Y1.852 E2.18074
G1 X1.852 Y2.549 E2.23292
G1 X0.974 Y2.997 E2.28510
G1 X0.000 Y3.151 E2.33729
G1 X-0.974 Y2.997 E2.38947
G1 X-1.852 Y2.549 E2.44165
G1 X-2.549 Y1.852 E2.49384
G1 X-2.997 Y0.974 E2.54602
G1 X-3.151 Y0.000 E2.59820
G1 X-2.997 Y-0.974 E2.65039
G1 X-2.549 Y-1.852 E2.70257
G1 X-1.852 Y-2.549 E2.75475
G1 X-0.974 Y-2.997 E2.80694
G1 X0.000 Y-3.151 E2.85912
G1 X0.974 Y-2.997 E2.91130
G1 X1.803 Y-2.574 E2.96057
G1 X2.067 Y-2.845 F9000.000
G1 X2.845 Y-2.067 F1800.000 E3.01880
G1 X3.344 Y-1.087 E3.07703
G1 X3.516 Y0.000 E3.13526
G1 X3.344 Y1.087 E3.19349
G1 X2.845 Y2.067 E3.25172
G1 X2.067 Y2.845 E3.30995
G1 X1.087 Y3.344 E3.36818
G1 X0.000 Y3.516 E3.42641
G1 X-1.087 Y3.344 E3.48464
G1 X-2.067 Y2.845 E3.54287
G1 X-2.845 Y2.067 E3.60110
G1 X-3.344 Y1.087 E3.65933
G1 X-3.516 Y0.000 E3.71756
G1 X-3.344 Y-1.087 E3.77579
G1 X-2.845 Y-2.067 E3.83402
G1 X-2.067 Y-2.845 E3.89224
G1 X-1.087 Y-3.344 E3.95047
G1 X0.000 Y-3.516 E4.00870
G1 X1.087 Y-3.344 E4.06693
G1 X2.018 Y-2.870 E4.12225
G1 F1800.000 E3.12225
G92 E0
G1 X5.456 Y-8.491 F9000.000
G1 F1800.000 E1.00000
G1 X6.609 Y-7.628 F1800.000 E1.07622
G1 X7.628 Y-6.609 E1.15244
G1 X8.491 Y-5.456 E1.22866
G1 X9.181 Y-4.193 E1.30488
G1 X9.684 Y-2.843 E1.38109
G1 X9.990 Y-1.436 E1.45732
G1 X10.093 Y0.000 E1.53353
G1 X9.990 Y1.436 E1.60975
G1 X9.684 Y2.843 E1.68597
G1 X9.181 Y4.193 E1.76219
G1 X8.491 Y5.456 E1.83841
G1 X7.628 Y6.609 E1.91463
G1 X6.609 Y7.628 E1.99085
G1 X5.456 Y8.491 E2.06707
G1 X4.193 Y9.181 E2.14329
G1 X2.843 Y9.684 E2.21950
G1 X1.436 Y9.990 E2.29572
G1 X0.000 Y10.093 E2.37194
G1 X-1.436 Y9.990 E2.44816
G1 X-2.843 Y9.684 E2.52438
G1 X-4.193 Y9.181 E2.60060
G1 X-5.456 Y8.491 E2.67682
G1 X-6.609 Y7.628 E2.75304
G1 X-7.628 Y6.609 E2.82926
G1 X-8.491 Y5.456 E2.90548
G1 X-9.181 Y4.193 E2.98170
G1 X-9.684 Y2.843 E3.05791
G1 X-9.990 Y1.436 E3.13413
G1 X-10.093 Y0.000 E3.21035
G1 X-9.990 Y-1.436 E3.28657
G1 X-9.684 Y-2.843 E3.36279
G1 X-9.181 Y-4.193 E3.43901
G1 X-8.491 Y-5.456 E3.51523
G1 X-7.628 Y-6.609 E3.59145
G1 X-6.609 Y-7.628 E3.66767
G1 X-5.456 Y-8.491 E3.74389
G1 X-4.193 Y-9.181 E3.82010
G1 X-2.843 Y-9.684 E3.89632
G1 X-1.436 Y-9.990 E3.97254
G1 X0.000 Y-10.093 E4.04876
G1 X1.436 Y-9.990 E4.12498
G1 X2.843 Y-9.684 E4.20120
G1 X4.193 Y-9.181 E4.27742
G1 X5.408 Y-8.517 E4.35072
G1 X5.652 Y-8.795 F9000.000
G1 X6.846 Y-7.901 F1800.000 E4.42967
G1 X7.901 Y-6.846 E4.50862
G1 X8.795 Y-5.652 E4.58757
G1 X9.510 Y-4.343 E4.66652
G1 X10.031 Y-2.945 E4.74546
G1 X10.348 Y-1.488 E4.82441
G1 X10.454 Y0.000 E4.90336
G1 X10.348 Y1.488 E4.98231
G1 X10.031 Y2.945 E5.06126
G1 X9.510 Y4.343 E5.14021
G1 X8.795 Y5.652 E5.21916
G1 X7.901 Y6.846 E5.29811
G1 X6.846 Y7.901 E5.37706
G1 X5.652 Y8.795 E5.45601
G1 X4.343 Y9.510 E5.53496
G1 X2.945 Y10.031 E5.61391
G1 X1.488 Y10.348 E5.69286
G1 X0.000 Y10.454 E5.77181
G1 X-1.488 Y10.348 E5.85076
G1 X-2.945 Y10.031 E5.92971
G1 X-4.343 Y9.510 E6.00865
G1 X-5.652 Y8.795 E6.08760
G1 X-6.846 Y7.901 E6.16655
G1 X-7.901 Y6.846 E6.24550
G1 X-8.795 Y5.652 E6.32445
G1 X-9.510 Y4.343 E6.40340
G1 X-10.031 Y2.945 E6.48235
G1 X-10.348 Y1.488 E6.56130
G1 X-10.454 Y0.000 E6.64025
G1 X-10.348 Y-1.488 E6.71920
G1 X-10.031 Y-2.945 E6.79815
G1 X-9.510 Y-4.343 E6.87710
G1 X-8.795 Y-5.652 E6.95605
G1 X-7.901 Y-6.846 E7.03500
G1 X-6.846 Y-7.901 E7.11395
G1 X-5.652 Y-8.795 E7.19290
G1 X-4.343 Y-9.510 E7.27185
G1 X-2.945 Y-10.031 E7.35079
G1 X-1.488 Y-10.348 E7.42974
G1 X0.000 Y-10.454 E7.50869
G1 X1.488 Y-10.348 E7.58764
G1 X2.945 Y-10.031 E7.66659
G1 X4.343 Y-9.510 E7.74554
G1 X5.604 Y-8.821 E7.82157
G1 X5.847 Y-9.099 F9000.000
G1 X7.083 Y-8.174 F1800.000 E7.90325
G1 X8.174 Y-7.083 E7.98493
G1 X9.099 Y-5.847 E8.06661
G1 X9.838 Y-4.493 E8.14829
G1 X10.378 Y-3.047 E8.22997
G1 X10.706 Y-1.539 E8.31165
G1 X10.816 Y0.000 E8.39333
G1 X10.706 Y1.539 E8.47501
G1 X10.378 Y3.047 E8.55669
G1 X9.838 Y4.493 E8.63837
G1 X9.099 Y5.847 E8.72005
G1 X8.174 Y7.083 E8.80173
G1 X7.083 Y8.174 E8.88341
G1 X5.847 Y9.099 E8.96509
G1 X4.493 Y9.838 E9.04677
G1 X3.047 Y10.378 E9.12845
G1 X1.539 Y10.706 E9.21013
G1 X0.000 Y10.816 E9.29181
G1 X-1.539 Y10.706 E9.37349
G1 X-3.047 Y10.378 E9.45517
G1 X-4.493 Y9.838 E9.53685
G1 X-5.847 Y9.099 E9.61853
G1 X-7.083 Y8.174 E9.70021
G1 X-8.174 Y7.083 E9.78189
G1 X-9.099 Y5.847 E9.86357
G1 X-9.838 Y4.493 E9.94525
G1 X-10.378 Y3.047 E10.02693
G1 X-10.706 Y1.539 E10.10861
G1 X-10.816 Y0.000 E10.19028
G1 X-10.706 Y-1.539 E10.27196
G1 X-10.378 Y-3.047 E10.35364
G1 X-9.838 Y-4.493 E10.43532
G1 X-9.099 Y-5.847 E10.51700
G1 X-8.174 Y-7.083 E10.59868
G1 X-7.083 Y-8.174 E10.68036
G1 X-5.847 Y-9.099 E10.76204
G1 X-4.493 Y-9.838 E10.84372
G1 X-3.047 Y-10.378 E10.92540
G1 X-1.539 Y-10.706 E11.00708
G1 X0.000 Y-10.816 E11.08876
G1 X1.539 Y-10.706 E11.17044
G1 X3.047 Y-10.378 E11.25212
G1 X4.493 Y-9.838 E11.33380
G1 X5.799 Y-9.125 E11.41256
G1 F1800.000 E10.41256
G92 E0
G1 X3.235 Y-9.218 F9000.000
G1 F1800.000 E1.00000
G1 X8.441 Y-4.012 F1800.000 E1.40028
G1 X8.462 Y-3.991 F9000.000
G1 X9.218 Y-3.235 F1800.000 E1.45844
G1 X9.481 Y-2.453 E1.50328
G1 X8.462 Y-3.473 E1.58165
G1 X8.462 Y-2.954 E1.60986
G1 X9.625 Y-1.790 E1.69932
G1 X9.745 Y-1.151 E1.73466
G1 X8.462 Y-2.435 E1.83335
G1 X8.462 Y-1.916 E1.86156
G1 X9.785 Y-0.592 E1.96332
G1 X9.825 Y-0.033 E1.99378
G1 X8.462 Y-1.397 E2.09861
G1 X8.462 Y-0.878 E2.12682
G1 X9.809 Y0.469 E2.23041
G1 X9.774 Y0.953 E2.25680
G1 X8.462 Y-0.359 E2.35772
G1 X8.462 Y0.160 E2.38593
G1 X9.740 Y1.438 E2.48418
G1 X9.653 Y1.870 E2.50815
G1 X8.462 Y0.678 E2.59975
G1 X8.462 Y1.197 E2.62796
G1 X9.560 Y2.296 E2.71243
G1 X9.468 Y2.722 E2.73614
G1 X8.462 Y1.716 E2.81349
G1 X8.462 Y2.235 E2.84170
G1 X9.341 Y3.114 E2.90928
G1 X9.200 Y3.492 E2.93121
G1 X8.462 Y2.754 E2.98795
G1 X8.462 Y3.273 E3.01616
G1 X9.059 Y3.870 E3.06207
G1 X8.918 Y4.248 E3.08400
G1 X8.462 Y3.792 E3.11908
G1 X8.163 Y4.012 F9000.000
G1 X8.723 Y4.572 F1800.000 E3.16217
G1 X8.540 Y4.908 E3.18296
G1 X7.644 Y4.012 E3.25186
G1 X7.125 Y4.012 E3.28007
G1 X8.357 Y5.243 E3.37477
G1 X8.149 Y5.554 E3.39510
G1 X6.606 Y4.012 E3.51370
G1 X6.087 Y4.012 E3.54190
G1 X7.927 Y5.851 E3.68332
G1 X7.704 Y6.148 E3.70347
G1 X5.568 Y4.012 E3.86769
G1 X5.049 Y4.012 E3.89590
G1 X7.482 Y6.444 E4.08294
G1 X7.227 Y6.708 E4.10289
G1 X4.531 Y4.012 E4.31018
G1 X4.012 Y4.012 E4.33839
G1 X6.967 Y6.967 E4.56563
G1 X6.708 Y7.227 E4.58558
G1 X3.493 Y4.012 E4.83277
G1 X3.438 Y3.957 F9000.000
G1 X2.347 Y2.866 F1800.000 E4.91664
G1 X2.059 Y3.097 E4.93671
G1 X6.444 Y7.482 E5.27389
G1 X6.148 Y7.704 E5.29404
G1 X1.715 Y3.272 E5.63483
G1 X1.371 Y3.447 E5.65580
G1 X5.851 Y7.927 E6.00020
G1 X5.554 Y8.149 E6.02035
G1 X1.007 Y3.601 E6.36995
G1 X0.559 Y3.672 E6.39460
G1 X5.243 Y8.357 E6.75474
G1 X4.908 Y8.540 E6.77553
G1 X0.111 Y3.743 E7.14430
G1 X-0.424 Y3.727 E7.17343
G1 X4.572 Y8.723 E7.55757
G1 X4.237 Y8.907 E7.57836
G1 X-1.041 Y3.629 E7.98410
G1 X-1.911 Y3.278 E8.03510
G1 X3.870 Y9.059 E8.47955
G1 X3.492 Y9.200 E8.50148
G1 X-9.200 Y-3.492 E9.47725
G1 X-9.341 Y-3.114 E9.49918
G1 X3.114 Y9.341 E10.45674
G1 X2.722 Y9.468 E10.47913
G1 X-9.468 Y-2.722 E11.41633
G1 X-9.560 Y-2.296 E11.44004
G1 X2.296 Y9.560 E12.35159
G1 X1.870 Y9.653 E12.37530
G1 X-9.653 Y-1.870 E13.26121
G1 X-9.740 Y-1.438 E13.28518
G1 X1.438 Y9.740 E14.14452
G1 X0.953 Y9.774 E14.17091
G1 X-9.774 Y-0.953 E14.99568
G1 X-9.809 Y-0.469 E15.02207
G1 X0.469 Y9.809 E15.81227
G1 X-0.033 Y9.825 E15.83961
G1 X-9.825 Y0.033 E16.59242
G1 X-9.785 Y0.592 E16.62288
G1 X-0.592 Y9.785 E17.32966
G1 X-1.151 Y9.745 E17.36012
G1 X-9.745 Y1.151 E18.02086
G1 X-9.625 Y1.790 E18.05620
G1 X-1.790 Y9.625 E18.65858
G1 X-2.453 Y9.481 E18.69548
G1 X-9.481 Y2.453 E19.23579
G1 X-9.218 Y3.235 E19.28063
G1 X-3.235 Y9.218 E19.74063
G1 X-4.110 Y8.862 E19.79197
G1 X-8.862 Y4.110 E20.15736
G1 X-8.161 Y5.330 E20.23387
G1 X-5.330 Y8.161 E20.45154
G1 F1800.000 E19.45154
G92 E0
G1 X-3.278 Y1.911 F9000.000
G1 F1800.000 E1.00000
G1 X-9.059 Y-3.870 F1800.000 E1.44445
G1 X-8.907 Y-4.237 F9000.000
G1 X-3.629 Y1.041 F1800.000 E1.85019
G1 X-3.727 Y0.424 F9000.000
G1 X-8.723 Y-4.572 F1800.000 E2.23433
G1 X-8.540 Y-4.908 F9000.000
G1 X-3.743 Y-0.111 F1800.000 E2.60310
G1 X-3.672 Y-0.559 F9000.000
G1 X-8.357 Y-5.243 F1800.000 E2.96324
G1 X-8.149 Y-5.554 F9000.000
G1 X-3.601 Y-1.007 F1800.000 E3.31284
G1 X-3.447 Y-1.371 F9000.000
G1 X-7.927 Y-5.851 F1800.000 E3.65724
G1 X-7.704 Y-6.148 F9000.000
G1 X-3.272 Y-1.715 F1800.000 E3.99803
G1 X-3.097 Y-2.059 F9000.000
G1 X-7.482 Y-6.444 F1800.000 E4.33520
G1 X-7.227 Y-6.708 F9000.000
G1 X-2.866 Y-2.347 F1800.000 E4.67045
G1 X-2.607 Y-2.607 F9000.000
G1 X-6.967 Y-6.967 F1800.000 E5.00570
G1 X-6.708 Y-7.227 F9000.000
G1 X-2.347 Y-2.866 F1800.000 E5.34095
G1 X-2.059 Y-3.097 F9000.000
G1 X-6.444 Y-7.482 F1800.000 E5.67812
G1 X-6.148 Y-7.704 F9000.000
G1 X-1.715 Y-3.272 F1800.000 E6.01891
G1 X-1.371 Y-3.447 F9000.000
G1 X-5.851 Y-7.927 F1800.000 E6.36331
G1 X-5.554 Y-8.149 F9000.000
G1 X-1.007 Y-3.601 F1800.000 E6.71291
G1 X-0.559 Y-3.672 F9000.000
G1 X-5.243 Y-8.357 F1800.000 E7.07305
G1 X-4.908 Y-8.540 F9000.000
G1 X-0.111 Y-3.743 F1800.000 E7.44182
G1 X0.424 Y-3.727 F9000.000
G1 X-4.572 Y-8.723 F1800.000 E7.82596
G1 X-4.237 Y-8.907 F9000.000
G1 X1.041 Y-3.629 F1800.000 E8.23170
G1 X1.911 Y-3.278 F9000.000
G1 X-3.870 Y-9.059 F1800.000 E8.67615
G1 X-3.492 Y-9.200 F9000.000
G1 X3.438 Y-2.269 F1800.000 E9.20897
G1 X3.438 Y-2.788 F9000.000
G1 X-3.114 Y-9.341 F1800.000 E9.71274
G1 X-2.722 Y-9.468 F9000.000
G1 X3.438 Y-3.307 F1800.000 E10.18639
G1 X3.438 Y-3.826 F9000.000
G1 X-2.296 Y-9.560 F1800.000 E10.62726
G1 X-1.870 Y-9.653 F9000.000
G1 X3.772 Y-4.012 F1800.000 E11.06099
G1 X4.290 Y-4.012 F9000.000
G1 X-1.438 Y-9.740 F1800.000 E11.50137
G1 X-0.953 Y-9.774 F9000.000
G1 X4.809 Y-4.012 F1800.000 E11.94441
G1 X5.328 Y-4.012 F9000.000
G1 X-0.469 Y-9.809 F1800.000 E12.39012
G1 X0.033 Y-9.825 F9000.000
G1 X5.847 Y-4.012 F1800.000 E12.83708
G1 X6.366 Y-4.012 F9000.000
G1 X0.592 Y-9.785 F1800.000 E13.28097
G1 X1.151 Y-9.745 F9000.000
G1 X6.885 Y-4.012 F1800.000 E13.72178
G1 X7.404 Y-4.012 F9000.000
G1 X1.790 Y-9.625 F1800.000 E14.15337
G1 X2.453 Y-9.481 F9000.000
G1 X7.923 Y-4.012 F1800.000 E14.57386
G1 X8.862 Y-4.110 F9000.000
G1 X4.110 Y-8.862 F1800.000 E14.93925
G1 X5.330 Y-8.161 E15.01576
G1 X8.161 Y-5.330 E15.23343
G1 F1800.000 E14.23343
G92 E0
G1 X3.438 Y2.401 F9000.000
G1 F1800.000 E1.00000
G1 X3.097 Y2.059 F1800.000 E1.02627
G1 X2.866 Y2.347 E1.04634
G1 X3.438 Y2.919 E1.09033
G1 X3.438 Y3.438 E1.11853
G1 X2.607 Y2.607 E1.18246
G1 F1800.000 E0.18246
G92 E0
G1 Z0.700 F9000.000
G1 X4.416 Y3.034
G1 F1800.000 E1.00000
G1 X4.416 Y-3.034 F1800.000 E1.32115
G1 X7.484 Y-3.034 E1.48351
G1 X7.484 Y3.034 E1.80466
G1 X4.471 Y3.034 E1.96411
G1 X4.056 Y3.394 F9000.000
G1 X4.056 Y-3.394 F1800.000 E2.32343
G1 X7.844 Y-3.394 E2.52397
G1 X7.844 Y3.394 E2.88330
G1 X4.111 Y3.394 E3.08091
G1 X3.695 Y3.755 F9000.000
G1 X3.695 Y-3.755 F1800.000 E3.47842
G1 X8.205 Y-3.755 E3.71713
G1 X8.205 Y3.755 E4.11463
G1 X3.750 Y3.755 E4.35043
G1 F1800.000 E3.35043
G92 E0
G1 X1.638 Y2.254 F9000.000
G1 F1800.000 E1.00000
G1 X0.861 Y2.650 F1800.000 E1.04614
G1 X0.000 Y2.786 E1.09227
G1 X-0.861 Y2.650 E1.13841
