; generated by Slic3r 0.9.2 on 2012-09-02 at 21:04:26

; layer_height = .35
; perimeters = 2
; solid_layers = 2
; fill_density = .25
; perimeter_speed = 30
; infill_speed = 60
; travel_speed = 120
; scale = 1
; nozzle_diameter = .35
; filament_diameter = 1.75
; extrusion_multiplier = 1
; single wall width = 0.37mm

M190 S80 ; wait for bed temperature to be reached
M104 S180 ; set temperature
G28 X Y ; home X and Y
G0 X100 Y100 F5000 ; goto center of bed
G28 Z ; home Z in center of bed
G0 Z20 F7200
M109 S180 ; wait for temperature to be reached
G90 ; use absolute coordinates
G21 ; set units to millimeters
G92 E0
M82 ; use absolute distances for extrusion
G1 Z0.350 F7200.000
G1 X89.409 Y71.690
G1 F1200.000 E1.00000
G1 X89.709 Y71.270 F1800.000 E1.02732
G1 X90.049 Y70.880 E1.05470
G1 X90.619 Y70.340 E1.09626
G1 X90.819 Y70.180 E1.10982
G1 X91.249 Y69.880 E1.13757
G1 X91.929 Y69.500 E1.17880
G1 X92.649 Y69.210 E1.21989
G1 X93.149 Y69.060 E1.24752
G1 X93.909 Y68.920 E1.28842
G1 X94.689 Y68.870 E1.32979
G1 X104.959 Y68.880 E1.87338
G1 X105.479 Y68.920 E1.90098
G1 X106.009 Y69.010 E1.92944
G1 X106.519 Y69.140 E1.95729
G1 X107.269 Y69.420 E1.99967
G1 X107.509 Y69.530 E2.01364
G1 X107.979 Y69.790 E2.04207
G1 X108.419 Y70.080 E2.06996
G1 X108.839 Y70.410 E2.09823
G1 X109.409 Y70.960 E2.14016
G1 X109.749 Y71.370 E2.16835
G1 X110.189 Y72.030 E2.21034
G1 X110.439 Y72.500 E2.23851
G1 X110.649 Y72.990 E2.26673
G1 X110.879 Y73.750 E2.30876
G1 X110.939 Y74.010 E2.32288
G1 X111.019 Y74.540 E2.35125
G1 X114.049 Y118.420 E4.67933
G1 X114.039 Y121.150 E4.82383
G1 X114.019 Y121.450 E4.83975
G1 X113.929 Y122.040 E4.87134
G1 X113.269 Y124.800 E5.02154
G1 X113.109 Y125.310 E5.04983
G1 X112.779 Y126.030 E5.09175
G1 X112.509 Y126.490 E5.11998
G1 X112.209 Y126.930 E5.14817
G1 X111.869 Y127.330 E5.17596
G1 X111.679 Y127.530 E5.19056
G1 X111.299 Y127.890 E5.21827
G1 X110.879 Y128.220 E5.24654
G1 X110.439 Y128.510 E5.27443
G1 X109.969 Y128.770 E5.30286
G1 X109.489 Y128.980 E5.33059
G1 X108.979 Y129.160 E5.35922
G1 X108.469 Y129.290 E5.38707
G1 X107.939 Y129.380 E5.41553
G1 X107.149 Y129.430 E5.45743
G1 X91.889 Y129.420 E6.26513
G1 X91.359 Y129.380 E6.29326
G1 X90.839 Y129.290 E6.32120
G1 X90.329 Y129.160 E6.34905
G1 X89.589 Y128.890 E6.39075
G1 X89.119 Y128.660 E6.41844
G1 X88.669 Y128.390 E6.44622
G1 X88.449 Y128.240 E6.46031
G1 X88.039 Y127.920 E6.48784
G1 X87.649 Y127.560 E6.51593
G1 X87.289 Y127.170 E6.54403
G1 X86.969 Y126.760 E6.57156
G1 X86.679 Y126.320 E6.59945
G1 X86.429 Y125.860 E6.62716
G1 X86.129 Y125.130 E6.66893
G1 X85.919 Y124.370 E6.71067
G1 X85.829 Y123.850 E6.73860
G1 X85.779 Y123.060 E6.78050
G1 X85.799 Y115.830 E7.16318
G1 X88.359 Y74.590 E9.35020
G1 X88.429 Y74.070 E9.37797
G1 X88.479 Y73.820 E9.39146
G1 X88.699 Y73.070 E9.43283
G1 X89.009 Y72.360 E9.47384
G1 X89.379 Y71.737 E9.51223
G1 F1200.000 E8.51223
G92 E0
G1 X107.322 Y120.486 F7200.000
G1 F1200.000 E1.00000
G1 X103.306 Y120.487 F1800.000 E1.21259
G1 X100.000 Y120.486 E1.38755
G1 X95.421 Y120.487 E1.62991
G1 X92.678 Y120.487 E1.77511
G1 X92.678 Y118.772 E1.86585
G1 X93.761 Y118.703 E1.92330
G1 X95.218 Y118.763 E2.00048
G1 X95.218 Y92.613 E3.38462
G1 X104.782 Y92.613 E3.89085
G1 X104.782 Y118.763 E5.27499
G1 X106.245 Y118.702 E5.35251
G1 X107.322 Y118.772 E5.40962
G1 X107.322 Y120.431 E5.49745
G1 X107.688 Y120.852 F7200.000
G1 X103.306 Y120.852 F1800.000 E5.72939
G1 X100.000 Y120.852 E5.90435
G1 X95.421 Y120.853 E6.14671
G1 X92.312 Y120.852 E6.31126
G1 X92.312 Y118.429 E6.43951
G1 X93.757 Y118.337 E6.51613
G1 X94.852 Y118.382 E6.57416
G1 X94.852 Y92.247 E7.95748
G1 X105.148 Y92.247 E8.50241
G1 X105.148 Y118.382 E9.88573
G1 X106.250 Y118.336 E9.94410
G1 X107.688 Y118.429 E10.02038
G1 X107.688 Y120.797 E10.14571
G1 F1200.000 E9.14571
G92 E0
G1 X107.060 Y119.564 F7200.000
G1 F1200.000 E1.00000
G1 X106.483 Y118.987 F3600.000 E1.04350
G1 X105.948 Y118.972 E1.07198
G1 X107.061 Y120.085 E1.15574
G1 X106.680 Y120.225 E1.17734
G1 X105.448 Y118.993 E1.27006
G1 X104.949 Y119.014 F7200.000
G1 X106.159 Y120.225 F3600.000 E1.36123
G1 F1200.000 E0.36123
G92 E0
G1 X104.521 Y119.106 F7200.000
G1 F1200.000 E1.00000
G1 X95.479 Y110.065 F3600.000 E1.68071
G1 X95.479 Y109.545 E1.70842
G1 X104.520 Y118.586 E2.38912
G1 X104.520 Y118.065 E2.41683
G1 X95.479 Y109.024 E3.09754
G1 X95.479 Y108.504 E3.12525
G1 X104.521 Y117.545 E3.80596
G1 X104.520 Y117.024 E3.83367
G1 X95.479 Y107.983 E4.51438
G1 X95.479 Y107.463 E4.54209
G1 X104.521 Y116.504 E5.22280
G1 X104.521 Y115.983 E5.25051
G1 X95.479 Y106.942 E5.93122
G1 X95.479 Y106.422 E5.95893
G1 X104.520 Y115.463 E6.63963
G1 X104.521 Y114.942 E6.66734
G1 X95.479 Y105.901 E7.34805
G1 X95.479 Y105.381 E7.37576
G1 X104.520 Y114.422 E8.05646
G1 X104.520 Y113.902 E8.08417
G1 X95.479 Y104.861 E8.76488
G1 X95.479 Y104.340 E8.79259
G1 X104.521 Y113.381 E9.47330
G1 X104.520 Y112.861 E9.50101
G1 X95.479 Y103.820 E10.18172
G1 X95.480 Y103.299 E10.20943
G1 X104.521 Y112.340 E10.89013
G1 X104.521 Y111.820 E10.91784
G1 X95.479 Y102.779 E11.59855
G1 X95.479 Y102.258 E11.62626
G1 X104.520 Y111.299 E12.30696
G1 X104.521 Y110.779 E12.33467
G1 X95.479 Y101.738 E13.01538
G1 X95.479 Y101.217 E13.04309
G1 X104.520 Y110.258 E13.72380
G1 X104.520 Y109.738 E13.75150
G1 X95.479 Y100.697 E14.43221
G1 X95.479 Y100.176 E14.45992
G1 X104.521 Y109.217 E15.14063
G1 X104.520 Y108.697 E15.16835
G1 X95.479 Y99.656 E15.84905
G1 X95.480 Y99.135 E15.87676
G1 X104.521 Y108.176 E16.55747
G1 X104.521 Y107.656 E16.58517
G1 X95.479 Y98.615 E17.26588
G1 X95.479 Y98.094 E17.29359
G1 X104.520 Y107.135 E17.97430
G1 X104.521 Y106.615 E18.00201
G1 X95.479 Y97.574 E18.68272
G1 X95.479 Y97.053 E18.71042
G1 X104.520 Y106.094 E19.39113
G1 X104.520 Y105.574 E19.41884
G1 X95.479 Y96.533 E20.09954
G1 X95.479 Y96.012 E20.12726
G1 X104.521 Y105.053 E20.80797
G1 X104.520 Y104.533 E20.83568
G1 X95.479 Y95.492 E21.51638
G1 X95.480 Y94.971 E21.54409
G1 X104.521 Y104.012 E22.22480
G1 X104.521 Y103.492 E22.25251
G1 X95.479 Y94.451 E22.93322
G1 X95.479 Y93.930 E22.96092
G1 X104.520 Y102.971 E23.64163
G1 X104.521 Y102.451 E23.66934
G1 X95.479 Y93.410 E24.35005
G1 X95.479 Y92.889 E24.37776
G1 X104.521 Y101.930 E25.05847
G1 X104.520 Y101.410 E25.08618
G1 X95.985 Y92.874 E25.72884
G1 X96.505 Y92.874 E25.75656
G1 X104.521 Y100.889 E26.36004
G1 X104.520 Y100.369 E26.38775
G1 X97.026 Y92.874 E26.95204
G1 X97.546 Y92.874 E26.97974
G1 X104.520 Y99.849 E27.50485
G1 X104.521 Y99.328 E27.53256
G1 X98.067 Y92.874 E28.01848
G1 X98.587 Y92.874 E28.04619
G1 X104.520 Y98.808 E28.49292
G1 X104.521 Y98.287 E28.52063
G1 X99.108 Y92.874 E28.92817
G1 X99.628 Y92.874 E28.95588
G1 X104.521 Y97.767 E29.32424
G1 X104.520 Y97.246 E29.35195
G1 X100.149 Y92.874 E29.68111
G1 X100.669 Y92.874 E29.70882
G1 X104.521 Y96.726 E29.99880
G1 X104.520 Y96.205 E30.02651
G1 X101.190 Y92.874 E30.27730
G1 X101.710 Y92.874 E30.30501
G1 X104.520 Y95.685 E30.51661
G1 X104.521 Y95.164 E30.54432
G1 X102.231 Y92.874 E30.71674
G1 X102.751 Y92.874 E30.74445
G1 X104.520 Y94.644 E30.87767
G1 X104.520 Y94.123 E30.90538
G1 X103.271 Y92.874 E30.99942
G1 X103.792 Y92.874 E31.02713
G1 X104.520 Y93.603 E31.08198
G1 X104.520 Y93.082 E31.10969
G1 X104.312 Y92.874 E31.12536
G1 F1200.000 E30.12536
G92 E0
G1 X104.449 Y119.035 F7200.000
G1 F1200.000 E1.00000
G1 X105.639 Y120.225 F3600.000 E1.08960
G1 X105.118 Y120.225 E1.11732
G1 X95.479 Y110.586 E1.84303
G1 X95.479 Y111.106 E1.87074
G1 X104.598 Y120.225 E2.55728
G1 X104.077 Y120.225 E2.58498
G1 X95.479 Y111.627 E3.23233
G1 X95.479 Y112.147 E3.26005
G1 X103.557 Y120.225 E3.86821
G1 X103.036 Y120.225 E3.89591
G1 X95.479 Y112.668 E4.46489
G1 X95.480 Y113.188 E4.49260
G1 X102.516 Y120.225 E5.02238
G1 X101.995 Y120.225 E5.05009
G1 X95.479 Y113.709 E5.54069
G1 X95.479 Y114.229 E5.56840
G1 X101.475 Y120.225 E6.01981
G1 X100.955 Y120.225 E6.04752
G1 X95.479 Y114.750 E6.45974
G1 X95.479 Y115.270 E6.48745
G1 X100.434 Y120.225 E6.86048
G1 X99.914 Y120.225 E6.88819
G1 X95.479 Y115.791 E7.22204
G1 X95.479 Y116.311 E7.24975
G1 X99.393 Y120.225 E7.54442
G1 X98.873 Y120.225 E7.57212
G1 X95.479 Y116.832 E7.82761
G1 X95.480 Y117.352 E7.85532
G1 X98.352 Y120.225 E8.07162
G1 X97.832 Y120.225 E8.09932
G1 X95.479 Y117.873 E8.27644
G1 X95.479 Y118.393 E8.30415
G1 X97.312 Y120.225 E8.44209
G1 X96.791 Y120.225 E8.46980
G1 X95.479 Y118.914 E8.56855
G1 X95.069 Y119.023 F7200.000
G1 X96.271 Y120.225 F3600.000 E8.65904
G1 X95.750 Y120.225 E8.68675
G1 X94.526 Y119.001 E8.77895
G1 X93.983 Y118.978 E8.80789
G1 X95.230 Y120.225 E8.90178
G1 X94.709 Y120.225 E8.92950
G1 X93.462 Y118.978 E9.02343
G1 X92.973 Y119.009 E9.04952
G1 X94.189 Y120.225 E9.14109
G1 X93.668 Y120.225 E9.16881
G1 X92.939 Y119.496 E9.22367
G1 X92.939 Y120.017 E9.25138
G1 X93.148 Y120.225 E9.26704
G1 F1200.000 E8.26704
G92 E0
G1 X92.158 Y117.850 F7200.000
G1 F1200.000 E1.00000
G1 X92.158 Y116.227 F1800.000 E1.08590
G1 F1200.000 E0.08590
G92 E0
G1 X92.158 Y123.069 F7200.000
G1 F1200.000 E1.00000
G1 X92.158 Y121.440 F1800.000 E1.08624
G1 X94.658 Y121.440 E1.21856
G1 X94.658 Y123.069 E1.30481
G1 X97.158 Y123.069 E1.43713
G1 X97.158 Y121.440 E1.52338
G1 X99.658 Y121.440 E1.65571
G1 X99.658 Y123.069 E1.74196
G1 X102.158 Y123.070 E1.87429
G1 X102.158 Y121.440 E1.96054
G1 X104.658 Y121.440 E2.09287
G1 X104.658 Y123.070 E2.17913
G1 X107.158 Y123.070 E2.31146
G1 X107.158 Y121.440 E2.39772
G1 F1200.000 E1.39772
G92 E0
G1 X105.883 Y117.778 F7200.000
G1 F1200.000 E1.00000
G1 X105.883 Y116.226 F1800.000 E1.08215
G1 F1200.000 E0.08215
G92 E0
G1 X104.698 Y90.851 F7200.000
G1 F1200.000 E1.00000
G1 X104.698 Y91.659 F1800.000 E1.04275
G1 X102.198 Y91.659 E1.17508
G1 X102.198 Y90.851 E1.21783
G1 X99.698 Y90.851 E1.35015
G1 X99.698 Y91.659 E1.39290
G1 X97.198 Y91.659 E1.52523
G1 X97.198 Y90.851 E1.56798
G1 X94.698 Y90.851 E1.70030
G1 X94.698 Y91.659 E1.74305
G1 F1200.000 E0.74305
G92 E0
G1 X94.698 Y87.026 F7200.000
G1 F1200.000 E1.00000
G1 X94.698 Y75.246 F1800.000 E1.62351
G1 X97.198 Y75.246 E1.75584
G1 X97.198 Y86.797 E2.36725
G1 F1200.000 E1.36725
G92 E0
G1 X99.698 Y86.874 F7200.000
G1 F1200.000 E1.00000
G1 X99.698 Y75.246 F1800.000 E1.61550
G1 X102.198 Y75.246 E1.74782
G1 X102.198 Y86.952 E2.36742
G1 F1200.000 E1.36742
G92 E0
G1 X104.593 Y87.026 F7200.000
G1 F1200.000 E1.00000
G1 X104.698 Y87.026 F1800.000 E1.00554
G1 X104.698 Y75.246 E1.62906
G1 F1200.000 E0.62906
G92 E0
G1 Z0.700 F7200.000
G1 X107.322 Y121.637
G1 F1200.000 E1.00000
G1 X103.847 Y121.637 F1800.000 E1.18392
G1 X100.000 Y121.637 E1.38755
G1 X95.964 Y121.637 E1.60120
G1 X92.678 Y121.637 E1.77511
G1 X92.678 Y117.638 E1.98674
G1 X94.131 Y117.592 E2.06368
G1 X95.218 Y117.619 E2.12124
G1 X95.218 Y91.518 E3.50274
G1 X104.782 Y91.518 E4.00896
G1 X104.782 Y117.619 E5.39047
G1 X105.872 Y117.592 E5.44820
G1 X107.322 Y117.638 E5.52497
G1 X107.322 Y121.582 E5.73368
G1 X107.688 Y122.002 F7200.000
G1 X103.847 Y122.003 F1800.000 E5.93696
G1 X100.000 Y122.002 E6.14058
G1 X95.964 Y122.003 E6.35423
G1 X92.312 Y122.002 E6.54749
G1 X92.312 Y117.284 E6.79721
G1 X94.130 Y117.226 E6.89344
G1 X94.852 Y117.244 E6.93171
G1 X94.852 Y91.153 E8.31272
G1 X105.148 Y91.153 E8.85765
G1 X105.148 Y117.244 E10.23866
G1 X105.874 Y117.226 E10.27711
G1 X107.688 Y117.284 E10.37317
G1 X107.688 Y121.947 E10.61997
G1 F1200.000 E9.61997
G92 E0
G1 X107.092 Y118.438 F7200.000
G1 F1200.000 E1.00000
G1 X106.820 Y118.326 F4500.000 E1.04555
G1 X105.012 Y118.326 E1.32542
G1 X105.284 Y118.438 E1.37095
G1 X105.467 Y118.248 F7200.000
G1 X105.194 Y118.136 F4500.000 E1.38643
G1 X105.683 Y117.903 E1.41491
G1 X106.436 Y118.212 E1.45776
G1 X106.820 Y117.936 E1.48264
G1 X107.092 Y118.048 E1.49812
G1 F1200.000 E0.49812
G92 E0
G1 X107.060 Y120.565 F7200.000
G1 F1200.000 E1.00000
G1 X106.852 Y120.773 F3600.000 E1.01575
G1 X106.329 Y120.773 E1.04377
G1 X107.060 Y120.041 E1.09915
G1 X107.061 Y119.518 E1.12716
G1 X105.805 Y120.773 E1.22218
G1 X105.282 Y120.773 E1.25020
G1 X107.061 Y118.994 E1.38486
G1 X107.060 Y118.470 E1.41291
G1 X104.758 Y120.773 E1.58720
G1 X104.234 Y120.773 E1.61521
G1 X106.577 Y118.430 E1.79258
G1 X106.056 Y118.428 E1.82047
G1 X103.711 Y120.773 E1.99801
G1 X103.187 Y120.773 E2.02602
G1 X105.510 Y118.451 E2.20184
G1 X105.069 Y118.367 E2.22588
G1 X102.663 Y120.773 E2.40796
G1 X102.140 Y120.773 E2.43598
G1 X105.036 Y117.877 E2.65522
G1 X104.521 Y117.869 E2.68281
G1 X101.616 Y120.773 E2.90264
G1 X101.093 Y120.773 E2.93066
G1 X104.521 Y117.345 E3.19013
G1 X104.520 Y116.821 E3.21819
G1 X100.569 Y120.773 E3.51730
G1 X100.045 Y120.773 E3.54532
G1 X104.520 Y116.298 E3.88405
G1 X104.521 Y115.774 E3.91207
G1 X99.522 Y120.773 E4.29046
G1 X98.998 Y120.774 E4.31847
G1 X104.521 Y115.251 E4.73650
G1 X104.520 Y114.727 E4.76455
G1 X98.474 Y120.773 E5.22221
G1 X97.950 Y120.773 E5.25023
G1 X104.520 Y114.203 E5.74753
G1 X104.521 Y113.680 E5.77554
G1 X97.427 Y120.774 E6.31248
G1 X96.903 Y120.774 E6.34050
G1 X104.521 Y113.156 E6.91708
G1 X104.520 Y112.632 E6.94513
G1 X96.379 Y120.773 E7.56134
G1 X95.856 Y120.774 E7.58936
G1 X104.520 Y112.109 E8.24522
G1 X104.521 Y111.585 E8.27323
G1 X95.332 Y120.774 E8.96873
G1 X94.809 Y120.774 E8.99674
G1 X104.521 Y111.062 E9.73186
G1 X104.520 Y110.538 E9.75991
G1 X94.285 Y120.773 E10.53466
G1 X93.761 Y120.773 E10.56267
G1 X104.520 Y110.014 E11.37705
G1 X104.521 Y109.491 E11.40507
G1 X93.238 Y120.774 E12.25908
G1 X92.940 Y120.549 E12.27908
G1 X95.024 Y118.464 E12.43686
G1 X94.931 Y118.557 F7200.000
G1 X95.601 Y117.888 F3600.000 E12.48751
G1 X95.480 Y118.009 F7200.000
G1 X104.521 Y108.968 F3600.000 E13.17185
G1 X104.520 Y108.443 E13.19990
G1 X95.479 Y117.484 E13.88424
G1 X95.479 Y116.961 E13.91226
G1 X104.520 Y107.920 E14.59660
G1 X104.521 Y107.397 E14.62461
G1 X95.480 Y116.438 E15.30895
G1 X95.480 Y115.914 E15.33697
G1 X104.521 Y106.873 E16.02131
G1 X104.520 Y106.349 E16.04936
G1 X95.479 Y115.390 E16.73370
G1 X95.479 Y114.867 E16.76172
G1 X104.520 Y105.826 E17.44606
G1 X104.521 Y105.302 E17.47407
G1 X95.480 Y114.343 E18.15841
G1 X95.480 Y113.820 E18.18643
G1 X104.521 Y104.779 E18.87077
G1 X104.520 Y104.254 E18.89882
G1 X95.479 Y113.296 E19.58316
G1 X95.479 Y112.772 E19.61118
G1 X104.521 Y103.731 E20.29552
G1 X104.521 Y103.208 E20.32354
G1 X95.480 Y112.249 E21.00788
G1 X95.480 Y111.725 E21.03589
G1 X104.521 Y102.684 E21.72023
G1 X104.520 Y102.160 E21.74829
G1 X95.479 Y111.201 E22.43262
G1 X95.479 Y110.678 E22.46063
G1 X104.521 Y101.637 E23.14498
G1 X104.521 Y101.113 E23.17299
G1 X95.480 Y110.154 E23.85732
G1 X95.479 Y109.630 E23.88538
G1 X104.520 Y100.589 E24.56972
G1 X104.520 Y100.066 E24.59773
G1 X95.479 Y109.107 E25.28207
G1 X95.479 Y108.583 E25.31008
G1 X104.521 Y99.542 E25.99442
G1 X104.521 Y99.019 E26.02243
G1 X95.480 Y108.060 E26.70677
G1 X95.479 Y107.536 E26.73482
G1 X104.520 Y98.495 E27.41916
G1 X104.520 Y97.971 E27.44718
G1 X95.479 Y107.012 E28.13152
G1 X95.479 Y106.489 E28.15953
G1 X104.521 Y97.448 E28.84387
G1 X104.521 Y96.924 E28.87189
G1 X95.480 Y105.965 E29.55623
G1 X95.479 Y105.441 E29.58429
G1 X104.520 Y96.400 E30.26862
G1 X104.520 Y95.877 E30.29664
G1 X95.479 Y104.918 E30.98098
G1 X95.480 Y104.394 E31.00900
G1 X104.521 Y95.353 E31.69333
G1 X104.521 Y94.830 E31.72135
G1 X95.480 Y103.871 E32.40569
G1 X95.479 Y103.347 E32.43375
G1 X104.520 Y94.306 E33.11808
G1 X104.520 Y93.782 E33.14609
G1 X95.479 Y102.823 E33.83042
G1 X95.480 Y102.300 E33.85844
G1 X104.520 Y93.259 E34.54275
G1 X104.521 Y92.735 E34.57080
G1 X95.480 Y101.776 E35.25516
G1 X95.479 Y101.252 E35.28321
G1 X104.520 Y92.211 E35.96755
G1 X104.066 Y92.143 E35.99216
G1 X95.479 Y100.729 E36.64207
G1 X95.480 Y100.205 E36.67009
G1 X103.542 Y92.143 E37.28032
