; generated by Slic3r 0.8.4 on 2012-07-30 at 15:37:45

; layer_height = .2
; perimeters = 2
; solid_layers = 2
; fill_density = .25
; nozzle_diameter = .35
; filament_diameter = 1.75
; extrusion_multiplier = 1
; perimeter_speed = 30
; infill_speed = 60
; travel_speed = 150
; scale = 1
; single wall width = 0.49mm

M190 S80 ; wait for bed temperature to be reached
M104 S185 ; set temperature

M109 S185 ; wait for temperature to be reached
G90 ; use absolute coordinates
G21 ; set units to millimeters
G92 E0 ; reset extrusion distance
M82 ; use absolute distances for extrusion
G1 Z0.200 F9000.000
G1 X84.471 Y84.001
G1 F1200.000 E1.00000
G1 X85.791 Y82.811 F1800.000 E1.06797
G1 X87.871 Y81.301 E1.16627
G1 X89.791 Y80.181 E1.25128
G1 X91.731 Y79.301 E1.33276
G1 X93.191 Y78.771 E1.39216
G1 X95.331 Y78.201 E1.47686
G1 X95.991 Y78.071 E1.50259
G1 X98.111 Y77.791 E1.58437
G1 X99.661 Y77.711 E1.64373
G1 X101.881 Y77.791 E1.72869
G1 X104.001 Y78.071 E1.81048
G1 X106.171 Y78.581 E1.89573
G1 X106.801 Y78.771 E1.92090
G1 X108.791 Y79.521 E2.00223
G1 X110.201 Y80.181 E2.06177
G1 X112.121 Y81.301 E2.14678
G1 X114.351 Y82.951 E2.25288
G1 X115.511 Y83.991 E2.31246
G1 X117.181 Y85.791 E2.40637
G1 X118.691 Y87.871 E2.50467
G1 X119.811 Y89.791 E2.58969
G1 X120.691 Y91.731 E2.67116
G1 X121.221 Y93.191 E2.73056
G1 X121.791 Y95.371 E2.81674
G1 X122.191 Y98.011 E2.91886
G1 X122.281 Y99.341 E2.96984
G1 X122.291 Y100.091 E2.99853
G1 X122.201 Y101.871 E3.06669
G1 X121.791 Y104.621 E3.17303
G1 X121.221 Y106.801 E3.25921
G1 X120.471 Y108.791 E3.34054
G1 X119.811 Y110.201 E3.40008
G1 X118.691 Y112.121 E3.48510
G1 X117.631 Y113.631 E3.55566
G1 X117.181 Y114.201 E3.58343
G1 X115.511 Y116.001 E3.67734
G1 X114.351 Y117.041 E3.73692
G1 X112.641 Y118.341 E3.81908
G1 X110.791 Y119.491 E3.90239
G1 X110.201 Y119.811 E3.92806
G1 X108.261 Y120.691 E4.00953
G1 X106.801 Y121.221 E4.06893
G1 X104.621 Y121.791 E4.15511
G1 X104.031 Y121.911 E4.17814
G1 X101.861 Y122.201 E4.26187
G1 X100.321 Y122.281 E4.32085
G1 X98.111 Y122.201 E4.40542
G1 X95.371 Y121.791 E4.51138
G1 X93.191 Y121.221 E4.59756
G1 X91.201 Y120.471 E4.67889
G1 X89.791 Y119.811 E4.73844
G1 X87.871 Y118.691 E4.82345
G1 X86.361 Y117.631 E4.89401
G1 X85.791 Y117.181 E4.92178
G1 X83.991 Y115.511 E5.01569
G1 X82.951 Y114.351 E5.07527
G1 X81.651 Y112.641 E5.15743
G1 X80.501 Y110.791 E5.24074
G1 X80.181 Y110.201 E5.26641
G1 X79.301 Y108.261 E5.34788
G1 X78.771 Y106.801 E5.40728
G1 X78.201 Y104.661 E5.49198
G1 X78.071 Y104.001 E5.51771
G1 X77.791 Y101.881 E5.59949
G1 X77.711 Y99.661 E5.68445
G1 X77.851 Y97.531 E5.76609
G1 X78.071 Y95.991 E5.82559
G1 X78.581 Y93.821 E5.91084
G1 X78.771 Y93.191 E5.93601
G1 X79.521 Y91.201 E6.01734
G1 X80.181 Y89.791 E6.07689
G1 X81.301 Y87.871 E6.16190
G1 X82.951 Y85.641 E6.26799
G1 X83.991 Y84.481 E6.32758
G1 X84.419 Y84.053 E6.35073
G1 F1200.000 E5.35073
G92 E0
G1 X98.185 Y97.502 F9000.000
G1 F1200.000 E1.00000
G1 X99.046 Y97.064 F1800.000 E1.03694
G1 X100.000 Y96.913 E1.07388
G1 X100.954 Y97.064 E1.11082
G1 X101.815 Y97.502 E1.14777
G1 X102.498 Y98.185 E1.18471
G1 X102.936 Y99.046 E1.22165
G1 X103.010 Y99.514 E1.23975
G1 X103.010 Y99.514 E1.23976
G1 X103.087 Y100.000 E1.25860
G1 X102.936 Y100.954 E1.29554
G1 X102.498 Y101.815 E1.33248
G1 X101.815 Y102.498 E1.36942
G1 X100.954 Y102.936 E1.40636
G1 X100.000 Y103.087 E1.44330
G1 X99.046 Y102.936 E1.48024
G1 X98.185 Y102.498 E1.51718
G1 X97.502 Y101.815 E1.55412
G1 X97.064 Y100.954 E1.59107
G1 X96.913 Y100.000 E1.62801
G1 X97.064 Y99.046 E1.66495
G1 X97.502 Y98.185 E1.70189
G1 X98.133 Y97.554 E1.73602
G1 X98.444 Y97.859 F9000.000
G1 X99.182 Y97.483 F1800.000 E1.76769
G1 X100.000 Y97.353 E1.79936
G1 X100.818 Y97.483 E1.83103
G1 X101.556 Y97.859 E1.86271
G1 X102.141 Y98.444 E1.89438
G1 X102.517 Y99.182 E1.92605
G1 X102.639 Y99.949 E1.95573
G1 X102.639 Y99.949 E1.95573
G1 X102.647 Y100.000 E1.95772
G1 X102.517 Y100.818 E1.98939
G1 X102.141 Y101.556 E2.02106
G1 X101.556 Y102.141 E2.05273
G1 X100.818 Y102.517 E2.08440
G1 X100.000 Y102.647 E2.11608
G1 X99.182 Y102.517 E2.14775
G1 X98.444 Y102.141 E2.17942
G1 X97.859 Y101.556 E2.21109
G1 X97.483 Y100.818 E2.24276
G1 X97.353 Y100.000 E2.27443
G1 X97.483 Y99.182 E2.30610
G1 X97.859 Y98.444 E2.33777
G1 X98.392 Y97.911 E2.36663
G1 F1200.000 E1.36663
G92 E0
G1 X106.920 Y96.570 F9000.000
G1 F1200.000 E1.00000
G1 X110.780 Y96.570 F1800.000 E1.14763
G1 X110.780 Y103.430 E1.40999
G1 X106.920 Y103.430 E1.55762
G1 X106.920 Y96.643 E1.81718
G1 X107.355 Y97.005 F9000.000
G1 X110.345 Y97.005 F1800.000 E1.93153
G1 X110.345 Y102.995 E2.16062
G1 X107.355 Y102.995 E2.27498
G1 X107.355 Y97.078 E2.50126
G1 F1200.000 E1.50126
G92 E0
G1 X105.901 Y114.246 F9000.000
G1 F1200.000 E1.00000
G1 X104.476 Y114.755 F1800.000 E1.05787
G1 X103.008 Y115.123 E1.11574
G1 X101.511 Y115.345 E1.17362
G1 X100.000 Y115.419 E1.23149
G1 X98.489 Y115.345 E1.28936
G1 X96.992 Y115.123 E1.34723
G1 X95.524 Y114.755 E1.40510
G1 X94.099 Y114.246 E1.46298
G1 X92.731 Y113.599 E1.52085
G1 X91.434 Y112.821 E1.57872
G1 X90.218 Y111.919 E1.63659
G1 X89.097 Y110.903 E1.69447
G1 X88.081 Y109.782 E1.75234
G1 X87.179 Y108.566 E1.81021
G1 X86.401 Y107.269 E1.86808
G1 X85.754 Y105.901 E1.92595
G1 X85.245 Y104.476 E1.98383
G1 X84.877 Y103.008 E2.04170
G1 X84.655 Y101.511 E2.09957
G1 X84.581 Y100.000 E2.15744
G1 X84.655 Y98.489 E2.21532
G1 X84.877 Y96.992 E2.27319
G1 X85.245 Y95.524 E2.33106
G1 X85.754 Y94.099 E2.38893
G1 X86.401 Y92.731 E2.44680
G1 X87.179 Y91.434 E2.50468
G1 X88.081 Y90.218 E2.56255
G1 X89.097 Y89.097 E2.62042
G1 X90.218 Y88.081 E2.67829
G1 X91.434 Y87.179 E2.73616
G1 X92.731 Y86.401 E2.79404
G1 X94.099 Y85.754 E2.85191
G1 X95.524 Y85.245 E2.90978
G1 X96.992 Y84.877 E2.96765
G1 X98.489 Y84.655 E3.02553
G1 X100.000 Y84.581 E3.08340
G1 X101.511 Y84.655 E3.14127
G1 X103.008 Y84.877 E3.19914
G1 X104.476 Y85.245 E3.25701
G1 X105.901 Y85.754 E3.31489
G1 X107.269 Y86.401 E3.37276
G1 X108.567 Y87.179 E3.43063
G1 X109.782 Y88.081 E3.48850
G1 X110.903 Y89.097 E3.54638
G1 X111.919 Y90.218 E3.60425
G1 X112.821 Y91.434 E3.66212
G1 X113.599 Y92.731 E3.71999
G1 X114.246 Y94.099 E3.77786
G1 X114.755 Y95.524 E3.83574
G1 X115.123 Y96.992 E3.89361
G1 X115.345 Y98.489 E3.95148
G1 X115.419 Y100.000 E4.00935
G1 X115.345 Y101.511 E4.06722
G1 X115.123 Y103.008 E4.12510
G1 X114.755 Y104.476 E4.18297
G1 X114.246 Y105.901 E4.24084
G1 X113.599 Y107.269 E4.29871
G1 X112.821 Y108.566 E4.35658
G1 X111.919 Y109.782 E4.41446
G1 X110.903 Y110.903 E4.47233
G1 X109.782 Y111.919 E4.53020
G1 X108.566 Y112.821 E4.58807
G1 X107.269 Y113.599 E4.64595
G1 X105.967 Y114.214 E4.70101
G1 X106.067 Y114.648 F9000.000
G1 X104.602 Y115.172 F1800.000 E4.76051
G1 X103.093 Y115.550 E4.82002
G1 X101.554 Y115.779 E4.87953
G1 X100.000 Y115.855 E4.93903
G1 X98.446 Y115.779 E4.99854
G1 X96.907 Y115.550 E5.05805
G1 X95.398 Y115.172 E5.11756
G1 X93.933 Y114.648 E5.17706
G1 X92.526 Y113.983 E5.23657
G1 X91.192 Y113.183 E5.29608
G1 X90.119 Y112.387 E5.34717
G1 X90.103 Y112.402 E5.34799
G1 X88.789 Y111.211 E5.41584
G1 X87.744 Y110.058 E5.47534
G1 X86.817 Y108.808 E5.53485
G1 X86.017 Y107.474 E5.59435
G1 X85.352 Y106.067 E5.65386
G1 X84.828 Y104.602 E5.71337
G1 X84.450 Y103.093 E5.77288
G1 X84.221 Y101.554 E5.83238
G1 X84.145 Y100.000 E5.89189
G1 X84.221 Y98.446 E5.95140
G1 X84.450 Y96.907 E6.01090
G1 X84.828 Y95.398 E6.07041
G1 X85.352 Y93.933 E6.12992
G1 X86.017 Y92.526 E6.18943
G1 X86.817 Y91.192 E6.24893
G1 X87.744 Y89.942 E6.30844
G1 X88.789 Y88.789 E6.36795
G1 X90.103 Y87.598 E6.43579
G1 X90.119 Y87.613 E6.43662
G1 X91.192 Y86.817 E6.48770
G1 X92.526 Y86.017 E6.54721
G1 X93.933 Y85.352 E6.60672
G1 X95.398 Y84.828 E6.66622
G1 X96.907 Y84.450 E6.72573
G1 X98.446 Y84.221 E6.78524
G1 X100.000 Y84.145 E6.84475
G1 X101.554 Y84.221 E6.90425
G1 X103.093 Y84.450 E6.96376
G1 X104.602 Y84.828 E7.02327
G1 X106.067 Y85.352 E7.08277
G1 X107.474 Y86.017 E7.14228
G1 X108.808 Y86.817 E7.20179
G1 X110.058 Y87.744 E7.26129
G1 X111.211 Y88.789 E7.32080
G1 X112.402 Y90.103 E7.38864
G1 X112.387 Y90.119 E7.38947
G1 X113.183 Y91.192 E7.44056
G1 X113.983 Y92.526 E7.50007
G1 X114.648 Y93.933 E7.55957
G1 X115.172 Y95.398 E7.61908
G1 X115.550 Y96.907 E7.67859
G1 X115.779 Y98.446 E7.73809
G1 X115.780 Y98.477 E7.73927
G1 X115.780 Y98.477 E7.73927
G1 X115.844 Y99.780 E7.78916
G1 X115.866 Y99.780 E7.78999
G1 X115.855 Y100.000 E7.79843
G1 X115.855 Y100.000 E7.79843
G1 X115.779 Y101.554 E7.85794
G1 X115.550 Y103.093 E7.91744
G1 X115.172 Y104.602 E7.97695
G1 X114.648 Y106.067 E8.03646
G1 X113.983 Y107.474 E8.09596
G1 X113.183 Y108.808 E8.15547
G1 X112.387 Y109.881 E8.20656
G1 X112.402 Y109.897 E8.20739
G1 X111.211 Y111.211 E8.27523
G1 X110.058 Y112.256 E8.33474
G1 X108.808 Y113.183 E8.39424
G1 X107.474 Y113.983 E8.45375
G1 X106.134 Y114.617 E8.51045
G1 F1200.000 E7.51045
G92 E0
G1 X106.843 Y103.726 F9000.000
G1 F1200.000 E1.00000
G1 X112.164 Y109.048 F3600.000 E1.28781
G1 X112.429 Y108.690 E1.30485
G1 X107.466 Y103.726 E1.57330
G1 X108.089 Y103.726 E1.59714
G1 X112.683 Y108.320 E1.84561
G1 X112.916 Y107.931 E1.86299
G1 X108.712 Y103.726 E2.09038
G1 X109.336 Y103.726 E2.11421
G1 X113.150 Y107.541 E2.32053
G1 X113.379 Y107.147 E2.33796
G1 X109.959 Y103.726 E2.52296
G1 X110.582 Y103.726 E2.54680
G1 X113.579 Y106.724 E2.70892
G1 X113.780 Y106.301 E2.72682
G1 X111.076 Y103.597 E2.87303
G1 X111.076 Y102.974 E2.89686
G1 X113.980 Y105.877 E3.05389
G1 X114.144 Y105.419 E3.07253
G1 X111.076 Y102.351 E3.23847
G1 X111.076 Y101.728 E3.26230
G1 X114.308 Y104.960 E3.43712
G1 X114.473 Y104.501 E3.45577
G1 X111.076 Y101.104 E3.63947
G1 X111.076 Y100.481 E3.66330
G1 X114.599 Y104.003 E3.85381
G1 X114.723 Y103.505 E3.87346
G1 X111.076 Y99.858 E4.07072
G1 X111.076 Y99.235 E4.09456
G1 X114.843 Y103.002 E4.29831
G1 X114.924 Y102.459 E4.31930
G1 X111.076 Y98.612 E4.52740
G1 X111.076 Y97.988 E4.55124
G1 X115.004 Y101.916 E4.76370
G1 X115.063 Y101.352 E4.78542
G1 X111.076 Y97.365 E5.00104
G1 X111.076 Y96.742 E5.02487
G1 X115.092 Y100.757 E5.24207
G1 X115.121 Y100.163 E5.26482
G1 X111.076 Y96.119 E5.48360
G1 X111.232 Y96.274 F9000.000
G1 X99.837 Y84.879 F3600.000 E6.09992
G1 X99.243 Y84.908 E6.12267
G1 X110.608 Y96.274 E6.73741
G1 X109.985 Y96.274 E6.76125
G1 X98.648 Y84.937 E7.37441
G1 X98.084 Y84.996 E7.39613
G1 X109.362 Y96.274 E8.00613
G1 X108.739 Y96.274 E8.02997
G1 X97.541 Y85.076 E8.63562
G1 X96.998 Y85.157 E8.65660
G1 X108.115 Y96.274 E9.25790
G1 X107.492 Y96.274 E9.28173
G1 X96.495 Y85.276 E9.87654
G1 X95.996 Y85.401 E9.89619
G1 X106.869 Y96.274 E10.48425
G1 X106.624 Y96.652 E10.50148
G1 X95.499 Y85.527 E11.10317
G1 X95.040 Y85.692 E11.12182
G1 X106.624 Y97.275 E11.74834
G1 X106.624 Y97.898 E11.77217
G1 X94.581 Y85.856 E12.42352
G1 X94.123 Y86.020 E12.44216
G1 X106.624 Y98.521 E13.11831
G1 X106.624 Y99.145 E13.14214
G1 X93.699 Y86.221 E13.84118
G1 X93.276 Y86.421 E13.85908
G1 X106.624 Y99.768 E14.58100
G1 X106.624 Y100.391 E14.60484
G1 X92.853 Y86.621 E15.34964
G1 X92.459 Y86.850 E15.36708
G1 X106.624 Y101.014 E16.13320
G1 X106.624 Y101.638 E16.15703
G1 X92.069 Y87.084 E16.94423
G1 F1200.000 E15.94423
G92 E0
G1 X100.489 Y84.908 F9000.000
G1 F1200.000 E1.00000
G1 X115.092 Y99.511 F3600.000 E1.78979
G1 X115.059 Y98.855 E1.81489
G1 X101.145 Y84.941 E2.56749
G1 X101.855 Y85.027 E2.59486
G1 X114.972 Y98.145 E3.30434
G1 X114.864 Y97.413 E3.33263
G1 X102.587 Y85.136 E3.99666
G1 X103.392 Y85.317 E4.02821
G1 X114.683 Y96.608 E4.63891
G1 X114.472 Y95.775 E4.67179
G1 X104.225 Y85.528 E5.22602
G1 X105.196 Y85.875 E5.26544
G1 X114.125 Y94.804 E5.74841
G1 X113.653 Y93.709 E5.79402
G1 X106.291 Y86.347 E6.19223
G1 X107.646 Y87.079 E6.25116
G1 X112.921 Y92.354 E6.53643
G1 F1200.000 E5.53643
G92 E0
G1 X110.735 Y89.545 F9000.000
G1 F1200.000 E1.00000
G1 X110.455 Y89.265 F3600.000 E1.01513
G1 F1200.000 E0.01513
G92 E0
G1 X101.131 Y96.768 F9000.000
G1 F1200.000 E1.00000
G1 X91.680 Y87.317 F3600.000 E1.51118
G1 X91.310 Y87.571 E1.52832
G1 X100.390 Y96.651 E2.01944
G1 X99.783 Y96.667 E2.04266
G1 X90.952 Y87.836 E2.52031
G1 X90.595 Y88.102 E2.53735
G1 X99.245 Y96.752 E3.00525
G1 X98.787 Y96.917 E3.02389
G1 X90.247 Y88.377 E3.48578
G1 X89.920 Y88.674 E3.50266
G1 X98.374 Y97.127 E3.95990
G1 X97.987 Y97.363 E3.97725
G1 X89.593 Y88.970 E4.43122
G1 X89.266 Y89.266 E4.44810
G1 X97.675 Y97.675 E4.90290
G1 X97.363 Y97.987 E4.91975
G1 X88.970 Y89.593 E5.37373
G1 X88.674 Y89.920 E5.39061
G1 X97.127 Y98.374 E5.84785
G1 X96.917 Y98.787 E5.86557
G1 X88.377 Y90.247 E6.32747
G1 X88.102 Y90.595 E6.34443
G1 X96.752 Y99.245 E6.81234
G1 X96.667 Y99.783 E6.83317
G1 X87.836 Y90.952 E7.31082
G1 X87.571 Y91.310 E7.32786
G1 X96.651 Y100.390 E7.81898
G1 X96.768 Y101.131 E7.84765
G1 X87.317 Y91.680 E8.35883
G1 X87.084 Y92.069 E8.37621
G1 X107.931 Y112.916 E9.50376
G1 X107.541 Y113.150 E9.52114
G1 X86.850 Y92.459 E10.64025
G1 X86.621 Y92.853 E10.65768
G1 X107.147 Y113.379 E11.76788
G1 X106.724 Y113.579 E11.78578
G1 X86.421 Y93.276 E12.88392
G1 X86.221 Y93.699 E12.90182
G1 X106.301 Y113.780 E13.98789
G1 X105.877 Y113.980 E14.00580
G1 X86.020 Y94.123 E15.07981
G1 X85.856 Y94.581 E15.09845
G1 X105.419 Y114.144 E16.15656
G1 X104.960 Y114.308 E16.17521
G1 X85.692 Y95.040 E17.21738
G1 X85.527 Y95.499 E17.23602
G1 X104.501 Y114.473 E18.26225
G1 X104.003 Y114.599 E18.28187
G1 X85.401 Y95.996 E19.28801
G1 X85.276 Y96.495 E19.30766
G1 X103.505 Y114.723 E20.29359
G1 X103.002 Y114.843 E20.31338
G1 X85.157 Y96.998 E21.27859
G1 X85.076 Y97.541 E21.29957
G1 X102.459 Y114.924 E22.23977
G1 X101.916 Y115.004 E22.26076
G1 X84.996 Y98.084 E23.17596
G1 X84.937 Y98.648 E23.19768
G1 X101.352 Y115.063 E24.08549
G1 X100.757 Y115.092 E24.10823
G1 X84.908 Y99.243 E24.96550
G1 X84.879 Y99.837 E24.98824
G1 X100.163 Y115.121 E25.81495
G1 X99.511 Y115.092 E25.83994
G1 X84.908 Y100.489 E26.62974
G1 X84.941 Y101.145 E26.65483
G1 X98.855 Y115.059 E27.40744
G1 X98.145 Y114.972 E27.43480
G1 X85.027 Y101.855 E28.14428
G1 X85.136 Y102.587 E28.17258
G1 X97.413 Y114.864 E28.83661
G1 X96.608 Y114.683 E28.86816
G1 X85.317 Y103.392 E29.47886
G1 X85.528 Y104.225 E29.51174
G1 X95.775 Y114.472 E30.06597
G1 X94.805 Y114.125 E30.10539
G1 X85.875 Y105.195 E30.58836
G1 X86.347 Y106.291 E30.63397
G1 X93.709 Y113.653 E31.03218
G1 X92.354 Y112.921 E31.09111
G1 X87.079 Y107.646 E31.37639
G1 F1200.000 E30.37639
G92 E0
G1 X89.265 Y110.455 F9000.000
G1 F1200.000 E1.00000
G1 X89.545 Y110.735 F3600.000 E1.01515
G1 F1200.000 E0.01515
G92 E0
G1 X98.869 Y103.232 F9000.000
G1 F1200.000 E1.00000
G1 X108.320 Y112.683 F3600.000 E1.51119
G1 X108.690 Y112.429 E1.52833
G1 X99.610 Y103.349 E2.01945
G1 X100.216 Y103.333 E2.04266
G1 X109.048 Y112.164 E2.52031
G1 X109.405 Y111.898 E2.53735
G1 X100.755 Y103.248 E3.00525
G1 X101.213 Y103.083 E3.02389
G1 X109.753 Y111.623 E3.48579
G1 X110.080 Y111.326 E3.50266
G1 X101.626 Y102.873 E3.95990
G1 X102.013 Y102.637 E3.97725
G1 X110.407 Y111.030 E4.43122
G1 X110.734 Y110.734 E4.44810
G1 X102.325 Y102.325 E4.90290
G1 X102.637 Y102.013 E4.91975
G1 X111.030 Y110.407 E5.37373
G1 X111.326 Y110.080 E5.39060
G1 X102.873 Y101.626 E5.84785
G1 X103.083 Y101.213 E5.86557
G1 X111.623 Y109.753 E6.32746
G1 X111.898 Y109.405 E6.34443
G1 X103.248 Y100.755 E6.81233
G1 F1200.000 E5.81233
G92 E0
G1 X103.232 Y98.869 F9000.000
G1 F1200.000 E1.00000
G1 X106.624 Y102.261 F3600.000 E1.18346
G1 X106.624 Y102.884 E1.20729
G1 X103.349 Y99.610 E1.38441
G1 X103.333 Y100.216 E1.40763
G1 X106.624 Y103.507 E1.58563
G1 F1200.000 E0.58563
G92 E0
G1 Z0.400 F9000.000
G1 X102.498 Y101.815
G1 F1200.000 E1.00000
G1 X101.815 Y102.498 F1800.000 E1.03694
G1 X100.954 Y102.936 E1.07388
