; generated by Slic3r 0.8.4 on 2012-07-30 at 16:21:39

; layer_height = .35
; perimeters = 2
; solid_layers = 2
; fill_density = .25
; nozzle_diameter = .35
; filament_diameter = 1.75
; extrusion_multiplier = 1
; perimeter_speed = 30
; infill_speed = 60
; travel_speed = 150
; scale = 1
; single wall width = 0.37mm

M190 S80 ; wait for bed temperature to be reached
M104 S185 ; set temperature

M109 S185 ; wait for temperature to be reached
G90 ; use absolute coordinates
G21 ; set units to millimeters
G92 E0 ; reset extrusion distance
M82 ; use absolute distances for extrusion
G1 Z0.350 F9000.000
G1 X80.160 Y81.270
G1 F1200.000 E1.00000
G1 X81.610 Y79.850 F1800.000 E1.10742
G1 X83.170 Y78.520 E1.21593
G1 X84.840 Y77.310 E1.32508
G1 X86.170 Y76.480 E1.40806
G1 X88.360 Y75.330 E1.53899
G1 X90.260 Y74.510 E1.64852
G1 X92.160 Y73.870 E1.75464
G1 X94.160 Y73.350 E1.86402
G1 X96.180 Y72.990 E1.97262
G1 X98.420 Y72.760 E2.09180
G1 X99.820 Y72.720 E2.16594
G1 X101.800 Y72.780 E2.27079
G1 X104.290 Y73.060 E2.40341
G1 X106.320 Y73.460 E2.51292
G1 X108.230 Y74.000 E2.61798
G1 X110.190 Y74.690 E2.72796
G1 X112.170 Y75.580 E2.84287
G1 X113.820 Y76.480 E2.94235
G1 X115.560 Y77.590 E3.05159
G1 X117.200 Y78.830 E3.16041
G1 X118.720 Y80.160 E3.26732
G1 X120.140 Y81.610 E3.37474
G1 X121.480 Y83.190 E3.48439
G1 X122.810 Y85.040 E3.60499
G1 X123.730 Y86.570 E3.69948
G1 X124.660 Y88.360 E3.80625
G1 X125.480 Y90.280 E3.91676
G1 X126.120 Y92.160 E4.02187
G1 X126.640 Y94.160 E4.13125
G1 X127.000 Y96.190 E4.24038
G1 X127.210 Y98.190 E4.34682
G1 X127.270 Y100.240 E4.45537
G1 X127.170 Y102.250 E4.56189
G1 X126.930 Y104.290 E4.67061
G1 X126.530 Y106.320 E4.78012
G1 X125.990 Y108.230 E4.88518
G1 X125.330 Y110.100 E4.99014
G1 X124.590 Y111.810 E5.08876
G1 X123.530 Y113.780 E5.20717
G1 X122.520 Y115.380 E5.30732
G1 X121.160 Y117.200 E5.42758
G1 X119.830 Y118.720 E5.53448
G1 X118.380 Y120.140 E5.64190
G1 X116.820 Y121.470 E5.75041
G1 X115.150 Y122.680 E5.85956
G1 X113.470 Y123.710 E5.96387
G1 X111.700 Y124.640 E6.06970
G1 X109.730 Y125.480 E6.18305
G1 X107.940 Y126.090 E6.28315
G1 X105.830 Y126.640 E6.39856
G1 X103.800 Y127.000 E6.50768
G1 X101.800 Y127.210 E6.61412
G1 X100.240 Y127.270 E6.69675
G1 X98.190 Y127.210 E6.80531
G1 X95.700 Y126.930 E6.93793
G1 X93.670 Y126.530 E7.04744
G1 X91.760 Y125.990 E7.15250
G1 X89.790 Y125.290 E7.26316
G1 X87.950 Y124.460 E7.37000
G1 X86.210 Y123.530 E7.47443
G1 X84.610 Y122.520 E7.57458
G1 X82.790 Y121.160 E7.69483
G1 X81.270 Y119.830 E7.80174
G1 X79.850 Y118.380 E7.90916
G1 X78.520 Y116.820 E8.01766
G1 X77.310 Y115.150 E8.12682
G1 X76.280 Y113.470 E8.23112
G1 X75.350 Y111.700 E8.33695
G1 X74.690 Y110.190 E8.42418
G1 X73.870 Y107.830 E8.55642
G1 X73.350 Y105.830 E8.66580
G1 X72.990 Y103.800 E8.77492
G1 X72.780 Y101.800 E8.88136
G1 X72.720 Y99.760 E8.98938
G1 X72.820 Y97.740 E9.09643
G1 X73.060 Y95.700 E9.20515
G1 X73.460 Y93.660 E9.31519
G1 X74.030 Y91.640 E9.42628
G1 X74.700 Y89.790 E9.53042
G1 X75.530 Y87.950 E9.63726
G1 X76.480 Y86.170 E9.74406
G1 X77.590 Y84.430 E9.85330
G1 X78.830 Y82.790 E9.96212
G1 X80.123 Y81.311 E10.06611
G1 F1200.000 E9.06611
G92 E0
G1 X96.706 Y87.231 F9000.000
G1 F1200.000 E1.00000
G1 X103.294 Y87.231 F1800.000 E1.34874
G1 X103.294 Y90.819 E1.53869
G1 X96.706 Y90.819 E1.88743
G1 X96.706 Y87.286 E2.07447
G1 X97.066 Y87.591 F9000.000
G1 X102.934 Y87.591 F1800.000 E2.38503
G1 X102.934 Y90.459 E2.53681
G1 X97.066 Y90.459 E2.84737
G1 X97.066 Y87.646 E2.99623
G1 F1200.000 E1.99623
G92 E0
G1 X99.316 Y97.003 F9000.000
G1 F1200.000 E1.00000
G1 X100.230 Y96.934 F1800.000 E1.04851
G1 X101.123 Y97.138 E1.09701
G1 X101.369 Y97.280 E1.11206
G1 X101.369 Y97.280 E1.11206
G1 X101.917 Y97.596 E1.14552
G1 X102.540 Y98.268 E1.19402
G1 X102.938 Y99.094 E1.24253
G1 X103.074 Y100.000 E1.29104
G1 X102.938 Y100.906 E1.33954
G1 X102.540 Y101.732 E1.38805
G1 X101.917 Y102.404 E1.43656
G1 X101.365 Y102.722 E1.47028
G1 X101.365 Y102.722 E1.47028
G1 X101.123 Y102.862 E1.48506
G1 X100.230 Y103.066 E1.53357
G1 X99.316 Y102.997 E1.58208
G1 X99.214 Y102.957 E1.58787
G1 X99.214 Y102.957 E1.58787
G1 X98.463 Y102.663 E1.63058
G1 X97.746 Y102.091 E1.67909
G1 X97.230 Y101.334 E1.72759
G1 X96.960 Y100.458 E1.77610
G1 X96.960 Y99.542 E1.82461
G1 X97.230 Y98.666 E1.87311
G1 X97.746 Y97.909 E1.92162
G1 X98.463 Y97.337 E1.97013
G1 X99.214 Y97.043 E2.01284
G1 X99.214 Y97.043 E2.01284
G1 X99.265 Y97.023 E2.01572
G1 X99.397 Y97.358 F9000.000
G1 X100.202 Y97.298 F1800.000 E2.05847
G1 X100.990 Y97.478 E2.10122
G1 X101.637 Y97.851 E2.14078
G1 X101.637 Y97.851 E2.14078
G1 X101.689 Y97.881 E2.14397
G1 X102.239 Y98.474 E2.18672
G1 X102.589 Y99.201 E2.22948
G1 X102.710 Y100.000 E2.27223
G1 X102.589 Y100.799 E2.31498
G1 X102.239 Y101.526 E2.35773
G1 X101.689 Y102.119 E2.40049
G1 X101.637 Y102.149 E2.40368
G1 X101.637 Y102.149 E2.40368
G1 X100.990 Y102.522 E2.44324
G1 X100.202 Y102.702 E2.48599
G1 X99.397 Y102.642 E2.52874
G1 X98.645 Y102.347 E2.57149
G1 X98.014 Y101.843 E2.61425
G1 X97.559 Y101.176 E2.65700
G1 X97.321 Y100.404 E2.69975
G1 X97.321 Y99.596 E2.74250
G1 X97.559 Y98.824 E2.78525
G1 X98.014 Y98.157 E2.82801
G1 X98.645 Y97.653 E2.87076
G1 X99.346 Y97.378 E2.91059
G1 F1200.000 E1.91059
G92 E0
G1 X96.706 Y109.181 F9000.000
G1 F1200.000 E1.00000
G1 X103.294 Y109.181 F1800.000 E1.34874
G1 X103.294 Y112.769 E1.53869
G1 X96.706 Y112.769 E1.88743
G1 X96.706 Y109.236 E2.07447
G1 X97.066 Y109.541 F9000.000
G1 X102.934 Y109.541 F1800.000 E2.38503
G1 X102.934 Y112.409 E2.53681
G1 X97.066 Y112.409 E2.84737
G1 X97.066 Y109.596 E2.99623
G1 F1200.000 E1.99623
G92 E0
G1 X107.510 Y119.134 F9000.000
G1 F1200.000 E1.00000
G1 X106.059 Y119.642 F1800.000 E1.08137
G1 X104.574 Y120.040 E1.16272
G1 X103.064 Y120.326 E1.24409
G1 X101.536 Y120.498 E1.32545
G1 X100.000 Y120.555 E1.40681
G1 X99.566 Y120.539 E1.42979
G1 X99.566 Y120.539 E1.42979
G1 X98.464 Y120.498 E1.48817
G1 X96.936 Y120.326 E1.56954
G1 X95.426 Y120.040 E1.65090
G1 X93.941 Y119.642 E1.73226
G1 X92.490 Y119.134 E1.81362
G1 X91.081 Y118.520 E1.89499
G1 X89.722 Y117.801 E1.97635
G1 X88.421 Y116.984 E2.05771
G1 X87.184 Y116.071 E2.13907
G1 X86.019 Y115.068 E2.22043
G1 X86.003 Y115.052 E2.22163
G1 X86.003 Y115.052 E2.22163
G1 X84.932 Y113.981 E2.30180
G1 X83.929 Y112.816 E2.38316
G1 X83.016 Y111.579 E2.46452
G1 X82.199 Y110.278 E2.54588
G1 X82.087 Y110.066 E2.55858
G1 X82.087 Y110.066 E2.55858
G1 X81.480 Y108.919 E2.62724
G1 X80.866 Y107.510 E2.70860
G1 X80.358 Y106.059 E2.78997
G1 X79.960 Y104.574 E2.87133
G1 X79.674 Y103.064 E2.95269
G1 X79.502 Y101.536 E3.03405
G1 X79.494 Y101.326 E3.04516
G1 X79.494 Y101.326 E3.04516
G1 X79.445 Y100.000 E3.11541
G1 X79.494 Y98.674 E3.18567
G1 X79.494 Y98.674 E3.18567
G1 X79.502 Y98.464 E3.19678
G1 X79.674 Y96.936 E3.27814
G1 X79.960 Y95.426 E3.35950
G1 X80.358 Y93.941 E3.44086
G1 X80.866 Y92.490 E3.52223
G1 X81.480 Y91.081 E3.60359
G1 X82.199 Y89.722 E3.68495
G1 X82.891 Y88.620 E3.75385
G1 X82.891 Y88.620 E3.75385
G1 X83.016 Y88.421 E3.76631
G1 X83.929 Y87.184 E3.84767
G1 X85.044 Y85.889 E3.93812
G1 X85.053 Y85.898 E3.93880
G1 X86.019 Y84.932 E4.01110
G1 X87.184 Y83.929 E4.09246
G1 X88.421 Y83.016 E4.17383
G1 X89.722 Y82.199 E4.25519
G1 X91.081 Y81.480 E4.33655
G1 X92.490 Y80.866 E4.41791
G1 X93.941 Y80.358 E4.49927
G1 X95.426 Y79.960 E4.58064
G1 X96.936 Y79.674 E4.66200
G1 X98.464 Y79.502 E4.74336
G1 X99.801 Y79.452 E4.81416
G1 X99.801 Y79.452 E4.81416
G1 X100.000 Y79.445 E4.82472
G1 X101.536 Y79.502 E4.90608
G1 X103.041 Y79.672 E4.98625
G1 X103.041 Y79.672 E4.98625
G1 X103.064 Y79.674 E4.98745
G1 X104.574 Y79.960 E5.06881
G1 X106.037 Y80.352 E5.14897
G1 X106.037 Y80.352 E5.14897
G1 X106.059 Y80.358 E5.15017
G1 X107.510 Y80.866 E5.23153
G1 X108.919 Y81.480 E5.31289
G1 X110.278 Y82.199 E5.39426
G1 X111.579 Y83.016 E5.47562
G1 X112.816 Y83.929 E5.55698
G1 X113.981 Y84.932 E5.63834
G1 X115.052 Y86.003 E5.71851
G1 X115.052 Y86.003 E5.71851
G1 X115.068 Y86.019 E5.71971
G1 X116.071 Y87.184 E5.80107
G1 X116.984 Y88.421 E5.88243
G1 X117.801 Y89.722 E5.96379
G1 X118.520 Y91.081 E6.04515
G1 X119.134 Y92.490 E6.12651
G1 X119.635 Y93.920 E6.20668
G1 X119.635 Y93.920 E6.20668
G1 X119.642 Y93.941 E6.20788
G1 X119.912 Y94.950 E6.26316
G1 X119.912 Y94.950 E6.26317
G1 X120.040 Y95.426 E6.28924
G1 X120.326 Y96.936 E6.37060
G1 X120.498 Y98.464 E6.45196
G1 X120.548 Y99.804 E6.52293
G1 X120.548 Y99.804 E6.52293
G1 X120.555 Y100.000 E6.53333
G1 X120.548 Y100.196 E6.54372
G1 X120.548 Y100.196 E6.54372
G1 X120.498 Y101.536 E6.61469
G1 X120.326 Y103.064 E6.69605
G1 X120.040 Y104.574 E6.77741
G1 X120.034 Y104.596 E6.77861
G1 X120.034 Y104.596 E6.77861
G1 X119.642 Y106.059 E6.85878
G1 X119.635 Y106.080 E6.85997
G1 X119.635 Y106.080 E6.85997
G1 X119.134 Y107.510 E6.94014
G1 X118.520 Y108.919 E7.02150
G1 X117.801 Y110.278 E7.10286
G1 X117.789 Y110.297 E7.10406
G1 X117.789 Y110.297 E7.10406
G1 X116.984 Y111.579 E7.18422
G1 X116.071 Y112.816 E7.26558
G1 X115.068 Y113.981 E7.34695
G1 X115.052 Y113.997 E7.34814
G1 X115.052 Y113.997 E7.34814
G1 X113.981 Y115.068 E7.42831
G1 X112.816 Y116.071 E7.50967
G1 X111.579 Y116.984 E7.59103
G1 X110.278 Y117.801 E7.67239
G1 X110.066 Y117.913 E7.68509
G1 X110.066 Y117.913 E7.68509
G1 X108.919 Y118.520 E7.75376
G1 X107.560 Y119.112 E7.83220
G1 X107.642 Y119.470 F9000.000
G1 X106.266 Y119.951 F1800.000 E7.90931
G1 X106.266 Y119.960 E7.90975
G1 X104.654 Y120.392 E7.99809
G1 X103.117 Y120.683 E8.08088
G1 X101.563 Y120.858 E8.16367
G1 X101.309 Y120.867 E8.17712
G1 X101.309 Y120.867 E8.17712
G1 X100.000 Y120.916 E8.24646
G1 X99.927 Y120.913 E8.25034
G1 X99.927 Y120.913 E8.25034
G1 X98.437 Y120.858 E8.32925
G1 X96.883 Y120.683 E8.41205
G1 X96.698 Y120.648 E8.42202
G1 X96.698 Y120.648 E8.42202
G1 X95.346 Y120.392 E8.49484
G1 X93.835 Y119.987 E8.57763
G1 X92.358 Y119.470 E8.66042
G1 X90.925 Y118.845 E8.74321
G1 X89.542 Y118.114 E8.82600
G1 X88.385 Y117.387 E8.89830
G1 X88.370 Y117.395 E8.89918
G1 X86.959 Y116.353 E8.99203
G1 X85.773 Y115.333 E9.07482
G1 X84.667 Y114.227 E9.15761
G1 X83.647 Y113.041 E9.24040
G1 X82.718 Y111.782 E9.32319
G1 X81.886 Y110.458 E9.40598
G1 X81.869 Y110.426 E9.40789
G1 X81.869 Y110.426 E9.40789
G1 X81.196 Y109.152 E9.48415
G1 X81.189 Y109.152 E9.48453
G1 X80.530 Y107.642 E9.57178
G1 X80.432 Y107.363 E9.58740
G1 X80.432 Y107.363 E9.58740
G1 X80.013 Y106.165 E9.65457
G1 X79.608 Y104.654 E9.73736
G1 X79.317 Y103.117 E9.82015
G1 X79.142 Y101.563 E9.90294
G1 X79.084 Y100.000 E9.98573
G1 X79.142 Y98.437 E10.06852
G1 X79.317 Y96.883 E10.15131
G1 X79.608 Y95.346 E10.23410
G1 X80.040 Y93.734 E10.32244
G1 X80.049 Y93.734 E10.32288
G1 X80.432 Y92.637 E10.38437
G1 X80.432 Y92.637 E10.38437
G1 X80.530 Y92.358 E10.39999
G1 X81.155 Y90.925 E10.48278
G1 X81.886 Y89.542 E10.56557
G1 X82.718 Y88.218 E10.64836
G1 X83.647 Y86.959 E10.73115
G1 X84.667 Y85.773 E10.81394
G1 X85.773 Y84.667 E10.89674
G1 X86.959 Y83.647 E10.97952
G1 X88.218 Y82.718 E11.06232
G1 X89.542 Y81.886 E11.14510
G1 X90.925 Y81.155 E11.22789
G1 X92.358 Y80.530 E11.31068
G1 X93.678 Y80.068 E11.38466
G1 X93.678 Y80.068 E11.38466
G1 X93.835 Y80.013 E11.39348
G1 X95.346 Y79.608 E11.47627
G1 X96.883 Y79.317 E11.55906
G1 X98.605 Y79.123 E11.65082
G1 X98.605 Y79.136 E11.65149
G1 X100.000 Y79.084 E11.72536
G1 X101.563 Y79.142 E11.80815
G1 X103.117 Y79.317 E11.89094
G1 X104.654 Y79.608 E11.97373
G1 X106.165 Y80.013 E12.05652
G1 X107.363 Y80.432 E12.12369
G1 X107.363 Y80.432 E12.12369
G1 X107.642 Y80.530 E12.13931
G1 X109.152 Y81.189 E12.22656
G1 X109.152 Y81.196 E12.22694
G1 X110.458 Y81.886 E12.30511
G1 X111.782 Y82.718 E12.38790
G1 X113.041 Y83.647 E12.47069
G1 X114.227 Y84.667 E12.55348
G1 X115.333 Y85.773 E12.63627
G1 X116.353 Y86.959 E12.71906
G1 X117.395 Y88.370 E12.81191
G1 X117.387 Y88.385 E12.81278
G1 X118.114 Y89.542 E12.88509
G1 X118.845 Y90.925 E12.96788
G1 X119.470 Y92.358 E13.05067
G1 X119.987 Y93.835 E13.13346
G1 X120.382 Y95.311 E13.21434
G1 X120.382 Y95.311 E13.21434
G1 X120.392 Y95.346 E13.21625
G1 X120.648 Y96.698 E13.28907
G1 X120.648 Y96.698 E13.28907
G1 X120.683 Y96.883 E13.29904
G1 X120.858 Y98.437 E13.38183
G1 X120.916 Y100.000 E13.46462
G1 X120.858 Y101.563 E13.54741
G1 X120.683 Y103.117 E13.63021
G1 X120.648 Y103.302 E13.64018
G1 X120.648 Y103.302 E13.64018
G1 X120.392 Y104.654 E13.71300
G1 X119.987 Y106.165 E13.79579
G1 X119.470 Y107.642 E13.87858
G1 X118.948 Y108.838 E13.94764
G1 X118.970 Y108.838 E13.94880
G1 X118.114 Y110.458 E14.04582
G1 X117.387 Y111.615 E14.11813
G1 X117.395 Y111.630 E14.11901
G1 X116.353 Y113.041 E14.21185
G1 X115.333 Y114.227 E14.29464
G1 X114.227 Y115.333 E14.37744
G1 X113.041 Y116.353 E14.46023
G1 X111.782 Y117.282 E14.54302
G1 X111.568 Y117.416 E14.55640
G1 X111.568 Y117.416 E14.55640
G1 X110.458 Y118.114 E14.62581
G1 X110.426 Y118.131 E14.62772
G1 X110.426 Y118.131 E14.62772
G1 X109.152 Y118.804 E14.70398
G1 X109.152 Y118.811 E14.70435
G1 X107.692 Y119.448 E14.78868
G1 F1200.000 E13.78868
G92 E0
G1 X112.020 Y116.391 F9000.000
G1 F1200.000 E1.00000
G1 X98.715 Y103.085 F3600.000 E1.99595
G1 X99.471 Y103.327 E2.03795
G1 X112.316 Y116.172 E2.99948
G1 X112.612 Y115.954 E3.01894
G1 X99.969 Y103.312 E3.96529
G1 X100.433 Y103.261 E3.98999
G1 X112.894 Y115.722 E4.92270
G1 X113.170 Y115.484 E4.94200
G1 X100.852 Y103.166 E5.86405
G1 X101.244 Y103.044 E5.88580
G1 X113.446 Y115.246 E6.79916
G1 X113.723 Y115.008 E6.81846
G1 X101.570 Y102.856 E7.72811
G1 X101.896 Y102.668 E7.74803
G1 X113.988 Y114.759 E8.65312
G1 X114.245 Y114.502 E8.67237
G1 X102.179 Y102.436 E9.57559
G1 X102.426 Y102.169 E9.59485
G1 X114.502 Y114.245 E10.49879
G1 X114.759 Y113.988 E10.51804
G1 X102.674 Y101.902 E11.42270
G1 X102.861 Y101.576 E11.44263
G1 X115.008 Y113.723 E12.35187
G1 X115.246 Y113.446 E12.37117
G1 X103.029 Y101.229 E13.28570
G1 X103.188 Y100.874 E13.30630
G1 X115.484 Y113.170 E14.22672
G1 X115.722 Y112.894 E14.24602
G1 X103.255 Y100.427 E15.17921
G1 X103.322 Y99.980 E15.20313
G1 X115.954 Y112.612 E16.14866
G1 X116.173 Y112.316 E16.16812
G1 X103.261 Y99.404 E17.13461
G1 X103.116 Y98.745 E17.17032
G1 X116.391 Y112.020 E18.16398
G1 X116.609 Y111.724 E18.18344
G1 X88.276 Y83.391 E20.30430
G1 X87.980 Y83.609 E20.32376
G1 X101.248 Y96.877 E21.31692
G1 X100.582 Y96.725 E21.35309
G1 X87.684 Y83.827 E22.31852
G1 X87.388 Y84.046 E22.33798
G1 X100.041 Y96.699 E23.28509
G1 X99.512 Y96.683 E23.31312
G1 X87.106 Y84.278 E24.24170
G1 X86.830 Y84.516 E24.26100
G1 X99.142 Y96.828 E25.18261
G1 X98.773 Y96.973 E25.20361
G1 X86.554 Y84.754 E26.11827
G1 X86.277 Y84.992 E26.13757
G1 X98.404 Y97.118 E27.04528
G1 X98.113 Y97.342 E27.06469
G1 X86.012 Y85.241 E27.97051
G1 X85.755 Y85.498 E27.98976
G1 X97.827 Y97.570 E28.89341
G1 X97.553 Y97.810 E28.91270
G1 X85.498 Y85.755 E29.81504
G1 X85.241 Y86.012 E29.83428
G1 X97.344 Y98.115 E30.74026
G1 X97.136 Y98.421 E30.75984
G1 X84.992 Y86.277 E31.66885
G1 X84.754 Y86.554 E31.68815
G1 X96.960 Y98.760 E32.60182
G1 X96.839 Y99.153 E32.62359
G1 X84.516 Y86.830 E33.54599
G1 X84.278 Y87.106 E33.56529
G1 X96.717 Y99.546 E34.49642
G1 X96.703 Y100.046 E34.52290
G1 X84.046 Y87.388 E35.47037
G1 X83.827 Y87.684 E35.48983
G1 X96.703 Y100.560 E36.45364
G1 X96.908 Y101.278 E36.49317
G1 X83.609 Y87.980 E37.48860
G1 X83.391 Y88.276 E37.50807
G1 X111.724 Y116.609 E39.62893
G1 X111.425 Y116.824 E39.64843
G1 X103.551 Y108.950 E40.23782
G1 X103.551 Y109.464 E40.26504
G1 X111.109 Y117.023 E40.83079
G1 X110.793 Y117.221 E40.85053
G1 X103.551 Y109.979 E41.39264
G1 X103.551 Y110.493 E41.41986
G1 X110.477 Y117.419 E41.93833
G1 X110.159 Y117.615 E41.95812
G1 X103.551 Y111.007 E42.45275
G1 X103.551 Y111.521 E42.47997
